JvanZyl1/RocketTrajectoryOptimisation/data/agent_saves/PyTorchSAC/LandingBurnPureThrottle/1_A_1/agent_saves/sac_pytorch_learning_stats_reduced.csv
step,state_mean,state_min,state_max,state_std,state_kurtosis,action_mean,action_min,action_max,action_std,action_kurtosis,reward_mean,reward_min,reward_max,reward_std,reward_kurtosis,critic_loss,actor_loss,alpha_loss,alpha_value,q_value_mean,q_value_min,q_value_max,q_value_std,log_prob_mean,log_prob_min,log_prob_max,log_prob_std,target_q_mean,target_q_min,target_q_max,target_q_std
6004.5,1.6515479,1.52388668,1.7542203400000003,0.0597164641,-0.640531373,-0.06595295770000001,-0.987082425,0.9866233010000001,0.595150096,-1.2626063900000002,0.04563472469999999,-5.473807445,0.20407493200000001,0.4684894850000001,134.661137,0.473861413449049,-1.035619843006134,-4.514465761184693,0.03360525856842551,1.0245077029999998,-26.4531561,4.4588564,6.19218246,-0.33059165199999996,-3.5294835799999995,1.2962856399999998,0.7432082600000001,1.030719794,-28.3304684,4.499596070000001,6.229302710000001
6014.5,1.6518531999999997,1.5188327300000002,1.7549785800000002,0.0607787912,-0.640941521,-0.0615844138,-0.9878116879999999,0.989708827,0.594154451,-1.2685325100000002,0.048297718,-4.96462624,0.20444941400000002,0.438680645,117.78302160000001,0.45564188435673714,-0.9430117964744568,-4.950735139846802,0.033519231242576095,0.9276550480000001,-27.3630814,4.47067093,6.3048798,-0.4580696489999999,-3.1434904700000006,1.491117934,0.640650586,0.950188131,-28.8871262,4.49383381,6.31326747
6023.5,1.6518749874999998,1.5207800125,1.7549524374999999,0.06143312925,-0.5745966075,-0.046915685874999995,-0.9845058825,0.9883008,0.59922548375,-1.2897290375000001,0.0176154425,-5.3509158875,0.20502746875,0.6028351087500001,78.0958785,0.7448308002203703,-0.6872809696942568,-5.144977331161499,0.033437388300386485,0.6700821849999999,-27.240358750000002,4.4815319375,6.741015375,-0.5142095712499999,-2.1259108125,1.8123377999999999,0.6223883374999999,0.7040390625,-31.217347,4.4870023125000005,6.790490562500001
11954.5,1.65182094,1.5256134700000001,1.7649411800000003,0.05728842099999999,-0.4084433880000001,-0.174694654,-0.992210115,0.996173328,0.6151128320000001,-1.1826395900000002,0.056739840894000006,-3.88216449,0.202772846,0.33404443390000005,101.63277839999999,0.7279161006212235,6.274064731597901,-1.7845181345939636,0.008404589778397644,-6.26879721,-78.1345618,6.197884,20.4391738,0.626582415,-3.4989418400000005,4.949022279999999,1.57698603,-6.3044290100000016,-79.28505,6.21995679,20.5208535
11964.5,1.65168737,1.52855897,1.7636678800000003,0.056951194000000004,-0.5207207434,-0.16225900000000001,-0.986712063,0.9964090969999999,0.604461774,-1.13777143,0.02522670683,-5.465909453,0.201734914,0.559816116,86.33969160000001,0.7737346947193146,6.598158073425293,-1.2681276142597198,0.008389191987435944,-6.59199354,-80.570543,6.22176376,21.007983000000003,0.7347309909999999,-3.6030557100000005,5.34791974,1.67006042,-6.589470879999999,-84.374658,6.222491840000001,21.0912832
11974.5,1.6523910000000002,1.5238961999999998,1.7656674899999998,0.0573793145,-0.31830130645,-0.1694476836,-0.9896601960000002,0.9974682349999998,0.601707385,-1.1285701399999999,0.0362384064,-5.47691085,0.20353992199999998,0.5132356229999999,118.1802287,0.7081296354532242,6.608702230453491,-1.4196088850498199,0.008376681763084447,-6.60281117,-82.10470790000001,6.229749119999999,20.7825003,0.7031526539999999,-2.9946936799999997,5.105980360000001,1.5928585400000004,-6.60322893,-85.08184509999998,6.22863763,20.844689499999998
11984.5,1.65303511,1.5277942100000002,1.76868336,0.0571659524,-0.422311306,-0.1793910774,-0.9909388189999999,0.9915156559999998,0.606454568,-1.163229253,0.0348637606,-5.97947302,0.199394911,0.523277038,134.3848891,0.7330856412649155,6.891149425506592,-2.200832486152649,0.008362789472170295,-6.88663353,-81.1757775,6.21644507,20.8972686,0.539933671,-3.9285498000000003,4.8420848,1.5085566,-6.910040619999999,-83.9530086,6.223506,20.9919385
11991.5,1.6532542000000001,1.530704225,1.7661843499999998,0.0575743925,-0.47283692250000003,-0.19495738,-0.9910829575,0.9964109275,0.6096493125,-1.16458245,0.040076375500000004,-5.979682075,0.20220697,0.5353627825,132.04216625,0.8321221023797989,6.364600896835327,-1.4859842658042908,0.008351342091966904,-6.358841900000001,-80.50299125000001,6.223160624999999,20.48147725,0.6894576375,-2.73715365,4.989252049999999,1.482712175,-6.37756475,-81.59053,6.218959025,20.53841825
17654.5,1.65753158,1.52948869,1.7882390300000002,0.06120427290000001,-0.525966661,-0.28147647900000006,-0.9927310309999999,0.9880541349999998,0.5803244879999999,-0.776532441,0.04876883629999999,-3.960339605,0.200824559,0.380453081,90.5964297,0.54156593978405,23.37708435058594,3.6717251539230347,0.008333890955652897,-23.362364899999996,-136.85054159999999,6.37594062,38.6299743,1.7668822599999998,-3.0884893700000005,4.31834918,1.3319150499999999,-23.294350700000003,-136.39594900000003,6.380262400000001,38.52820519999999
17664.5,1.6578483099999999,1.5247693400000002,1.7898414599999999,0.06055581659999999,-0.4016772338,-0.272059184,-0.9888348019999998,0.9932186309999999,0.5832096589999999,-0.810537839,0.0275109761,-5.97989699,0.20110034699999998,0.56741281,134.295259,0.864587938785553,23.563121032714843,1.2409392803907395,0.00836005755039224,-23.552596500000003,-136.870782,6.38067347,38.351079000000006,1.2593465000000001,-3.44596298,3.9636486899999994,1.3776871099999999,-23.4414241,-137.540366,6.38482535,38.2665933
17671.0,1.6566186,1.5219899000000001,1.7891710333333333,0.06184395766666667,-0.5348540766666666,-0.2509490833333334,-0.9949039666666667,0.98647136,0.5911348866666667,-0.9664224866666666,0.042804259000000004,-5.979561366666666,0.20199492666666666,0.4815809233333333,170.10521333333335,0.8062216838200887,21.626728693644207,0.2304549515247345,0.008373166178416628,-21.617953666666665,-133.95876333333334,6.400258233333333,37.498851,1.0481856166666665,-3.114646433333333,3.849485833333334,1.4219727666666666,-21.577512666666667,-135.92924666666667,6.390326633333333,37.456622333333335
23254.5,1.6617434,1.5276101999999998,1.7942810200000001,0.0628526625,-0.577333945,-0.31497566000000005,-0.9933982809999999,0.9880692259999998,0.5676864500000001,-0.606764793,0.0609703186,-4.38525656,0.203323288,0.3239201904,142.6562755,0.4802948564291,45.1880687713623,1.060035514831543,0.015319217348864234,-45.1688672,-180.77989,5.68207223,52.25299299999999,1.25367269,-2.93564371,2.5549438600000003,1.01679914,-45.1459549,-180.782403,5.7117178,52.3079432
23264.5,1.66047792,1.5281846200000002,1.7983660099999998,0.0634965609,-0.620569318,-0.313290085,-0.9912811180000001,0.9889604309999998,0.5616775900000001,-0.618846677,0.027208559479999995,-5.46983945,0.200397713,0.526865934,112.6832242,1.0699657320976257,44.77069931030273,0.7829230025410652,0.015342711047728441,-44.752483600000005,-184.994305,5.66027212,52.349335800000006,1.1874149399999998,-3.1271572900000004,2.55775229,1.0471978,-44.7656659,-185.246672,5.7201081600000006,52.46918509999999
23274.5,1.6608922200000003,1.52975699,1.7979989299999999,0.062219341299999995,-0.501423275,-0.32981866900000006,-0.988748994,0.994405996,0.560605374,-0.4391860256000001,0.0234704992,-4.42548431,0.198515892,0.505156762,69.7495559,0.8384593307971955,44.38029403686524,0.6724006503820419,0.015361750514801062,-44.3624612,-185.33432599999998,5.71246737,52.4848793,1.1610181800000001,-2.7866026600000002,2.52693439,1.00826253,-44.3127853,-186.731911,5.718981729999999,52.5622628
23281.0,1.6610835000000002,1.5288508,1.7988126,0.06333226066666667,-0.5568141366666667,-0.33567148666666663,-0.9936051,0.9990315433333334,0.5630941133333334,-0.44532696666666666,0.0216743481,-5.980369666666667,0.20364152666666668,0.58388259,100.33164,0.7027612527211508,44.35948816935221,1.123866577943166,0.015372783940989765,-44.339977999999995,-188.27482666666666,5.655714866666666,52.74022166666666,1.2691730666666665,-2.4914221666666667,2.602209866666667,0.9668202633333333,-44.34655866666666,-189.5454,5.725750933333333,52.832887
29804.5,1.6592351099999998,1.50417216,1.8007322599999998,0.06585471709999999,-0.301947452,-0.23507973200000004,-0.983817994,0.981734161,0.5418562650000001,-0.911625364,0.0253087752,-4.948668147,0.205779337,0.5315982904000001,79.39887480000002,0.602039760351181,80.66684036254883,0.4691092222929001,0.018082871520642595,-80.64664499999999,-248.94049099999998,0.472295863,64.8716114,1.1169015940000002,-2.1348440799999997,3.3226375500000005,1.57222951,-80.642396,-248.577855,0.490878212,64.9669164
29813.0,1.6587063428571427,1.5068920285714285,1.7986381571428574,0.06546497271428572,-0.320284509,-0.2711650842857143,-0.9919959,0.9897594142857143,0.5390498957142857,-0.8827762471428571,0.02855136,-5.262209728571428,0.20454193571428572,0.5245250771428571,114.78379157142857,0.5836834747876439,79.06104605538505,0.4930242768355778,0.018094789305957454,-79.04072771428571,-247.90939714285716,0.5065832914285714,63.900571428571425,1.1228823714285714,-2.4370937857142856,3.3207530999999997,1.5501273857142854,-79.1269207142857,-249.23968428571428,0.48222401714285706,64.06378085714286
36754.5,1.6534466,1.4822534799999998,1.80594661,0.0727104468,-0.15546131800000001,-0.1347142316,-0.9829370809999999,0.970444011,0.54516736,-1.23186069,0.023909445100000003,-5.473481770000001,0.21379988500000002,0.5776547859999999,95.39446560000002,1.5523546874523162,116.04162292480468,-0.6968646138906479,0.008421909474319849,-116.03442699999998,-322.634522,-20.548839899999997,74.6243714,0.854119702,-2.23175242,3.9870398700000003,1.5615573,-116.03256890000003,-323.763148,-20.460837100000003,74.81555660000001
36764.5,1.6545017899999999,1.4812645199999999,1.80359433,0.07172370930000001,-0.141256857,-0.147283177,-0.9914625779999999,0.9820090710000002,0.5435650539999999,-1.1756696199999999,0.026936625799999996,-5.979573800000001,0.210865591,0.5617354790000001,133.2918172,0.7332013845443726,116.57302398681641,-0.6987509965896607,0.008413042125240647,-116.56583889999999,-322.175118,-20.534070000000003,73.2140054,0.8537507129999999,-2.59905627,4.19082247,1.60577412,-116.47393920000002,-323.1468080000001,-20.4783436,73.31539000000001
36774.5,1.6526059200000003,1.48119137,1.8035964,0.0742028903,-0.0770718936,-0.13814176900000003,-0.9881766909999999,0.9817533950000001,0.547083691,-1.17573991,0.00954352777,-5.9796908,0.21269974800000005,0.650697227,99.23567240000001,0.8635129690170288,116.63803939819336,-0.9117892146110534,0.008401581485231778,-116.63123739999999,-328.20737899999995,-20.584057400000003,76.2965882,0.8092121459999999,-2.3545359699999997,4.133567949999999,1.59800553,-116.641405,-329.726549,-20.5992135,76.3919494
36784.5,1.653387,1.4804631900000003,1.80356861,0.07305984239999999,-0.1110167385,-0.13725278249999998,-0.99032947,0.9879313919999999,0.553887636,-1.1883956899999997,0.03240302917,-5.473440430000001,0.21222942999999997,0.518597342,124.08122699999998,0.9987902730703354,114.4593734741211,-0.760501729696989,0.008388740960111196,-114.4523195,-320.777338,-20.6337133,75.31328199999999,0.8409170589999999,-2.74579361,4.0765455600000005,1.5913926699999998,-114.5496846,-322.19375099999996,-20.6332053,75.4473623
36790.5,1.64900845,1.4782875500000001,1.8039965,0.0718937975,0.136455207,-0.069891942,-0.9869063499999999,0.9968309,0.54262685,-1.0775365,0.085022183,-0.53359319,0.21520196,0.09428669549999999,15.4868044,0.36756085976958275,108.89531707763672,-0.3030073940753937,0.008381799453782653,-108.887463,-323.17625499999997,-20.801564,73.94758999999999,0.93663083,-2.28361725,4.307468,1.58617235,-108.6692575,-322.33514,-20.578181999999998,73.941115
44204.5,1.64596818,1.4502807500000001,1.8058538799999997,0.081767475,-0.228995187,-0.0555272589,-0.9909038570000002,0.977869995,0.5481022870000001,-1.180034,0.0438010373,-4.428175293000001,0.221502767,0.4617388694,73.92802289999999,0.6046152248978615,148.92251434326172,0.6242994233965874,0.016478120563739068,-148.90353399999998,-354.64990300000005,-42.0304043,82.55327890000001,1.1520106300000001,-3.9569879,3.7501161800000005,1.35352059,-148.830045,-355.76478999999995,-41.99799,82.6367444
44214.5,1.64725857,1.4507926,1.81039502,0.0833176095,-0.269172385,-0.0672069859,-0.991382611,0.9865058730000001,0.549619097,-1.18709985,0.02483071034,-5.9797323,0.22103996500000003,0.592523531,113.6553938,0.8453803420066833,151.8103012084961,1.1105153858661652,0.016531551833323603,-151.78930400000002,-358.82914300000004,-41.9956378,85.54210160000001,1.2706811399999998,-3.43050791,3.78184647,1.3600661600000001,-151.801515,-359.83932400000003,-41.934847500000004,85.66678800000001
44224.5,1.6477112899999997,1.44811184,1.8088359099999998,0.08233394340000001,-0.1984447579,-0.0556101906,-0.9930501190000001,0.9818068280000001,0.5540868080000001,-1.2221260099999998,0.035909760619999995,-4.9702284599999995,0.221568567,0.490036293,110.8485508,0.8646241143345833,149.9753402709961,0.8800937473773957,0.016589964119232064,-149.955195,-359.310776,-42.12804680000001,83.44494360000002,1.21468999,-3.1588905499999997,3.76010744,1.31711123,-149.946065,-360.184793,-42.103662199999995,83.5400224
51754.5,1.63993903,1.4449807199999998,1.8123030100000002,0.0900418929,-0.649957783,0.0013543591699999996,-0.9921807770000001,0.9851303109999998,0.541564604,-1.0753532499999998,0.04556464464999999,-5.978520349999999,0.224815763,0.500238137,157.60373409999997,0.7571064740419388,172.36581420898438,-0.3520934134721756,0.030136876873886803,-172.33869699999997,-384.224077,-56.83514759999999,86.70948229999999,0.899464018,-3.2157337199999994,3.72694392,1.3488192199999998,-172.28750200000002,-386.20130800000004,-56.684396500000005,86.81317140000002
51764.5,1.6399163299999997,1.4451043399999999,1.81136051,0.0873478834,-0.536459689,0.0036128325799999993,-0.9863061529999998,0.9825818109999999,0.546124529,-1.0944573199999998,0.04255116145,-4.4696509849999995,0.22266267,0.45110305500000003,90.98140379999998,0.8719406336545944,169.63702239990235,-0.6072218477725982,0.030057490381025252,-169.612165,-384.102166,-56.738800600000005,83.6906131,0.826729892,-4.001241009999999,3.8234802200000004,1.34211567,-169.733987,-385.188316,-56.78819109999999,83.81615900000001
51774.5,1.64138162,1.44408696,1.8082804900000002,0.088580182,-0.580530455,-0.005595221406,-0.994331273,0.980825237,0.5396157,-1.05166351,0.06413221129999999,-4.940185116,0.224810761,0.380585428,149.53270650000002,0.7188861340284347,172.70231170654296,-0.03719056770205498,0.029968085066890193,-172.672658,-380.86381599999993,-56.885147,84.8854644,0.9893893260000001,-3.55053081,3.9943192000000005,1.4179243,-172.709366,-381.405584,-56.8209827,84.992994
51783.0,1.6409988857142856,1.446111,1.8101109714285715,0.08725433214285713,-0.5590251037142858,0.006635699871428573,-0.98197367,0.9839822157142858,0.5395077557142857,-1.0493813814285713,0.034552287314285716,-5.9786857,0.22261107714285713,0.56787184,119.78626914285714,0.8842506153242928,172.9188733782087,0.4694802558847836,0.02993868229357822,-172.8849285714286,-385.9113442857143,-57.013690714285715,85.0180477142857,1.1338075614285714,-2.8880246428571428,4.009218914285714,1.3961089142857142,-172.92410571428573,-389.46450000000004,-56.853259,85.17735257142859
59504.5,1.6353037799999999,1.43641708,1.8097010699999998,0.0925571043,-0.7903041010000001,0.06673240586,-0.987616912,0.9746444729999999,0.5312687269999999,-0.877402991,0.0428099792,-5.473695935,0.22576893499999998,0.5032515770000001,117.51625779999998,0.7110683351755143,189.14135284423827,0.20452980026602746,0.044160442328379935,-189.09430000000003,-413.170546,-70.6472572,88.45079820000001,1.065554716,-3.9856428999999998,3.58061491,1.20660137,-189.18821899999998,-415.644417,-70.57717360000001,88.54904150000002
59512.0,1.6349613600000001,1.43650084,1.8134998,0.0939205,-0.7657549699999999,0.07611025,-0.9944315400000001,0.9859114119999999,0.5234360600000001,-0.73201856,0.0383404988,-5.9783840999999995,0.22455556799999998,0.562507934,117.959985,0.6759454607963562,188.4061248779297,-0.016323426365852357,0.044186268779326535,-188.362166,-413.0371099999999,-70.8712908,89.03308359999998,0.994768026,-3.49969392,3.6161991,1.22651172,-188.420746,-415.81757,-70.786008,89.09251199999999
67404.5,1.62938361,1.42160092,1.81429864,0.09976200670000002,-0.9095755000000001,0.0893412647,-0.9752886789999999,0.982554004,0.5279119760000001,-0.77082503,0.05407815343,-4.421421986,0.230515685,0.42856843299999997,93.498537,1.215136456489563,202.24281463623046,0.22452893443405628,0.04925535536799419,-202.189887,-430.448894,-81.31545750000001,97.803266,1.0745746139999999,-4.41738553,3.4245639599999995,1.2725159099999996,-202.32461999999998,-432.407959,-81.23348239999999,97.8944807
67414.5,1.63066374,1.4206481899999999,1.8156187499999998,0.0979982015,-0.8687908049999999,0.10717450320000002,-0.988667818,0.9838642969999999,0.5348892810000001,-0.7294495999999999,0.03291065096,-5.45171734,0.23250792899999997,0.546144812,106.0901833,1.0505548298358918,204.95555267333984,0.4430117912590504,0.04932034746479734,-204.89898,-426.80914999999993,-81.40147439999998,97.108825,1.1471912,-4.28872039,3.4304495700000004,1.21781583,-204.88284599999997,-429.06558600000005,-81.3178255,97.13397719999999
67424.5,1.6303257500000001,1.4232793200000002,1.8143421299999996,0.0965617566,-0.8319734200000001,0.103797695,-0.985786099,0.9841621179999999,0.5273802510000001,-0.712581205,0.056483078760000006,-4.378324967,0.229563503,0.4283958813999999,90.7341349,1.2838530957698822,202.6095977783203,-0.22890852056443692,0.04941115861183259,-202.56395300000003,-429.64860799999997,-81.46233090000001,95.38038700000001,0.923888427,-3.77181327,3.312648780000001,1.19601441,-202.63096199999998,-431.778572,-81.37134139999999,95.4438425
67434.5,1.6282242199999999,1.42496189,1.8131177900000002,0.09848185200000001,-0.913878025,0.12452869150000001,-0.9851827999999999,0.983643475,0.5319975809999999,-0.6622420400000001,0.0438168956,-5.979088389999999,0.22893126599999997,0.5308457210000002,139.61635600000002,1.309181672334671,198.604638671875,-0.25194380395114424,0.04938769734329144,-198.559378,-426.898077,-81.369428,96.679669,0.9162379330000002,-3.4781029000000006,3.3452642600000004,1.1867669299999999,-198.667038,-429.0686809999999,-81.3398869,96.76371100000001
67441.5,1.6289045249999998,1.4254114,1.808798125,0.09660766825,-0.8479086725000001,0.1139204375,-0.99449961,0.97558123,0.538398705,-0.74885851,-0.000834881500000001,-5.9788461,0.22954809,0.749157485,65.2568075,2.658838391304016,198.20580291748047,-0.482874296605587,0.04933159904634526,-198.1643775,-424.7768575,-81.63605475,96.0531375,0.8395214849999999,-4.2955871000000005,3.2727207499999995,1.197252,-198.22552499999998,-428.4711225,-81.639755,96.18319650000001
75452.5,1.6260927333333333,1.4147130500000002,1.81317055,0.09947438599999998,-0.8993324666666668,0.13729431,-0.9812653166666667,0.9853818266666666,0.5283329583333333,-0.6441555416666666,0.05827659416666667,-5.117433741666667,0.23158448833333334,0.4560106483333333,123.600938,0.5672111287713051,203.5679499308268,-0.697271446386973,0.06263356246199209,-203.52107333333333,-417.01825666666673,-82.62519083333335,92.1569765,0.74829955,-3.5370357,3.4294779666666666,1.1699635666666668,-203.665645,-418.99289833333336,-82.51379166666668,92.18114966666667
83504.5,1.6218915800000002,1.4114931099999999,1.81357764,0.10347374549999999,-0.9658916029999999,0.16954950900000001,-0.983955928,0.9856742620000001,0.530677712,-0.5234185650000001,0.04900570015,-4.94169751,0.23427805500000004,0.4681355239999999,110.5273275,0.6377908542752266,205.80126037597657,-0.10905760265886784,0.06580369395965285,-205.73808999999997,-407.686514,-85.91131850000001,88.877886,0.959920997,-4.196735589999999,3.6319278099999996,1.3017834000000001,-205.824116,-409.205968,-85.8452904,88.91582050000001
83514.0,1.6214212555555558,1.4092752666666668,1.8164669222222223,0.10244334155555555,-0.9697774933333334,0.19347467333333335,-0.98299897,0.9891644844444445,0.512339521111111,-0.23113233082222223,0.06928857766666666,-5.419991966666667,0.23480729888888888,0.40113728,167.84628977777777,1.0324268009927537,209.85026211208768,-0.6805615590678321,0.06573531744119562,-209.80095333333333,-409.60946777777775,-86.27309677777778,88.00563777777776,0.7499743744444444,-3.8072991666666667,3.2524729888888886,1.2664956999999997,-209.96857111111115,-411.77126111111113,-86.14509844444444,88.09104333333335
91554.5,1.6190269099999999,1.41065,1.81366287,0.10460788940000001,-1.0424042400000002,0.20917474900000005,-0.9838356029999998,0.98734042,0.511899221,-0.10537700800000001,0.04165833544,-5.459610402999999,0.23143768800000003,0.526372561,112.44659030000003,0.8909095048904419,205.67763061523436,-0.0021081916987895966,0.05853797231951169,-205.61914299999998,-415.61294499999997,-89.86709799999998,87.3538341,0.9992568780000001,-3.83149266,3.0569766599999992,1.1409686700000001,-205.63581100000002,-417.798079,-89.80505600000001,87.3420936
91564.5,1.6192071700000004,1.4112697300000001,1.8137598299999997,0.10230524209999999,-1.007673475,0.22118607299999998,-0.9879629409999999,0.988766635,0.50622689,-0.0942450987,0.0581024631,-4.455307005,0.23273511400000002,0.418700585,93.82390900000001,0.565725964307785,205.23499603271483,-0.2671720802783966,0.058532691634131995,-205.18197299999997,-415.72583299999997,-89.86904460000001,86.15931859999999,0.9058649229999999,-3.6364113599999994,3.1206367999999998,1.14771244,-205.204801,-417.160274,-89.93501250000001,86.1267988
91574.5,1.6178856400000001,1.41116246,1.8139476600000002,0.1055112794,-1.05412282,0.21029202200000002,-0.9741256150000002,0.9913482690000001,0.517854346,-0.25437133525,0.047460898099999996,-5.978343660000001,0.234478989,0.541267038,121.93289250000001,0.6218950122594833,205.84281311035156,-0.31200098544359206,0.05844634979790161,-205.790775,-413.50108199999994,-89.8239723,87.4646135,0.8901228489999999,-3.8889499300000003,3.10880878,1.1551396100000002,-205.78984699999995,-415.63936299999995,-89.76207830000001,87.48529879999998
99954.5,1.6150331000000002,1.37860725,1.8210339199999996,0.1065909581,-0.9854643569999999,0.240798188,-0.988776333,0.9913604059999999,0.49738110699999993,0.017756292899999998,0.06273004000000001,-4.962620354,0.23829829,0.409514642,125.40110820000002,0.5744117200374603,207.1590087890625,-0.00034267976880073545,0.04988992122755924,-207.10912100000002,-435.21904299999994,-87.521645,90.11584500000001,0.9998853700000001,-4.30716329,3.15205209,1.05292078,-207.08180199999998,-435.09441699999996,-87.4740321,90.1079479
99964.5,1.6159587800000002,1.3888438400000003,1.8175784199999996,0.10759610960000002,-1.0228722449999998,0.23421594099999998,-0.985177477,0.9889622580000001,0.5110870820000001,-0.0888614203,0.05038410954000001,-5.97771454,0.236157648,0.538735006,145.04008949999997,0.8113030791282654,207.49002685546876,0.007407927513122558,0.04990048146776758,-207.440011,-428.75415899999996,-87.4690489,90.0888904,1.002470544,-3.5705284000000006,3.05353624,1.0071306670000002,-207.388202,-430.91114200000004,-87.28414390000002,90.12475429999999
99973.0,1.615588,1.3826553285714287,1.8178286714285714,0.10638454442857141,-0.9609291514285713,0.2388727957142857,-0.979800797142857,0.9931352228571428,0.5083499628571427,-0.039083720571428573,0.07038940771428571,-3.7690445714285716,0.2363306771428571,0.3579573171428571,92.27961085714286,1.1001471536500114,203.23384748186385,-0.3193561008998326,0.04988756596194882,-203.18926714285718,-431.3106385714286,-87.23936428571429,88.81408714285713,0.8934718342857143,-3.5297280285714288,3.0223310428571426,1.0183785714285716,-203.29639714285716,-431.34509142857144,-87.249182,88.806777
115304.5,1.5846586399999998,0.685260259,1.9407344899999999,0.20669861000000003,7.52385067,0.39120268999999996,-0.954465111,0.999194769,0.46021078099999996,0.7400838189999999,0.07431308750000001,-4.949682295,0.4232607259999999,0.43582276000000003,111.6734821,0.4448358669877052,189.49576416015626,-0.34764339961111546,0.11416701971236816,-189.39988300000002,-313.447645,-84.55762760000002,69.00584090000001,0.839793909,-3.907684720000001,4.89884526,1.4133326199999998,-189.498844,-313.81548000000004,-84.40772439999999,69.1146125
115314.5,1.58215243,0.7199647770000002,1.9408179300000001,0.206801738,5.747763030000001,0.42582264700000005,-0.9253424279999999,0.9997693589999999,0.44166000599999994,0.865481222,0.07294174449999999,-4.936123180000001,0.423896404,0.46151364800000005,105.1565694,0.612199780344963,193.14577941894532,0.07375416569411755,0.11402903958501323,-193.02787,-314.755066,-84.2303555,68.7374111,1.03396318,-4.5432594,5.35614222,1.4854538099999999,-193.180904,-316.431772,-84.1244946,68.8563031
115324.5,1.5845629899999998,0.6964364099999999,1.9386558099999998,0.201921447,7.03144752,0.39726846400000004,-0.9553795639999999,0.9995672560000001,0.449902681,0.908051822,0.0872843492,-4.948048760000001,0.42429567199999996,0.384555696,141.3542557,0.3220409035682678,193.0277069091797,0.08380661867558956,0.11403111930655743,-192.90927700000003,-313.885859,-84.4317516,67.92622170000001,1.038593713,-4.3904915,5.603069659999999,1.46905725,-193.04984,-315.79538599999995,-84.31423420000002,68.0364019
115334.5,1.58347123,0.6832601570000001,1.9363582999999998,0.206062609,7.04634431,0.405710138,-0.9624057870000001,0.9991474929999999,0.453757362,0.7927789289999999,0.07395176290000001,-4.4248287070000005,0.424479655,0.42477169540000004,91.36981719999999,0.6568389683961868,190.80693817138672,0.2772694855928421,0.11410894631316618,-190.67826799999997,-312.387682,-84.36394200000001,68.47904609999999,1.1277368559999998,-4.50157659,5.53487192,1.4773022499999997,-190.80125500000003,-314.12362300000007,-84.124348,68.5841744
115341.5,1.5791745499999998,0.7046319275000001,1.9363047,0.21209176000000002,5.4035167500000005,0.437771285,-0.9255874,0.9995517899999999,0.432065445,0.9226351875000001,0.07924776850000001,-3.3821562,0.422720355,0.35148202,70.83135575,0.6890124082565308,192.21334838867188,0.42899376153945923,0.11426265147220468,-192.0765225,-313.2790275,-84.92121900000001,70.05834399999999,1.1977459750000001,-4.199758875,5.8670447249999995,1.5944704250000001,-192.108025,-314.90054999999995,-84.70399875,70.209718
131754.5,1.54685595,0.671428944,1.9033436400000003,0.262399987,2.7066526699999995,0.571158319,-0.846063684,0.999720385,0.347890542,0.631198363,0.10155336209999999,-3.4319030289999994,0.42843918299999995,0.345315766,65.94191494999998,0.5245089039206505,128.35058059692383,-0.16198772862553595,0.0950142510386357,-128.2620956,-202.528254,-74.283946,33.5553616,0.9311749979999998,-4.281061800000001,5.59876017,1.5122459600000002,-128.2668405,-205.85067399999997,-74.032997,33.670676
131764.5,1.54505911,0.662650056,1.9029936499999998,0.26386788899999997,2.5753095900000003,0.5782878659999999,-0.8045686209999999,0.9996286059999999,0.346901459,0.329131387,0.0918354059,-4.927476399999999,0.427643503,0.466121139,91.96133015000001,0.54797193557024,130.32770385742188,-0.23829279839992523,0.09489576404706732,-130.242396,-202.655035,-70.89503289999999,33.6293278,0.898814005,-4.71036024,5.41603269,1.5288071100000002,-130.214167,-207.00736800000004,-71.11114,33.7463495
131774.5,1.54363571,0.6633230990000001,1.90319714,0.27062606100000003,2.3742101900000003,0.587631675,-0.6465255959999999,0.9997030209999999,0.33705597800000003,-0.03333454700000003,0.0937580272,-4.467157334,0.42848936000000004,0.4305634850000001,92.735978,0.4264994651079178,128.94338455200196,-0.1857313334941864,0.09470134530123417,-128.8561346,-202.10572600000003,-70.8149726,33.9567129,0.9211790039999999,-4.34378361,5.37532092,1.4308439899999998,-128.810308,-206.587515,-70.8450103,34.063163
131784.5,1.53992337,0.6651527759999999,1.90243281,0.27638913,2.301012345,0.5808057229999999,-0.727860312,0.9995481230000001,0.339423412,0.166058225,0.0929394204,-4.94959051,0.42742391599999996,0.4621814919999999,95.43678739999999,0.5337743401527405,129.91871643066406,0.18364729657769202,0.09456776600354797,-129.816787,-201.669606,-71.43394249999999,33.864831499999994,1.07786622,-4.04408028,5.704521090000001,1.57430289,-129.8361265,-206.41738900000001,-71.24596649999998,34.03942310000001
131793.0,1.5442676857142856,0.6722460828571428,1.9031531428571429,0.26730522,2.3624457,0.5816168657142857,-0.7486038685714286,0.9996122014285714,0.33875075857142856,0.18324676571428572,0.10545786514285717,-4.497039635714286,0.42784410857142857,0.3642791771428571,121.47514228571428,0.548580527305603,129.5692400251116,0.07684115320444107,0.09461422203198226,-129.47155142857144,-202.00782857142855,-73.21144914285715,33.76483628571429,1.0325796385714285,-4.0317752,5.691715114285714,1.5125654285714287,-129.49053999999998,-206.63046428571428,-73.08862357142856,33.87382528571429
145754.5,1.52161087,0.668099567,1.9048550400000004,0.2915449110000001,1.0822408749999999,0.6578971649999998,-0.464537117,0.999697887,0.327338919,-0.444801426,0.0838259955,-4.91771921,0.430311517,0.522780138,78.5986161,1.1576959252357484,80.21770477294922,0.1643643282353878,0.10507957058074613,-80.1049685,-140.364914,-8.79975337,27.349888000000004,1.0729531639999998,-3.7323891000000002,5.61148266,1.6523681199999998,-80.0873674,-144.560455,-8.433459619999999,27.565089199999996
145764.5,1.5202969400000002,0.659091424,1.9044986899999998,0.29979614299999996,1.102414,0.6585985449999999,-0.533686731,0.9996144929999999,0.322681835,-0.17290102600000007,0.10724307749999999,-3.927155628,0.42978257400000003,0.38612054,84.21507913,0.618329507112503,79.33529205322266,0.3654042661190033,0.10524973332537783,-79.21299660000001,-140.375277,-8.46667793,27.6629213,1.16226704,-3.8015666799999996,5.79653834,1.68083247,-79.10124160000001,-142.962555,-8.123596670000001,27.8218711
145774.5,1.5221370200000002,0.661244128,1.9052253099999998,0.294092786,1.2376132800000001,0.649644099,-0.4121394456,0.9997535210000003,0.32173603999999995,-0.720748616,0.10164728919999999,-3.4201177219999996,0.43063401900000003,0.37831880400000006,58.338765769999995,0.6576076805591583,79.93023452758788,0.26233340725302695,0.10556499865909749,-79.81239250000002,-140.468642,-8.451789949999998,27.385751,1.1166482500000001,-4.51700451,5.685863149999999,1.64669447,-79.75828039999999,-143.346001,-8.075344470000001,27.563293800000004
145784.5,1.5233501,0.663131894,1.90422507,0.29600669599999996,1.295308731,0.657109901,-0.41211619940000005,0.9996778260000001,0.32032052699999997,-0.57931556176,0.11468604200000002,-3.4336969929999994,0.4299499590000001,0.3274643360000001,77.34556717000001,0.5137245059013367,79.21863098144532,-0.0025143936276435853,0.10580996299625496,-79.11295770000001,-139.865674,-8.19866326,27.656156399999997,0.9988762,-3.87781879,5.501822420000001,1.5711911799999998,-79.10440530000001,-143.04695999999998,-8.15992942,27.781194399999997
145793.5,1.5236880624999998,0.65631646875,1.9031738999999996,0.29440723125,1.17254835,0.63923329875,-0.51105939,0.99951027625,0.32934413999999995,-0.025084412499999965,0.104738721375,-4.077530921249999,0.42903449250000003,0.39329320375,90.85559708749999,0.42825036495923996,78.98062133789062,-0.23178123123943806,0.105873960369824,-78.88567574999999,-141.41949625,-8.116536825,27.252235375,0.8967767375000001,-3.296724875,5.4230352375,1.4751688124999998,-78.936785125,-144.97935125,-7.9313726625,27.4547085
156954.5,1.51478173,0.6583037839999999,1.9042919299999999,0.2990546289999999,0.9886026489999999,0.690590846,-0.38722770999999995,0.9996379080000001,0.317552144,-0.16329845320000003,0.1142715785,-3.4204621840000002,0.43050035300000006,0.349248057,65.30417826,0.24501776248216628,52.302682876586914,0.25704015642404554,0.09413492151503217,-52.19832450000001,-110.3020366,11.729911849999999,26.0476136,1.10877046,-3.80109749,6.0838312000000005,1.7384430000000002,-52.209670100000004,-113.89435309999999,11.994289599999998,26.205185399999998
156960.0,1.5145627,0.6845177,1.9025785,0.29867518,0.68434227,0.70858204,-0.28649235,0.9996263,0.30806583,-0.5432079,0.08071408,-5.975365,0.42703503,0.56860733,97.468216,0.48305219411849976,52.368385314941406,0.13877713680267334,0.09423134150803023,-52.26864,-111.9543,12.001106,26.932707,1.0587491,-4.882388,6.011279,1.7109774,-52.27619,-117.817444,12.022518,27.047377
166553.0,1.5135252714285714,0.6750814900000001,1.9040295571428574,0.2949110814285714,0.9464194042857141,0.7123565985714286,-0.48606604999999997,0.9997768857142857,0.3111324971428572,0.5518787228571428,0.11651071285714286,-3.7810452485714285,0.4297235814285715,0.35929541142857147,76.65997814285713,0.40592642447778154,37.890037536621094,-0.08513420820236206,0.09052364590657837,-37.802714571428574,-94.06370285714286,21.864333571428574,25.076851428571427,0.9645467885714287,-4.014885657142857,5.898748028571428,1.8124738142857144,-37.66256714285714,-95.50807699999999,22.026769285714284,25.162354142857144
175502.5,1.5122652333333335,0.6619096366666667,1.9042881666666664,0.2984392816666667,1.0144069633333335,0.7385541916666667,-0.5101875266666666,0.9998009250000001,0.30425527,1.62923648,0.08955418716666667,-5.10461134,0.4308275766666667,0.4999504583333334,92.55091478333333,0.5173730403184891,29.96357599894206,-0.03926044702529907,0.10035187205962792,-29.864941833333333,-94.40130833333335,27.634211333333337,24.9893565,0.9829220466666667,-3.707424933333334,6.192324416666666,1.8348427666666665,-29.83056233333333,-96.44860333333334,27.589529333333335,25.060183833333337
184652.0,1.5099615,0.663307986,1.9039505199999998,0.29952306400000006,0.6704265599999999,0.780978152,-0.5888650139999999,0.9995937319999999,0.28259574400000004,4.50096944,0.10367018720000001,-5.971632619999999,0.430254064,0.45577600399999996,149.228628,0.5436014294624328,24.47776527404785,-0.013894033804535865,0.1115689195589205,-24.366909999999997,-98.13646080000001,30.7907824,25.924453400000004,0.99366504,-4.21920202,5.94423126,1.8242528,-24.310889,-99.173486,30.9429012,25.971213
193654.5,1.50852328,0.661596735,1.9047573899999999,0.304710116,0.6680153220000001,0.786104933,-0.6694806259999998,0.999647676,0.281744609,5.749153300000001,0.10590471640000002,-4.956723572000001,0.4301095759999999,0.436211671,105.92036119999997,1.0501850605010987,23.977232933044434,0.07967077307403088,0.14286846088101662,-23.828524599999998,-94.8081926,35.880092,27.7961542,1.0409419100000001,-3.87943476,5.99787109,1.8928961499999999,-23.6713088,-96.060504,36.2715487,27.865549400000003
193664.5,1.51063459,0.6692272759999999,1.90417208,0.29960313399999994,0.6874687589999999,0.7852638169999999,-0.651712166,0.9996611009999998,0.279065536,5.186749019999999,0.119797602,-3.4274117939999997,0.43009417899999997,0.34386974800000003,69.55351231,0.9109089463949204,24.432458114624023,0.11810594983398914,0.14297733695420212,-24.2808113,-96.50500059999999,36.017688699999994,28.1856771,1.0607222060000001,-4.410472410000001,6.06216317,1.9029147299999998,-24.1781121,-98.3388536,36.148398400000005,28.1954199
193674.5,1.5149341299999999,0.663584159,1.9048327999999999,0.295133601,0.979900516,0.7808509619999999,-0.64562674,0.9996514419999999,0.288534522,5.423988169999999,0.1123498855,-3.410550966,0.43083358699999996,0.33091679799999996,73.14469966,0.522492079436779,24.945716857910156,0.1612859532237053,0.1431475264540361,-24.790713599999997,-94.0124974,36.121375799999996,27.7264676,1.082969936,-3.38508533,6.032710829999999,1.8299273300000003,-24.674086700000004,-94.62326860000002,36.263799,27.7483281
193684.5,1.5112309800000001,0.6625573320000001,1.9038823900000001,0.293462502,0.8105815852000001,0.792344022,-0.49059224000000007,0.9997080110000001,0.27118321800000006,4.72617506,0.1068320991,-3.92542419,0.42918873500000004,0.42216406700000003,65.17026586,0.6608250319957734,25.108502006530763,0.20690589696168898,0.1434173760234579,-24.9498428,-98.1313835,35.873693700000004,28.259112599999998,1.1065251,-3.80910996,5.905803049999999,1.8535889300000001,-24.7580832,-98.74586579999999,36.210064300000006,28.286245400000002
193691.5,1.508054175,0.659874775,1.904859125,0.3032532025,0.77763282,0.7931799575,-0.496830895,0.9996464375,0.2621091525,4.9734700499999995,0.13162218999999997,-2.1938083849999996,0.43012956,0.2560730475,48.029669575,0.47402825951576233,24.232898235321045,0.023898275569081306,0.143617146223926,-24.08753325,-97.61033125,35.988088499999996,28.28766925,1.0123198475,-3.899614325,5.99864015,1.895003725,-24.030638500000002,-99.57707349999998,36.3049415,28.363764000000003
202700.5,1.5094394,0.6589394,1.9050829,0.29829036,0.6906756000000001,0.7906987000000001,-0.57456445,0.9997016000000001,0.30375007,5.4736448499999995,0.10127154299999999,-5.97232515,0.43062459,0.49822552499999995,129.77901500000002,1.9940131306648254,28.400161743164062,0.03871483728289604,0.1655466592312775,-28.2310375,-106.78989,39.8969525,31.9358335,1.02152775,-4.62291455,5.926018,1.8866098,-28.2478465,-106.739255,39.944125,31.968938
211954.5,1.53253,0.669560164,1.9038797500000002,0.26585865000000003,1.9044705399999997,0.7789533289999999,-0.7443360139999999,0.9996850039999998,0.298778948,6.451102710000001,0.096920286,-3.4258512039999998,0.42942007699999996,0.342896639,68.22670538,0.6328050389885902,36.06375503540039,0.07159154489636421,0.17760361654007467,-35.878785900000004,-120.55679549999999,43.8952438,33.780278300000006,1.0414251270000001,-3.67600914,5.820419019999999,1.75231244,-35.59404189999999,-121.03883489999998,44.014068099999996,33.6609471
211964.5,1.5309934999999997,0.666212391,1.9041576599999999,0.270263905,1.6754786449999997,0.7764664050000001,-0.663546779,0.999644687,0.29304378400000003,5.60865493,0.09111870280000002,-3.4332442559999996,0.42955720199999997,0.399388164,55.090011399999995,1.2085695564746857,34.763541793823244,-0.08234285190701485,0.17758892105149865,-34.5944116,-121.4934863,44.1201128,33.675141599999996,0.9523551149999999,-3.61306936,5.80348638,1.7415330199999999,-34.3814139,-122.73995499999998,44.263858000000006,33.647400600000005
211974.5,1.5227366399999998,0.6735549260000001,1.9043702000000002,0.283070813,1.22537842,0.7866295529999998,-0.6114166420000001,0.9994956449999999,0.283692053,5.549802099999999,0.0967637583,-3.399713941999999,0.43036077599999994,0.40568843,44.932729099999996,1.2297081023454666,34.8532054901123,-0.07450837716460228,0.17746162845216046,-34.683376200000005,-118.97068110000001,44.049948900000004,35.263025799999994,0.9569029630000001,-3.96232398,5.69870656,1.7201103200000003,-34.3446694,-119.59784590000001,44.116360300000004,35.134721500000005
211984.5,1.5298772399999998,0.668619161,1.9039452999999997,0.271334489,1.7578801900000003,0.7866933840000001,-0.635259496,0.999528741,0.2808602290000001,6.42878286,0.08978352419999999,-4.95616793,0.42977305499999996,0.45616512800000003,101.7673689,1.231278508901596,35.807773208618165,-0.24365094602108,0.1772353768144349,-35.655472200000006,-117.25549040000001,44.0530362,34.3830918,0.8591645869999999,-3.8845288399999993,5.6343412299999995,1.6282914400000004,-35.3351908,-118.17619160000001,44.178842700000004,34.25312340000001
211993.0,1.5275897000000003,0.6700245042857143,1.9045235857142857,0.27791333,1.622109757142857,0.7772119471428571,-0.6946271785714285,0.9997251728571428,0.2913912585714286,5.300742071428571,0.07921031128571429,-5.972312742857143,0.42996744571428575,0.5076370214285714,121.95341728571428,0.8147586328642709,35.40045928955078,-0.08239476968135152,0.17689363616779308,-35.23194671428571,-119.92703357142857,44.45278814285715,34.55979,0.9524233942857144,-4.150478271428571,5.736466342857143,1.7265987571428574,-35.073085428571424,-120.84691771428571,44.184113714285715,34.520208000000004
221301.5,1.5473618500000001,0.673002745,1.904457125,0.23570498750000002,3.5698464000000003,0.7784439350000001,-0.647211175,0.9995768924999999,0.2924375125,6.06068385,0.08039718875,-4.65847915,0.4307524925,0.46070178999999994,84.813851,1.0068674385547638,44.423211097717285,0.038772210478782654,0.19256742520456255,-44.226091249999996,-127.485535,48.648502,34.871570750000004,1.023526925,-3.9780077250000003,6.018774049999999,1.848370225,-44.086697,-128.7244225,49.007283,34.8381015
231002.0,1.55349228,0.702418962,1.9046449200000002,0.221205924,3.6101262800000002,0.7697727860000001,-0.56762597,0.999662992,0.29007443200000005,4.71629392,0.082532659,-3.9203215799999995,0.42998790200000003,0.355613968,86.0671354,0.7640476584434509,51.63854141235352,0.1531203269958496,0.1939938900426302,-51.42642099999999,-150.679992,49.428281,37.6023242,1.0933696999999998,-4.11774398,6.103287379999999,1.7502651200000003,-51.3833526,-152.124742,49.6119614,37.6008086
241454.5,1.56926711,0.817774051,1.89156374,0.171692339,4.160207983000001,0.7529232240000001,-0.756600098,0.9996322110000001,0.31789366299999994,5.11612627,0.06657213749999999,-5.46788534,0.40892308999999993,0.48121076600000007,111.41029,1.747720193862915,60.594355773925784,-0.14559219647198915,0.17508744136823357,-60.433881299999996,-154.05255600000004,39.573098599999994,36.811498500000006,0.9164449970000001,-4.553757910000001,6.25015766,1.4397292499999998,-59.9588123,-154.89403199999998,39.690256100000006,36.5244824
241464.5,1.56785211,0.729842055,1.90391135,0.17998502,4.534543050000001,0.7583039500000002,-0.632589238,0.9996137079999998,0.30836661400000004,4.653408590000001,0.0464623501,-5.471609655,0.4293391970000001,0.561302357,86.0678249,1.1958206653594972,59.482343673706055,-0.12015367597341538,0.17485698823472412,-59.31950760000001,-157.18472500000001,48.134228199999995,36.891394000000005,0.931098314,-4.15942497,6.29621605,1.51884314,-59.036678800000004,-158.86091399999998,48.3122039,36.74990240000001
241474.5,1.56955992,0.76455602,1.89728612,0.17322771200000003,4.138304719,0.7500945799999998,-0.681667217,0.999728843,0.326166959,5.055023439999999,0.072001299,-4.94843233,0.420183136,0.423412338,111.11995239999999,0.9080625891685485,60.370387649536134,-0.08233001455664635,0.17460586389626148,-60.20399540000001,-154.48988399999996,44.617622000000004,37.327805299999994,0.9528227560000001,-3.94854325,6.32366928,1.50753734,-60.1177967,-155.858377,44.8867977,37.2656368
241484.5,1.56987079,0.7718748089999999,1.89575572,0.175576699,4.656857886,0.7454646290000001,-0.6642906929999999,0.9997601209999999,0.327752665,4.520042139999999,0.0623826231,-5.46009967,0.41113929699999996,0.47626167100000005,114.36774410000001,1.5237852960824967,59.32480430603027,-0.12288934513926505,0.17433196168355908,-59.1627142,-154.82058899999998,42.686027,36.47376009999999,0.929634193,-3.7603350799999995,6.33242027,1.5003843099999998,-58.8770746,-155.54211400000003,42.63342747,36.3177507
241494.0,1.5654460111111113,0.7680739511111111,1.8972883777777778,0.1840252011111111,4.257601533333333,0.7719957866666667,-0.6574402833333335,0.9997249066666666,0.29624326999999995,5.352256111111111,0.07861314855555555,-4.845740506666666,0.41626213444444443,0.38768903888888884,124.2435992222222,1.3251415689786274,60.56139670477973,-0.03480101914869414,0.17407703920692655,-60.390767999999994,-154.89203444444445,41.64245477777778,37.359074777777785,0.9800806211111112,-3.9579062444444446,6.423279722222222,1.5763947111111112,-60.07669,-153.84962222222222,42.118827,37.17496422222222
253004.5,1.56805957,0.723075521,1.9142904699999999,0.181213095,5.21109429,0.74927142,-0.7176327549999999,0.999752878,0.32252185200000005,4.70992319,0.0691511289,-4.954451044,0.44414649200000006,0.45089073499999993,103.2804971,0.6010982394218445,60.879830551147464,-0.06366505417972804,0.1525962013672086,-60.7323827,-150.954549,48.6503613,35.8717113,0.9661293500000001,-3.7912413099999993,6.507701450000001,1.3465638700000002,-60.63449419999999,-151.44584200000003,48.7501713,35.8322795
253011.5,1.568906425,0.7036390975,1.914984675,0.1807821775,5.309601499999999,0.7395708974999999,-0.6549098275,0.9998209100000001,0.32702519750000003,3.760344125,0.10938028000000001,-0.902799365,0.4429934175,0.160936375,15.803431,0.7555995434522629,60.351311683654785,0.17471868358552456,0.152486876113349,-60.18465425,-148.005475,50.068141250000004,35.818512,1.092904125,-4.12610895,5.762697875000001,1.317536325,-60.216187000000005,-147.713855,49.82664775,35.77037575
263254.5,1.5648676,0.6908034120000001,1.9192146400000003,0.19335020900000002,5.011205350000001,0.7545568010000001,-0.668104663,0.999645267,0.32088967399999996,4.80866203,0.08162625050000001,-4.965198854,0.4511547530000001,0.397290768,129.13678605,2.170383185148239,59.01583023071289,-0.01058780737221241,0.13043593352256355,-58.88606930000001,-145.29986,51.0802973,34.863782099999995,0.9948019339999998,-3.99031594,4.45402525,1.27520554,-58.3495392,-145.106041,51.224776,34.610727999999995
263264.5,1.5637573000000002,0.704613028,1.9174394700000001,0.19432561599999998,4.52064478,0.7394528280000001,-0.727443135,0.9997347139999999,0.337540721,4.36795241,0.06831792340000001,-5.467475736,0.44829298900000003,0.4564293619999999,122.2766098,1.1344198763370514,58.98696060180664,-0.24166075550019742,0.13035579149029944,-58.87204919999999,-145.49334800000003,50.426605699999996,34.630013000000005,0.881393297,-4.2735214,4.85524934,1.2331750400000001,-58.4906195,-145.701994,50.4654465,34.5036612
263274.5,1.5669154200000002,0.710035196,1.9189149100000003,0.18588791500000001,5.003606620000001,0.740967191,-0.7035334390000001,0.9995963409999999,0.329303535,4.3453554,0.0836312371,-4.398908135,0.450519132,0.366045513,109.47967376000001,0.8745893836021423,58.7492561340332,-0.3092013966292143,0.13004572675340426,-58.6388963,-143.39687499999997,50.7502545,34.147249800000004,0.848385553,-3.40953296,4.414814989999999,1.19608387,-58.445469,-142.939714,50.745370199999996,34.0327348
263280.0,1.5661311,0.66553724,1.9237041,0.19488117,6.910713,0.7472606,-0.747092,0.9997648,0.33265826,4.6349397,0.07804462,-5.9730196,0.45714217,0.41656244,171.37537,0.5729937553405762,59.013099670410156,-0.353468120098114,0.12981080908223042,-58.90573,-140.98303,51.88752,33.215515,0.82684505,-6.3320136,3.6952806,1.41899,-58.058792,-138.63155,51.675686,32.852398
274904.5,1.5582892,0.696776238,1.9236438100000002,0.20760538300000003,4.378632229999999,0.7564440649999999,-0.750517894,0.999725425,0.31704436399999997,5.6742764,0.06117836189999999,-4.9637356,0.457165831,0.501951632,83.45073534999999,1.5743980616331101,52.3623908996582,0.029928051680326462,0.13125582630831212,-52.229198499999995,-135.07432,51.26265159999999,31.8498126,1.014737163,-3.71212617,5.3423503,1.3338834399999997,-51.9052463,-135.1206745,51.378340300000005,31.7223527
274914.5,1.5546006899999998,0.6891800690000001,1.9222340199999999,0.21572699,3.9405044600000005,0.757098893,-0.7569441219999999,0.9996693619999999,0.327728382,5.610605220000001,0.07508868760000001,-4.942385264,0.45487893099999993,0.4680196150000001,92.9714741,1.299856436252594,52.78982315063477,-0.02603401280939579,0.13122582681589887,-52.660277300000004,-135.822379,51.13004049999999,32.8875665,0.9871797579999999,-4.28009585,5.36161167,1.3071082899999997,-52.51882059999999,-136.16169,51.33163460000001,32.90052789999999
274924.5,1.5567362599999999,0.696395092,1.92125442,0.214585541,4.08503502,0.7539331709999999,-0.7910994509999999,0.9996520780000001,0.31636704700000007,5.66848979,0.07746346340000002,-5.463693923,0.45454104300000003,0.4421790769999999,128.6652729,0.8128403812646866,51.569868087768555,-0.10529393553733826,0.13117212096077357,-51.4454879,-136.453849,51.01633979999999,32.675590400000004,0.9481598739999999,-3.7887299999999997,5.26861447,1.31747833,-51.2935265,-137.5761665,51.1716038,32.619767100000004
274931.5,1.5527598999999999,0.6709471025,1.9238174250000002,0.22172711,3.86910565,0.74885151,-0.8375516875,0.9997049849999999,0.337857885,5.351504675,0.06910493475,-4.709067425,0.457322695,0.434503615,99.32728075,0.7175445258617401,51.55773448944092,0.11371666146442294,0.13110961344870267,-51.4192805,-138.07014,51.52907875,32.9455365,1.0559706875,-3.4927459499999998,5.504787925,1.292146025,-51.17965975,-139.2854925,51.712922500000005,32.913968000000004
286254.5,1.54615367,0.678469182,1.9313580600000002,0.24045883700000004,3.6810362499999996,0.7638262600000001,-0.798411301,0.9997377869999999,0.326456701,6.813113059999999,0.0946735308,-4.4568999,0.4681552750000001,0.40446397300000003,98.27894275000001,0.7884273245930672,45.5927188873291,0.05787167623639107,0.14074345091759155,-45.447851099999994,-137.1145549,52.0389913,32.82303279999999,1.029496897,-3.93711414,4.8970576800000005,1.3171555700000002,-45.210963400000004,-137.89062199999998,52.25643169999999,32.75506370000001
286264.5,1.5521809799999997,0.686940084,1.92546453,0.218161067,3.80548686,0.7649731860000001,-0.734635556,0.999723855,0.3203045400000001,5.679750339999999,0.07804158050000001,-4.448341362,0.460369594,0.43310996900000004,81.43165185,1.8904247641563416,47.60258865356445,-0.06650059558451175,0.14087312795024642,-47.4665005,-133.54430050000002,51.63566689999999,31.1968769,0.9660662,-3.90382987,4.86648926,1.3039314899999999,-47.2569486,-133.7872154,51.7090502,31.1231583
286273.5,1.549143125,0.6712445924999999,1.9289856250000001,0.23581702874999996,3.773146625,0.753490185,-0.688534585,0.99958497625,0.32371324875,5.5204197875,0.07837062775,-4.71322764875,0.4643961225,0.4486910275,89.662947375,0.9590901881456375,45.76756715774536,-0.1322550978511572,0.14082946510716995,-45.636226875,-135.54583075,51.760655875,32.31306825,0.9325302199999999,-4.06125925,4.8359508875,1.3534933125,-45.442334125,-135.32890062500002,51.933799875000005,32.30227525
296754.5,1.5523950699999998,0.6728251719999999,1.93115762,0.221045778,4.0390618499999995,0.7541746660000002,-0.814066266,0.9996017970000001,0.34180909300000006,6.23476026,0.08910375080000002,-3.434201453,0.467780064,0.35523914300000003,70.4758328,1.1001834630966187,41.780765533447266,-0.0351056644693017,0.14287450927382941,-41.640485999999996,-120.81865249999998,51.800581699999995,28.785039900000005,0.981957384,-3.9945922400000002,5.29299847,1.3793353399999997,-41.4270306,-120.5831111,51.85545900000001,28.711381100000004
296764.5,1.54613827,0.6910952170000002,1.92837198,0.23349846299999996,3.15817526,0.7709756179999999,-0.792808966,0.9996922849999998,0.31535463499999994,7.411337400000001,0.055965852299999994,-5.463833815,0.464154762,0.562197025,95.8418455,3.0047082901000977,42.1181396484375,-0.03359772562980652,0.14295479351253218,-41.9776574,-128.8496395,51.556148500000006,30.631683099999997,0.9827254630000001,-3.9402781600000005,5.32762826,1.38550453,-41.610977,-129.07169439999998,51.5973393,30.500144500000005
296774.5,1.5476171199999997,0.673771219,1.9335001999999997,0.230851365,3.4243614099999995,0.764588778,-0.794034757,0.9996792059999999,0.327853861,6.75729207,0.08317026720000001,-3.919849624,0.471364572,0.38301240900000005,74.26443366000001,1.037872713804245,41.5947078704834,-0.1363622047007084,0.14290308682310252,-41.461809499999994,-127.8773862,52.003877399999986,29.939262499999995,0.929905301,-4.257702070000001,5.41574989,1.4133460400000002,-41.1364119,-127.9949235,52.04351240000001,29.7935218
296784.5,1.54504274,0.6675459639999999,1.9391100400000003,0.237541697,3.45224226,0.762615855,-0.767849934,0.999605191,0.329286837,5.72719849,0.092437796,-3.4447653450000004,0.47965639600000004,0.341653664,71.53160575,0.6947459071874619,41.320166778564456,-0.0044755864888429645,0.1427417460374405,-41.17774300000001,-123.68632249999999,52.318252699999995,30.618937699999996,0.997697985,-4.083725080000001,5.5022784,1.4596978600000001,-40.99163589999999,-123.71271499999997,52.4210245,30.5617329
296790.5,1.5464197,0.71847515,1.93107565,0.23826723500000002,3.4246132,0.7516767499999999,-0.90158888,0.99964907,0.324777205,6.417332200000001,0.09773811,-3.3967026700000003,0.46840819499999997,0.29923615000000003,81.00429700000001,0.5481281876564026,41.528533935546875,-0.21431484073400497,0.14268888471369723,-41.401542500000005,-122.50240249999999,51.765038000000004,30.643164,0.8899272,-3.0956386499999997,5.1059198,1.37991935,-41.327721,-122.75690499999999,51.6801335,30.669795
307204.5,1.5436259499999998,0.6756801080000001,1.93121506,0.23206305500000002,3.14140341,0.7763805509999999,-0.842734761,0.999669868,0.309500675,8.05241157,0.08742619310000001,-4.950723204000001,0.4680823,0.423727317,107.38976109999999,1.4922658964991569,40.28277587890625,0.03907484021037817,0.14907283004935373,-40.1306331,-121.63543150000001,51.7225149,30.5723929,1.0205267700000002,-3.6181437400000007,5.23231864,1.3642880700000002,-39.866920300000004,-121.5776,51.824822299999994,30.4917622
307214.5,1.5445899799999998,0.679607986,1.93140605,0.23029444499999996,3.1045019799999998,0.7784436579999999,-0.7245981319999999,0.9996501160000001,0.306133582,7.13282035,0.0906867452,-3.426886303,0.46844469,0.373652683,57.883774200000005,0.9423767536878586,40.850637435913086,0.07565982192754746,0.14905602562686773,-40.6956616,-123.53537549999999,51.782937700000005,30.4859978,1.039748275,-4.41317446,5.33119901,1.4003083099999998,-40.3827184,-123.608582,51.916090200000006,30.376564899999998
307222.0,1.54294864,0.686681318,1.9332892000000002,0.236241796,2.8388853199999997,0.769888428,-0.8636688899999999,0.99958787,0.31270633999999997,8.200786840000001,0.09560933499999999,-3.9584558800000003,0.47118429400000006,0.36411741999999997,87.5379948,1.0791305303573608,39.05418090820312,0.09868576675653458,0.14912779361176803,-38.8973334,-119.163509,52.052146199999996,30.913812999999998,1.0518581999999999,-3.5487301599999994,5.38016292,1.39989786,-38.7850752,-118.85479000000001,52.0398062,30.862468200000002
318100.5,1.5347937,0.66879018,1.94214165,0.257549195,2.66200075,0.75054805,-0.92794942,0.9997812699999999,0.364332795,7.252363,0.11128921,-3.39790572,0.48286742,0.30711251,79.13146350000001,0.546074852347374,37.657081604003906,0.005474735051393509,0.16516317003593187,-37.491415,-107.0695925,52.7829205,31.7341625,1.00304013,-3.6438407,5.09229685,1.4360092500000001,-37.4441035,-107.334572,52.89922,31.764939
327904.5,1.53516742,0.6653548509999999,1.94114963,0.256005101,2.8388175099999997,0.779322849,-0.7837224260000001,0.999593179,0.30863223,7.24318813,0.08806803499999999,-4.940267454000001,0.482480143,0.45121130099999995,97.07461535,0.7956984177231788,39.18955535888672,-0.1410003423690796,0.18281987506801964,-39.02189119999999,-119.00620359999998,53.8101765,32.5799646,0.917015135,-3.8471362900000003,5.27978086,1.4312931799999997,-38.8163653,-120.0029332,53.87089039999999,32.5211797
327912.5,1.5346363833333332,0.6712752316666667,1.9404033166666663,0.260026385,2.5154633333333334,0.7657406433333334,-0.8003051316666666,0.9992145616666664,0.33716790166666666,6.449468516666666,0.09160105683333332,-4.2834668266666664,0.48158629666666664,0.43683909666666665,73.76857133333333,0.6713378230730692,38.62923685709635,-0.1610811029871305,0.18264057061271663,-38.46387433333333,-115.20724666666666,53.624847499999994,32.59461716666666,0.9052535833333334,-4.330684383333334,5.457929100000001,1.48568725,-38.41680783333333,-116.24245766666668,53.733534999999996,32.6358595
