JvanZyl1/RocketTrajectoryOptimisation/data/agent_saves/PyTorchSAC/LandingBurnPureThrottle/2_A_1/agent_saves/sac_pytorch_learning_stats_reduced.csv
step,state_mean,state_min,state_max,state_std,state_kurtosis,action_mean,action_min,action_max,action_std,action_kurtosis,reward_mean,reward_min,reward_max,reward_std,reward_kurtosis,critic_loss,actor_loss,alpha_loss,alpha_value,q_value_mean,q_value_min,q_value_max,q_value_std,log_prob_mean,log_prob_min,log_prob_max,log_prob_std,target_q_mean,target_q_min,target_q_max,target_q_std
4908.5,1.6484516,1.5065647,1.75694445,0.06378877499999999,-0.7162270500000001,0.066761767,-0.97123033,0.9811314,0.57693699,-1.2790272,0.051849587,-3.86005375,0.20419063999999998,0.32478525,115.41991999999999,0.1554545760154724,-1.9590976238250732,-5.052645444869995,0.04581592963276468,1.92981435,-14.8040065,4.3202282,3.7134227,-0.638964505,-2.5088742,-0.406752285,0.22627417,1.99913535,-16.018639999999998,4.3433615,3.6722270999999997
4914.5,1.648323,1.5031999799999998,1.7563250700000002,0.06514210849999999,-0.727098893,0.03549165627,-0.981882581,0.983775291,0.58889985,-1.27835266,0.06290319619999998,-3.5517795899999998,0.20848777599999999,0.31237119899999993,115.5910609,0.18322955295443535,-2.0804329395294188,-5.077996635437012,0.04573439024831631,2.0508684500000003,-15.1008259,4.34395536,3.6064356700000006,-0.64623922,-2.1745053000000003,-0.427447436,0.234004551,2.06118609,-15.8006462,4.36218963,3.62415212
4924.5,1.6485490999999999,1.5053882399999998,1.75638617,0.06439015699999999,-0.6932004230000001,0.03819906035399999,-0.9784827810000001,0.9885048169999999,0.5863629509999999,-1.26766055,0.060389039,-3.84104854,0.207377148,0.328411497,122.9917604,0.1902908869087696,-2.1216357707977296,-5.056639385223389,0.04559946626719887,2.0925468,-14.32083025,4.3481549799999994,3.57753225,-0.6377413540000001,-2.39685996,-0.268192385,0.289575643,2.10818129,-15.44532925,4.370512549999999,3.5984132700000004
4934.5,1.6484178,1.50382953,1.75581291,0.0640156909,-0.567363091,0.004809801000000001,-0.9807851349999999,0.9856109710000001,0.5966539939999999,-1.30686554,0.0512922675,-3.526372824,0.20895305499999997,0.345045733,94.7352793,0.21458338908851146,-2.0669201016426086,-5.082073736190796,0.04546537965636964,2.03761304,-14.368270599999999,4.34943581,3.69706555,-0.6444125409999999,-1.7514656800000001,-0.1237891785,0.27989600899999995,2.06923868,-15.117326499999999,4.37778769,3.69900595
4944.5,1.64850807,1.5058680299999998,1.7549602100000001,0.06394487979999999,-0.682424001,0.020679499389999998,-0.982539103,0.987582548,0.583280114,-1.2749851799999998,0.0575897738,-3.2020225599999996,0.206113262,0.33239406,84.73589260000001,0.2620095703750849,-2.1120036959648134,-5.138419437408447,0.045331407459357535,2.0820283999999996,-13.5173443,4.35874319,3.5373988399999994,-0.6610576750000001,-1.379008791,-0.0971632251,0.241080163,2.09716907,-14.3625795,4.37649603,3.56106057
4954.5,1.6486101599999998,1.5030444299999997,1.75750624,0.0641082827,-0.6294466479999999,0.00954034877,-0.982739621,0.9902023090000001,0.597473197,-1.3027127000000003,0.0438218341,-3.550034883,0.20614814900000003,0.38872539640000003,90.31487259999999,0.2954786170274019,-2.1007301688194273,-5.203817462921142,0.04519681006884504,2.06996074,-15.715831500000002,4.37642188,3.6332268900000004,-0.680585483,-1.36789404,-0.266639985,0.17280295799999998,2.0571740499999995,-16.99659175,4.387856009999999,3.7167285
4964.5,1.64867071,1.5099061800000002,1.7554799000000003,0.0636240201,-0.717635483,0.0188921839,-0.9791476750000001,0.991653901,0.602509673,-1.30693546,0.058590080999999995,-2.92374197,0.20736864600000002,0.2968252764,82.06304270000001,0.19194571543484926,-2.0856600403785706,-5.206564331054688,0.045061500148085146,2.0550158400000003,-14.300761750000001,4.345090399999999,3.67951456,-0.679847384,-1.8501737200000001,-0.4251478430000001,0.14219308700000002,2.10320267,-15.28313785,4.38886344,3.6866948
4974.5,1.6486677100000002,1.5031854,1.75539477,0.0648679804,-0.6490427129999999,0.036839620000000003,-0.9844466470000001,0.9816194260000002,0.594888087,-1.2723555800000002,0.0464404915,-3.574657046,0.20674355900000002,0.39220362249999996,87.0479235,0.30142086893320086,-1.9738653421401977,-5.16745958328247,0.04492641511097375,1.94395271,-14.8948509,4.3622995200000005,3.78368101,-0.665616632,-2.10070203,-0.37000928000000005,0.190847207,1.9785706699999999,-15.88328795,4.39784439,3.8093461900000003
4984.5,1.64784069,1.5074842600000002,1.7568736900000002,0.0639894856,-0.6495607160000001,0.005114784200000002,-0.983313192,0.9839633680000001,0.597551162,-1.3215336400000002,0.04102804219,-3.509624717,0.20726776599999996,0.394217108,74.4758676,0.27631375640630723,-2.0825502276420593,-5.196868371963501,0.04479208130714366,2.05237491,-15.025556899999998,4.3829451100000005,3.72527112,-0.6734791290000001,-1.930913126,-0.40703548300000003,0.159073282,2.07576245,-16.4199072,4.40217414,3.75706596
4994.5,1.6488478700000002,1.50597848,1.7563369500000001,0.06354674860000001,-0.610756664,0.036352058799999996,-0.9840288530000002,0.9914918669999999,0.5904920170000001,-1.27676078,0.052833358100000005,-3.5547563499999995,0.20697809,0.346938149,108.492065,0.2784511536359787,-2.121778500080109,-5.21571102142334,0.044657950260113224,2.09149468,-15.154153500000001,4.365271259999999,3.6850733700000005,-0.677927676,-1.9429161099999999,-0.53359414,0.13504944089999998,2.13172705,-15.971805699999999,4.40756537,3.70341928
5004.5,1.6496263300000003,1.5055345,1.7564405600000002,0.0643045956,-0.6642945309999999,0.0198146819,-0.984270267,0.9887178630000001,0.5922044900000001,-1.26227491,0.0400235064,-3.8548300000000006,0.20738006699999997,0.415913568,81.080635,0.29508439153432847,-1.950083565711975,-5.207724237442017,0.04452394903648784,1.9200768099999999,-14.960216749999997,4.381129570000001,3.8900428500000004,-0.673742104,-1.7233091200000001,-0.52823776,0.1269753794,1.9428833599999997,-16.50338995,4.41723895,3.95805737
5014.5,1.6493424599999997,1.5048915199999997,1.75679363,0.06495649660000001,-0.6587533219999999,0.013147266875000002,-0.987179937,0.9844828489999999,0.5923243599999999,-1.3108529599999998,0.04132146655,-3.534834847,0.20841465600000003,0.39495287740000007,71.1477031,0.26689659208059313,-1.9197338461875915,-5.199737071990967,0.044390516610443125,1.89000259,-15.2869511,4.38784553,3.9404842600000003,-0.669563436,-1.80457079,-0.524677307,0.13863812399999997,1.92031528,-16.69608315,4.41304143,3.9730190700000003
5024.5,1.6489555,1.5055549400000001,1.7565368099999996,0.0638055832,-0.6021162419999999,-0.0019424893460000022,-0.9840861720000001,0.986466984,0.5858376080000001,-1.26298128,0.04753065869999999,-3.5592235400000005,0.20745684199999997,0.37628033299999997,81.4148558,0.281842078268528,-2.0031161665916444,-5.2252819538116455,0.044257644957162154,1.9731824600000003,-15.174587500000001,4.400978950000001,3.901433060000001,-0.676151261,-2.4772481300000004,-0.484101161,0.17965097800000002,2.0030662500000003,-15.846334099999998,4.428486309999999,3.9192933700000006
5034.5,1.64882317,1.5091560199999996,1.7551439000000002,0.0640255035,-0.730087554,0.01287570931,-0.972201991,0.983944675,0.5960779489999999,-1.29553231,0.05025300796,-3.5459432300000002,0.20795822400000002,0.35891723799999997,99.253832,0.3679033126682043,-2.0890079379081725,-5.239653825759888,0.04412495300988096,2.05903161,-13.8520765,4.40290188,3.6674031400000002,-0.679145494,-1.64487074,-0.555991946,0.1080849985,2.07357963,-15.586255249999999,4.42703871,3.71231218
5044.5,1.64920836,1.5059349100000001,1.7557380599999999,0.0641860644,-0.6651634010000002,0.003545586560000001,-0.9846933869999999,0.9834473690000001,0.5964885090000001,-1.2959902099999998,0.0429593724,-3.56427536,0.20589850099999998,0.407452436,79.69724390000002,0.539789667725563,-2.0484679341316223,-5.250391721725464,0.043992356996703674,2.0185013,-15.082513449999999,4.403758150000001,3.7306902199999996,-0.680966958,-2.6949314600000003,-0.5564807110000001,0.17697863600000002,2.0632099200000003,-15.924982349999999,4.43447512,3.7662632900000004
5054.5,1.64912226,1.50367289,1.75664834,0.06399583500000001,-0.6519663769999999,0.023559380649999996,-0.9841424140000001,0.9840956399999999,0.6051818870000001,-1.3264842800000003,0.0685778263,-2.639803511,0.206642256,0.25200063800000005,86.886509,0.39141773656010626,-2.0837742567062376,-5.192102146148682,0.043860340835201794,2.0547865300000003,-15.974743900000002,4.41379434,3.709400210000001,-0.660705876,-2.2475778099999997,-0.554724855,0.192973624,2.05641199,-16.5040716,4.43913032,3.75323586
5064.5,1.6472283299999997,1.5071315299999999,1.7546984900000002,0.0640716609,-0.7447357239999999,0.006292166900000002,-0.987126406,0.9837288860000001,0.5883358300000001,-1.2765340500000002,0.054227110300000006,-3.5586519700000006,0.20855291599999998,0.341792488,101.734141,0.32129254564642906,-2.1049059629440308,-5.147502803802491,0.04372963544410454,2.0766974200000003,-13.984360700000002,4.4103243800000005,3.67591022,-0.644869405,-2.34335385,-0.528187365,0.212942912,2.08564191,-15.363185699999999,4.44334518,3.7084107700000004
5074.5,1.64916261,1.50550853,1.75607413,0.06463993409999999,-0.722474826,0.011417980600000002,-0.9860196170000002,0.9835208200000001,0.5912144570000001,-1.2731361,0.04521300882,-3.857193100000001,0.206570874,0.39204739,97.98435730000001,0.25998141467571256,-1.930418562889099,-5.159676647186279,0.043600320181754026,1.9021924900000002,-15.36364015,4.4135176099999995,3.938777410000001,-0.6471965159999999,-1.9261242600000004,-0.514679544,0.180303648,1.93263688,-16.566198399999998,4.44887483,3.9559285599999994
5084.5,1.6484040800000002,1.50640828,1.75552793,0.0625713035,-0.5608524960000001,0.018944530630000005,-0.986173244,0.987510101,0.5971919210000001,-1.2908907299999999,0.063616365,-3.259240838,0.20768142899999997,0.29706882799999995,104.95493510000001,0.16987838186323642,-2.209490418434143,-5.237056112289428,0.04347132019405792,2.1803420900000003,-14.8196729,4.4317079,3.67156924,-0.670321405,-1.9709432600000003,-0.512839927,0.1597652071,2.1974323,-15.5684912,4.4571969,3.6799170699999997
5094.5,1.64885028,1.5055566399999998,1.7566929500000001,0.06447241179999999,-0.689904337,0.028401843390000004,-0.9884141599999999,0.98494622,0.5925838339999999,-1.3002267,0.05728242801000001,-3.5498787199999997,0.208038049,0.330526857,107.517724,0.2111717291176319,-2.05727903842926,-5.279098701477051,0.04334170918738524,2.0277056599999996,-15.847767800000003,4.451776820000001,3.8318540499999996,-0.682129391,-1.49171713,-0.46284873600000004,0.12241366010000002,2.03321955,-17.209682,4.458512880000002,3.86927057
5104.5,1.64931517,1.50368323,1.7565808600000001,0.0655544545,-0.655882979,0.016396507000000005,-0.981451255,0.98899154,0.590824466,-1.27957661,0.03313459066,-3.57215499,0.206483536,0.428098821,62.1486914,0.38235333263874055,-1.7903315067291259,-5.282254648208618,0.0432116485827702,1.76087267,-15.880269799999999,4.462029899999999,4.17329133,-0.6815268270000001,-1.6534378320000003,-0.416857328,0.141993935,1.78666815,-16.9218681,4.46956013,4.20823307
5114.5,1.6486006199999999,1.50503896,1.7570377000000001,0.0643783716,-0.6362600279999999,0.0126896448,-0.9835805639999998,0.9808177739999999,0.5835298130000001,-1.2521271999999999,0.05625736060000001,-3.53595932,0.205706459,0.338318165,100.0442822,0.275588347017765,-2.0621939659118653,-5.287354850769043,0.04308167438276731,2.03282331,-15.8670098,4.450708410000001,3.8316496200000003,-0.681538129,-1.595436287,-0.5351870740000001,0.10899350110000001,2.05316062,-17.309454499999998,4.47365547,3.87292078
5124.5,1.6494809499999998,1.5020670900000002,1.75750014,0.064807705,-0.571206033,0.00014256379999999982,-0.9863074920000001,0.9904848740000001,0.5846832409999999,-1.2570679099999997,0.0539891372,-3.57597509,0.207766503,0.354016397,91.47506,0.29285784661769865,-1.9350183725357055,-5.279391670227051,0.04295203905976984,1.90591383,-16.9263655,4.450307059999999,4.05916675,-0.677398725,-1.8350609300000003,-0.5702903020000001,0.12407380700000001,1.9343357300000001,-17.6469421,4.47924504,4.0797326
5134.5,1.6490022600000003,1.50640873,1.7566580899999997,0.06390397890000002,-0.6932433559999999,0.014098362120000003,-0.9847837859999998,0.9874495689999998,0.5918266759999999,-1.29233513,0.044944661799999994,-3.84344241,0.20634843899999997,0.392798021,101.96271850000001,0.2944330483675003,-2.017115569114685,-5.274085521697998,0.04282301726770403,1.9882393200000004,-16.0433807,4.47124235,3.9532897299999994,-0.674111151,-1.79107403,-0.50192518,0.146247134,2.00372187,-17.989628000000003,4.48527988,3.9961372099999997
5144.5,1.64827923,1.50360433,1.7565992099999999,0.06380439560000001,-0.5830941350000001,0.022472150000000003,-0.9880996769999999,0.9877910080000001,0.59314136,-1.2968072400000001,0.0597223129,-2.9320515499999997,0.20618204899999998,0.294089524,86.2640778,0.18653099685907365,-2.1415578365325927,-5.2896270751953125,0.04269452464793061,2.1126259099999998,-16.1159307,4.462307309999999,3.83097334,-0.677444371,-1.7337177999999998,-0.5123979540000001,0.1266022571,2.15145857,-17.2443677,4.488410760000001,3.8364331
5154.5,1.6487168800000003,1.50672872,1.7557460200000001,0.063346227,-0.596086189,0.02132516767,-0.979760639,0.9878283719999998,0.601795882,-1.32096431,0.059314762,-3.2263183900000003,0.20743577100000002,0.3176017675,85.453564,0.24178915843367577,-2.1107271790504454,-5.306834936141968,0.04256633383665712,2.08171827,-15.21922165,4.4733946,3.7954396699999995,-0.6812974869999999,-1.97710075,-0.5630287469999999,0.11816476179999999,2.1034655300000002,-16.6788559,4.49510646,3.8129289900000005
5164.5,1.64917406,1.5029933399999997,1.75654738,0.063387426,-0.5963622796,0.025976206500000005,-0.9836211109999999,0.9835108570000001,0.5865706980000001,-1.2728789200000001,0.04637951785000001,-3.577821014,0.20727127000000004,0.393134342,85.0535519,0.3402216963469982,-2.016340982913971,-5.296903324127197,0.04243834094077945,1.9876202499999998,-16.245616700000003,4.479379639999999,3.97913748,-0.676553696,-1.9527035599999998,-0.54712782,0.13836452950000003,2.0052007300000003,-17.4971408,4.5048099200000005,4.041402999999999
5174.5,1.6485176200000002,1.50145016,1.7572168700000002,0.06378638639999999,-0.600709914,0.032587224799999995,-0.9822027079999998,0.986308713,0.5887904429999999,-1.2710815400000002,0.049932118,-3.5310104449999997,0.20912238399999997,0.3629807444,86.78760419999999,0.37607732862234117,-2.036563527584076,-5.255006742477417,0.04231105679192092,2.00855724,-17.184057900000003,4.48656743,3.9784945899999995,-0.661711809,-2.33766122,-0.542639017,0.190156879,2.0273856500000003,-18.409232099999997,4.5085861000000005,4.0254572799999995
5184.5,1.64874561,1.50175099,1.75700903,0.064351982,-0.597481377,0.023201508759999996,-0.983200418,0.9904791710000002,0.598322931,-1.3031830899999999,0.04895319699999999,-3.5469567940000006,0.20730005999999998,0.35870415099999997,89.57118009999999,0.2885406777262688,-1.9835811018943788,-5.233663845062256,0.04218488700280908,1.95600926,-16.94305005,4.483387779999999,4.0661412200000004,-0.6533996290000001,-1.8111226299999998,-0.564356289,0.15927511,1.96819278,-18.282159,4.51214702,4.11252685
5194.5,1.64839331,1.5038089799999999,1.7559587500000002,0.06352214590000001,-0.567272249,0.0270688854,-0.984709871,0.9877327989999998,0.584865224,-1.22783991,0.05599820123,-3.5381292199999996,0.20741278400000002,0.337149712,115.4593777,0.22101625576615333,-2.1155135154724123,-5.249567317962646,0.04205962098077385,2.0878778000000002,-16.1689505,4.49953826,3.8901462499999995,-0.656866293,-2.27216984,-0.539095912,0.193588994,2.10467738,-16.860868250000003,4.5201099,3.90518333
5204.5,1.64850892,1.50480093,1.7560609499999997,0.06421303490000001,-0.69729606,0.0097386344,-0.9810278649999999,0.9763623450000001,0.589264594,-1.2887322200000002,0.0596113141,-3.23055908,0.20671911299999998,0.30629198699999993,93.5352214,0.17156318202614784,-2.0392842888832092,-5.327227354049683,0.041934568416932994,2.01076898,-15.907351299999998,4.5013685699999995,3.93446944,-0.679798279,-1.9544286000000004,-0.554196216,0.1299159525,2.04228504,-17.0454741,4.52149479,3.9420575899999997
5214.5,1.64826628,1.50568826,1.7554451999999998,0.06453289350000001,-0.6520869039999999,0.012295060069999999,-0.9793413719999998,0.9854325999999999,0.586321359,-1.26640967,0.05097142464300001,-2.9062174119999997,0.207569744,0.32914642650000003,63.1951785,0.22769056893885137,-2.024743926525116,-5.353721618652344,0.041808945293701896,1.9960311000000002,-15.521788849999998,4.514344800000001,3.98676812,-0.686559004,-1.4284556700000002,-0.47461743199999995,0.112150259,2.01359398,-16.409483599999998,4.5344503000000005,4.01315319
5224.5,1.6487378200000002,1.50521961,1.75524649,0.0633734647,-0.6402790750000001,0.023645132059999997,-0.9853316729999998,0.983793444,0.5831075969999999,-1.2227915100000002,0.047015466699999994,-3.5572703239999997,0.20671566599999996,0.37419598,89.4230112,0.30546036660671233,-2.0534283995628355,-5.344806432723999,0.0416830906976045,2.02498561,-15.9677605,4.51898591,4.0272823,-0.682153774,-1.0899413249999998,-0.381703673,0.13844187489999998,2.0434394300000003,-17.4363301,4.53242093,4.05820266
5234.5,1.6485298199999998,1.50799884,1.7558269499999999,0.06500571599999999,-0.6951616260000001,0.022223119259999997,-0.978886509,0.9883028099999999,0.5939316299999999,-1.29171794,0.0524131127,-3.2037106559999997,0.20669669099999996,0.35475558700000004,65.47921450000001,0.2597397480159998,-1.88568514585495,-5.339030027389526,0.04155758785729451,1.8574697200000003,-16.151949050000002,4.52590672,4.12279605,-0.678742869,-1.006464755,-0.2995685309999999,0.171545112,1.8722478600000003,-17.307237200000003,4.543538830000001,4.147338
5244.5,1.6486817199999997,1.5046342,1.7553682899999998,0.0640116916,-0.721132424,0.02189516968,-0.9853106649999999,0.988267495,0.587682974,-1.25390837,0.06313472719999999,-3.53255901,0.207934375,0.30850516099999997,116.2855863,0.1901721190661192,-2.037141215801239,-5.342740869522094,0.04143257465218801,2.009028,-15.752817449999998,4.5200403,3.936894360000001,-0.6783205689999999,-1.207236359,-0.34222626600000006,0.157288435,2.0305195300000003,-16.863340849999997,4.545972819999999,3.95394376
5254.5,1.6484932999999997,1.5037430399999998,1.7552870000000003,0.0645591595,-0.665281637,0.020422349039999996,-0.9858586060000001,0.9860718179999999,0.591901239,-1.28432437,0.0534547888,-3.274884316,0.20873590700000003,0.330655984,81.52934830000001,0.21485638804733753,-1.9189310431480409,-5.348471164703369,0.041308038748678236,1.8908937000000001,-16.088136900000002,4.522687790000001,4.11212084,-0.678532593,-1.54629376,-0.503508054,0.1099948722,1.92424952,-16.952323,4.5492784,4.118563340000001
5264.5,1.64991731,1.4976351399999996,1.75904257,0.0652829974,-0.536716173,0.01839925543,-0.9775584499999999,0.982162812,0.5907314859999999,-1.28611641,0.0464670133,-3.85860397,0.20864373100000005,0.405046853,85.83142319999999,0.29376797676086425,-1.7859625220298767,-5.359954023361206,0.041183893451848023,1.7579265,-19.6383789,4.53935651,4.441716099999999,-0.6805484290000001,-1.45818498,-0.53359237,0.10361406199999998,1.77375595,-20.0567618,4.55653871,4.4736743500000005
5274.5,1.64814416,1.5048191800000001,1.75640317,0.0643119104,-0.717453774,0.029760411000000007,-0.983140967,0.98571538,0.5896362589999999,-1.2716226599999998,0.0579483419,-2.969332235,0.205391907,0.30509214500000004,79.48451029999998,0.26832102835178373,-1.978411066532135,-5.364402961730957,0.04106006579986781,1.9504671800000004,-16.671286700000003,4.54562064,4.08232786,-0.6803569060000001,-1.6282015,-0.510243213,0.1082727878,1.9548937000000002,-17.6733309,4.56319704,4.1207742000000005
5284.5,1.64912491,1.5045190300000002,1.75534779,0.063836949,-0.629425492,0.028163840800000006,-0.9896202620000001,0.9861456709999998,0.5942038239999999,-1.2539095900000001,0.0639829353,-3.2294945,0.20758573300000002,0.308116375,99.81659240000002,0.2622516453266144,-1.99194495677948,-5.365059232711792,0.040936598880751886,1.96414147,-15.972505100000003,4.55853321,4.01889278,-0.678978581,-1.8516915099999998,-0.5271263260000001,0.11652139739999998,1.9760190000000002,-17.20736205,4.57069885,4.04910784
5294.5,1.6484062000000002,1.50554215,1.75581129,0.06327864620000001,-0.552226413,0.019446859339999997,-0.981517281,0.987519504,0.591858912,-1.28983102,0.06456055930000001,-2.974519368,0.20779893599999996,0.28659109999999993,92.6898012,0.18381530679762365,-2.1050927519798277,-5.371358203887939,0.04081352900335478,2.07735698,-16.3850507,4.55334999,3.9690114199999997,-0.6793676639999999,-1.4250556859999999,-0.517763125,0.1000906466,2.1119541600000002,-17.3253034,4.57211355,3.95612109
5304.5,1.6482461400000001,1.5072135,1.75633112,0.06382774009999999,-0.705175316,0.032597314259999996,-0.9846883160000001,0.9843943919999999,0.586711405,-1.27009441,0.055563114299999994,-3.219572404,0.205711625,0.32880893600000005,94.64278039999999,0.20870746113359928,-2.0588915586471557,-5.381513547897339,0.040690777873272244,2.0311741100000003,-16.7356262,4.5512445900000005,3.9746631400000005,-0.6809613750000001,-1.7885142099999995,-0.547167234,0.11222390990000002,2.05614002,-17.8770785,4.58194916,4.005632870000001
5314.5,1.6484348,1.51243881,1.75490712,0.06313163590000001,-0.825149151,0.009419196523999999,-0.9870150539999999,0.9865228499999998,0.590471731,-1.26833028,0.0614497135,-3.55088032,0.20665940200000002,0.31366172200000003,117.56456209999999,0.18461903147399425,-2.082793629169464,-5.381863451004028,0.04056840886757101,2.05521953,-15.288828599999999,4.5630025,3.99617572,-0.679489069,-1.95723563,-0.558626067,0.1310125924,2.0700996399999996,-17.2731666,4.58080399,4.01757936
5324.5,1.64834761,1.50618395,1.75522423,0.0647056673,-0.715290264,0.019878804118999997,-0.981710265,0.9886132419999999,0.5930080489999999,-1.2846292300000002,0.056196948000000004,-3.1470075480000004,0.207645035,0.3236832407,80.83258305,0.20515986382961274,-1.9368759632110595,-5.376370429992676,0.040446509394392906,1.9095177500000002,-16.475080400000003,4.573842280000001,4.1714393,-0.676200712,-1.6125956000000001,-0.5544908599999999,0.11595780250000001,1.93540994,-16.972467200000004,4.591020049999999,4.189327270000001
5334.5,1.64978333,1.51128038,1.75581298,0.0634284809,-0.813620988,0.010333542069999998,-0.9876026569999998,0.9873187160000001,0.587054289,-1.27836031,0.061560603199999994,-3.531569243,0.20634963700000003,0.336930632,99.01933729999999,0.23651471585035325,-2.02964985370636,-5.394080114364624,0.04032503687765119,2.00221465,-16.523695099999998,4.58951113,4.11726405,-0.680146571,-1.81031452,-0.501418571,0.1356483172,2.01189521,-17.5546639,4.59935792,4.138532379999999
5344.5,1.6486692600000001,1.5044244,1.75599687,0.0649324402,-0.6474696860000001,0.027244017949999998,-0.9792891210000001,0.983696406,0.5980776890000001,-1.31379627,0.053543091200000004,-2.966081814,0.20827418999999997,0.3329949566,74.223263,0.2976971425116062,-1.9111319780349731,-5.410371923446656,0.04020379056338824,1.8836385800000002,-16.834773399999996,4.5813130399999995,4.22704764,-0.683642663,-2.0243637,-0.550199169,0.13013349000000002,1.9168185699999998,-17.8157149,4.6039727599999996,4.233957900000001
5354.5,1.6474842799999998,1.50466375,1.7559236900000001,0.06358909589999999,-0.6686708189999999,0.03268234839999999,-0.985963806,0.986702545,0.600609919,-1.2993846100000002,0.051610904199999995,-3.2647398259999996,0.206286083,0.34256968,90.2450101,0.2205090332776308,-2.097986125946045,-5.404899168014526,0.0400827707456571,2.07070684,-16.884583999999997,4.5986939300000005,4.111531490000001,-0.680364139,-1.79437465,-0.5493468639999999,0.1167197305,2.0764041200000003,-18.034018300000003,4.60547554,4.15496412
5364.5,1.64896719,1.50817218,1.75665111,0.063669915,-0.743964312,-0.007425635850000001,-0.9864991099999999,0.987191492,0.5883925349999999,-1.24653795,0.06438991869999999,-3.5319505850000006,0.20658458300000002,0.30188863900000007,122.48693180000001,0.15295832529664039,-2.005192315578461,-5.408275890350342,0.03996226160711513,1.97801632,-17.4439269,4.58729399,4.10410773,-0.67983866,-1.6748797000000004,-0.5239337900000001,0.11140177949999999,2.00394236,-19.0725579,4.61045339,4.131416359999999
5374.5,1.6489245599999998,1.5049507800000002,1.75540398,0.06417671189999999,-0.683696963,-0.016539252299999998,-0.9830861299999999,0.986811178,0.5899537469999999,-1.2601094700000002,0.05693763579999998,-3.556278,0.207068831,0.33450367200000003,106.5109175,0.20455202534794809,-1.9157993912696838,-5.413062286376953,0.03984213400577795,1.88870818,-16.626899599999998,4.59761276,4.30888551,-0.679755903,-1.47601867,-0.516932966,0.10216166460000002,1.9120059399999998,-17.7912983,4.621080259999999,4.3303902
5384.5,1.6487154700000002,1.5072311100000004,1.75492363,0.06380412249999999,-0.74408201,-0.00405936314,-0.9793594860000001,0.9861702620000001,0.5942471739999998,-1.3005880600000002,0.0666657678,-2.937987434,0.20884171399999998,0.266130365,93.5255615,0.14293546080589295,-1.9748762011528016,-5.414599990844726,0.03972234044141451,1.9479098200000002,-16.2147467,4.61391311,4.21506443,-0.6786650140000001,-1.6741322,-0.44087248799999995,0.129665721,1.9664626100000002,-16.630215200000002,4.62162204,4.220061399999999
5394.5,1.6486048100000001,1.51120648,1.7551907699999998,0.06280970220000001,-0.722151565,-0.0040522434300000005,-0.9833587109999999,0.989280358,0.593699191,-1.2916757100000003,0.05753114299999999,-3.5580915949999996,0.205793086,0.32893881,105.13445010000001,0.1982308618724346,-2.0398221611976624,-5.427422380447387,0.0396029501802156,2.01284152,-15.8475869,4.61623674,4.13293499,-0.681071534,-1.8128671099999998,-0.47998398499999995,0.1295343172,2.0473441899999996,-17.413653500000002,4.631176599999999,4.143697170000001
5404.5,1.64897698,1.50439626,1.7568081,0.0641078423,-0.642838629,0.018993591980000002,-0.984342135,0.9910825449999999,0.58808044,-1.2477357199999999,0.0479222439,-3.8287144600000005,0.20648669199999997,0.37809242099999996,109.7472884,0.25248185694217684,-1.9656708598136903,-5.429611921310425,0.039483947042873446,1.9388065599999997,-18.1746975,4.628727060000001,4.32570935,-0.6801817320000001,-1.60366839,-0.516590809,0.10719016689999998,1.9482384200000002,-19.405751900000002,4.63449015,4.3717459
5414.5,1.64766011,1.5023913199999999,1.75591654,0.06507170439999999,-0.629783093,0.0463877387,-0.980732802,0.9859845179999999,0.592916113,-1.29160079,0.05654361485,-3.5610945450000004,0.20686050600000003,0.324137873,108.88518300000001,0.2212386302649975,-1.9845703482627868,-5.4475287914276125,0.03936520475928702,1.9576302,-17.459315800000002,4.6266000400000005,4.23476465,-0.684157423,-1.64823199,-0.518781827,0.11081629900000001,1.9680737499999998,-18.409757300000003,4.64252034,4.25625795
5424.5,1.64857917,1.50807436,1.7559398700000002,0.0642003212,-0.672113923,0.005168107700000003,-0.9814397189999999,0.986388736,0.5935903,-1.31192143,0.0413879656,-3.564282514,0.20603624799999998,0.39730185999999995,75.3333713,0.32517806738615035,-1.9076693415641786,-5.443159914016723,0.03924673209422326,1.88092485,-17.505139999999997,4.62100957,4.37420697,-0.681239937,-1.83771269,-0.5398924350000001,0.11990048700000003,1.9019135299999999,-18.679101,4.64132075,4.42202261
5434.5,1.6492411100000002,1.50195122,1.7562785600000002,0.0649093959,-0.6099444509999999,0.03410755677,-0.9880760869999999,0.9822471909999999,0.592829524,-1.2741616900000001,0.0539687893,-3.8494175900000003,0.207374641,0.361674944,118.4128512,0.256874780356884,-1.8002456188201905,-5.460919523239136,0.03912856000982072,1.77342823,-17.9962037,4.64323683,4.51210881,-0.685157011,-1.81345666,-0.564955505,0.12482778799999998,1.8009685400000002,-18.814408750000002,4.65570385,4.514585729999999
5444.5,1.64807103,1.5077697300000001,1.7556312000000003,0.0632150064,-0.679320744,0.014371245599999999,-0.9789180700000001,0.9860070180000001,0.6025086150000001,-1.3307380600000003,0.0621537703,-3.553354786,0.20824575600000003,0.32775175,112.61490290000002,0.20827259868383408,-2.1100130319595336,-5.453944349288941,0.03901073397169484,2.0834215499999997,-16.8119992,4.6400474,4.080183760000001,-0.681439135,-1.6677164299999998,-0.5124450030000001,0.11195040409999998,2.10992209,-18.1611696,4.66084475,4.09046363
5454.5,1.64859756,1.5073794499999997,1.75491906,0.06384373150000001,-0.7397362060000001,-0.0142620095,-0.983615601,0.988009188,0.5998492499999999,-1.2948311599999998,0.0595579844,-3.549826976,0.20547900300000005,0.3320002855,105.7426418,0.25273376554250715,-1.9520870566368103,-5.463122272491455,0.03889331461199194,1.9255263500000002,-16.5406937,4.647618759999999,4.222402279999999,-0.6827051220000001,-1.67942872,-0.481600892,0.11749398590000001,1.9472587500000003,-17.8054918,4.66625855,4.25423797
5464.5,1.64849858,1.5009148,1.75735344,0.0645990193,-0.5173735540000001,0.0204238596,-0.985397513,0.9851249679999998,0.6002692860000001,-1.31560239,0.0535553693,-3.2672745300000003,0.208075739,0.33386998,80.6385329,0.23644559420645236,-1.851554524898529,-5.466561317443848,0.03877627140298685,1.8250932299999998,-18.7892789,4.65018482,4.55775373,-0.6822025130000002,-1.8027282,-0.5205960769999999,0.1190601381,1.85361866,-19.9079236,4.67139656,4.57711996
5474.5,1.6490081200000002,1.50840989,1.75511764,0.0635564885,-0.704018111,0.0014519690700000019,-0.9809462849999999,0.98882005,0.594769666,-1.2795618,0.0603468924,-3.261021264,0.20452562200000002,0.30931861450000003,95.77958409999998,0.2179058926180005,-1.9693021774291992,-5.482849931716919,0.03865957501085911,1.9427872199999996,-16.8546626,4.662260440000001,4.32181667,-0.6856508920000001,-1.39965816,-0.474675956,0.1095905605,1.9652720399999999,-17.6350546,4.6798264199999995,4.317209110000001
5484.5,1.64831504,1.50594669,1.75650665,0.063704866,-0.630741457,0.032727652499999996,-0.987503143,0.9871218719999998,0.5988284059999999,-1.2974378100000001,0.052930604299999996,-3.8300999300000003,0.205528581,0.36486056699999997,116.5838602,0.24352277517318727,-2.0114830493927003,-5.485447931289673,0.038543099358979,1.9850773199999998,-17.8323979,4.66928517,4.310651330000001,-0.684887459,-1.50491426,-0.451324582,0.1187430254,1.9821371199999998,-19.400892700000004,4.67943218,4.37138475
5494.5,1.6490502799999998,1.50201874,1.75598237,0.0644948728,-0.701341813,0.01481007154,-0.9783276909999999,0.9878135460000002,0.600036447,-1.2959523900000003,0.054062568629999995,-3.2181693729999994,0.20743731599999998,0.338230916,81.6917777,0.2448841579258442,-1.8360445022583007,-5.475178813934326,0.03842707431965425,1.80989959,-18.242838300000003,4.65840036,4.55260777,-0.6801754769999999,-1.41495025,-0.42076274299999994,0.12395204200000001,1.8447123699999999,-18.632585799999998,4.69013558,4.55620872
5504.5,1.64885115,1.5027485600000001,1.7557603199999998,0.0644238299,-0.7183757790000002,0.030420635819999996,-0.986084788,0.987255434,0.587375536,-1.2556090999999998,0.054342308299999996,-3.537825924,0.20637179099999997,0.33696205,105.54986419999997,0.2286951258778572,-1.8743088841438293,-5.4735571384429935,0.038311491117384563,1.8483208400000002,-17.749920200000002,4.67981628,4.44340441,-0.678128621,-1.322890485,-0.39758752599999997,0.1283527984,1.8587580600000002,-18.536366199999996,4.700224,4.481225569999999
5514.5,1.6491173199999998,1.5043090300000004,1.7572209699999999,0.0645210369,-0.7179215369999999,0.020011794438,-0.976575976,0.988907556,0.599508884,-1.32288624,0.0505131837,-3.84205556,0.208106913,0.372315389,103.4318767,0.2763925716280937,-1.767689573764801,-5.49062328338623,0.03819638319252554,1.74163916,-18.930370200000002,4.6820693,4.57530329,-0.681808269,-1.835065144,-0.46193348199999995,0.1321082924,1.7606170200000002,-20.2780493,4.69459683,4.61461951
5524.5,1.64854473,1.5069507500000001,1.7554027300000001,0.0631174797,-0.680869019,-0.003989849839999999,-0.981444132,0.984326644,0.585520238,-1.26494354,0.0667519631,-2.566502338,0.205723168,0.2674914241,66.74031026,0.26134534403681753,-2.060581994056702,-5.487822723388672,0.038081584631774315,2.0347014,-17.033733,4.678101289999999,4.20334656,-0.679402378,-2.08614343,-0.5142673170000001,0.13090740650000002,2.0595621299999998,-18.3393107,4.709219880000001,4.223857499999999
5534.5,1.64812297,1.5050073199999998,1.75659569,0.06513281039999999,-0.787394032,0.045858693900000004,-0.980912139,0.9900567429999999,0.59525423,-1.3051778600000001,0.0650537663,-3.5198581000000004,0.206692265,0.29790616799999997,123.207718,0.24161437302827835,-1.8460933208465575,-5.486061525344849,0.03796720985710077,1.8203696899999997,-18.4929376,4.680354420000001,4.465010189999999,-0.677319179,-1.90633191,-0.54982082,0.1240438756,1.8485214100000005,-19.3040448,4.70329784,4.4826339100000006
5544.5,1.6479002399999998,1.5040210699999998,1.7565484100000002,0.06384621990000001,-0.656177042,0.013712159969999999,-0.977876374,0.9845284129999999,0.58723945,-1.28935499,0.0648758739,-3.2473301040000004,0.206171909,0.285382965,105.006274,0.17902556881308557,-2.0334135055541993,-5.442931652069092,0.03785339881576709,2.00832385,-18.4568202,4.6855738,4.33558277,-0.6626074530000001,-2.03922649,-0.503444226,0.170719096,2.03828747,-18.812519400000003,4.710503760000001,4.3233251
5554.5,1.6484196399999997,1.5064823299999996,1.75631351,0.06402005350000001,-0.733582543,0.043399771899999995,-0.984396454,0.988972789,0.584869429,-1.23914192,0.05891623129999999,-3.83518294,0.20954278099999998,0.34613540800000003,120.801502,0.1999624028801918,-1.8819769978523255,-5.467026424407959,0.03774048430462511,1.8567423600000001,-18.9477226,4.690350459999999,4.46529311,-0.668441259,-1.96091662,-0.410486841,0.17021133900000002,1.88827751,-19.7203156,4.718019700000001,4.48030495
5564.5,1.64881748,1.50656225,1.7564525600000003,0.0639930437,-0.7467426900000002,0.023924744810999998,-0.9849284260000001,0.9831029289999998,0.592530655,-1.2888895699999998,0.047071924200000004,-3.56771394,0.20690202099999996,0.387210896,80.51543689999998,0.3323509022593498,-1.8480441451072693,-5.5086664199829105,0.0376277700885071,1.822464,-18.852631999999996,4.71273138,4.57055056,-0.679618013,-1.38756939,-0.292003609,0.159791584,1.84162785,-19.9350142,4.72622311,4.59442498
5574.5,1.64962485,1.5037096399999998,1.7569240700000002,0.0634939694,-0.627735413,0.0266254294,-0.979395978,0.985960028,0.5813325300000001,-1.24229579,0.0543136199,-3.2694231389999997,0.20734151,0.35297153499999995,83.62256590000001,0.28931227177381513,-1.8838300347328185,-5.521702766418457,0.03751497480433475,1.8582352400000002,-19.5323574,4.70976163,4.58429202,-0.6820530499999999,-1.56732328,-0.38451597600000004,0.143768542,1.8857580200000004,-20.6197467,4.728885009999999,4.61507852
5584.5,1.6486910900000002,1.5035492000000001,1.75652881,0.0639765432,-0.626470531,0.029583620860000003,-0.9789745199999998,0.986093705,0.593614507,-1.28875923,0.0601863464,-3.5399381399999994,0.20818529899999993,0.31064511799999994,117.31491259999999,0.20162972509860994,-1.9168188571929932,-5.521756362915039,0.03740225468447437,1.8913576499999998,-19.1645909,4.7226453799999994,4.52433874,-0.680530717,-1.6100304900000002,-0.5283067379999999,0.108487,1.9088086700000002,-19.657838,4.732238810000001,4.53940913
5594.5,1.6484180099999999,1.5064515500000002,1.75621206,0.0641314722,-0.687266918,0.003804883200000002,-0.980357136,0.986208646,0.584168514,-1.26312185,0.0592046529,-3.26200357,0.20720342000000005,0.28469314199999995,106.033357,0.18882704712450504,-1.7769424557685851,-5.494796705245972,0.03728994207373524,1.7519208799999997,-18.5439857,4.7287072100000005,4.6387249000000015,-0.670796217,-2.2730432400000002,-0.582364295,0.159350703,1.7661323099999997,-19.522231,4.7359145,4.65481538
5604.5,1.6487815300000002,1.5026349499999998,1.75709225,0.0646854355,-0.698962492,0.01447316192,-0.9819087940000001,0.9873205300000001,0.5928086240000001,-1.2698203099999998,0.0481472848,-3.5576873,0.208087611,0.37246568399999996,86.1370436,0.3475527033209801,-1.7689946651458741,-5.469925165176392,0.03717841974207988,1.74438558,-19.7478109,4.7298032999999995,4.77039802,-0.661718977,-2.66308919,-0.5774925549999999,0.20384731399999997,1.75118188,-20.5727205,4.73829928,4.81207231
5614.5,1.6483538599999996,1.50696149,1.7559812300000002,0.0630948258,-0.6418206489999999,0.0016165310500000005,-0.9846146709999999,0.987829202,0.594880652,-1.2845152900000003,0.0594569649,-3.83767326,0.20557451300000001,0.317226599,132.266889,0.28711130619049074,-1.9693047523498535,-5.4901878356933596,0.03706768592877777,1.94459719,-18.1098601,4.733645849999999,4.53127514,-0.666361239,-2.2703514,-0.5231485990000001,0.178998398,1.9536638299999995,-19.6303852,4.75011938,4.5778560200000005
5624.5,1.64929765,1.50517066,1.7563407300000002,0.0638225524,-0.6665336869999999,0.028784495376000002,-0.9822672320000001,0.9892580430000001,0.586151746,-1.26536919,0.05681505825000001,-3.561530174,0.20790000099999997,0.34705536000000003,104.8313554,0.3427471905946732,-1.8773762226104735,-5.517532682418823,0.03695718000531328,1.85249141,-18.608363849999996,4.7282106299999995,4.645797969999999,-0.673146378,-1.9091462700000001,-0.420988822,0.16606636100000002,1.8805305099999998,-19.671427799999996,4.7603724,4.663480080000001
5634.5,1.6489063100000003,1.50498908,1.75756532,0.0637707007,-0.612682563,0.0204767197,-0.9773633870000001,0.9881187419999999,0.590453921,-1.2825815600000001,0.04985594020000001,-3.260532955,0.207583865,0.34974725199999995,72.86671290000001,0.32996349930763247,-1.8419552445411682,-5.539769029617309,0.03684663298993801,1.8169521800000001,-19.973122999999998,4.741662140000001,4.699177560000001,-0.6783666939999999,-1.76884548,-0.44170691900000003,0.1418703405,1.83783985,-20.9877994,4.7632385600000005,4.7263080099999994
5644.5,1.64961841,1.50530894,1.7561517299999998,0.06395262249999999,-0.6711631450000001,0.005604485129999998,-0.980982207,0.98185787,0.586354822,-1.29356524,0.057542732000000006,-3.5470333200000006,0.206596974,0.343619087,93.87977809999998,0.3379782631993294,-1.7573635935783387,-5.5476402759552,0.03673619081472935,1.7324041100000003,-18.95595,4.73670405,4.78295735,-0.679223405,-1.6075420049999998,-0.47803869500000007,0.11917212399999999,1.76841596,-19.4962292,4.7650027,4.786111249999999
5654.5,1.64894077,1.5070877200000001,1.75538853,0.0645536568,-0.690925614,-0.0111563443,-0.983914261,0.9879726590000001,0.6005196780000001,-1.3145961199999998,0.059480068500000004,-3.544433384,0.208487103,0.32722749060000006,116.0409159,0.2325783371925354,-1.786491298675537,-5.524088668823242,0.03662599125279048,1.7619231600000003,-17.7768784,4.750051560000001,4.736811449999999,-0.670576992,-1.7976702599999999,-0.46167538199999997,0.1520765955,1.7759044800000006,-19.090243100000002,4.77608478,4.75885118
5664.5,1.64903298,1.5113870900000002,1.75576884,0.06464985600000002,-0.8775531799999999,0.03603245942,-0.9870019170000001,0.9855226379999997,0.5973148259999999,-1.2832432200000001,0.04309341057,-3.53621403,0.20788434900000002,0.39929495160000006,82.2638177,0.3676570042967796,-1.6566304564476013,-5.478306150436401,0.03651659816134357,1.6326965900000001,-18.130756499999997,4.768236969999999,4.76733935,-0.655231135,-2.0027265499999998,-0.327519664,0.23466125999999998,1.66663965,-19.652511899999997,4.7829841,4.7874665599999995
5674.5,1.64850538,1.5028326600000002,1.75678346,0.06479600599999999,-0.7281907489999999,0.02213475307,-0.977328118,0.9842211449999999,0.582830675,-1.2494629400000001,0.0495679081,-3.8306659400000003,0.205143815,0.370907563,107.07855629999999,0.28475618809461595,-1.7534925103187562,-5.515233659744263,0.03640803913585143,1.7292780999999997,-19.1546439,4.76427296,4.751895379999999,-0.6648901229999999,-1.5928448840000002,-0.278183375,0.20952718199999992,1.7470781800000001,-20.8616055,4.784551219999999,4.789399139999999
5684.5,1.6491558999999998,1.50699037,1.7561201100000001,0.06474349809999999,-0.742404753,0.015816642559999997,-0.9833803019999999,0.989209947,0.586563301,-1.22472367,0.0544202361,-3.5306482700000004,0.20614766400000004,0.34452776900000004,96.55813510000002,0.22333756163716317,-1.705902111530304,-5.55172553062439,0.03629953292749367,1.6814144,-18.9654546,4.752836059999999,4.854938590000001,-0.674399904,-1.3035982170000002,-0.245696247,0.18037223800000002,1.70955555,-20.0685355,4.79261622,4.87361911
5694.5,1.6481451100000002,1.5060513800000002,1.75488284,0.06291302769999998,-0.6895971209999999,0.027203517940000005,-0.9827975660000001,0.9879850939999999,0.589835102,-1.27776823,0.0556555355,-3.552035514999999,0.20785231900000004,0.356559358,101.75689530000001,0.24072420671582223,-1.9792835116386414,-5.581765747070312,0.036190939524173196,1.95459603,-17.6885301,4.785105830000001,4.49799551,-0.681940379,-1.355608406,-0.32398939099999996,0.15358136299999997,1.9668764599999995,-19.06849995,4.799771160000001,4.5224595800000005
5704.5,1.6487914499999998,1.50457611,1.75715798,0.0653030405,-0.6806798330000001,0.0198086574,-0.9838342729999999,0.9848821580000001,0.592199505,-1.26289141,0.037963807536,-3.8507034599999996,0.20751212800000002,0.41804642299999994,81.29927710000001,0.3329681813716888,-1.613550055027008,-5.579433965682983,0.0360822934844975,1.58901684,-20.112586599999997,4.77179729,5.0644966,-0.679717202,-1.402798664,-0.5437734489999999,0.09595296159999998,1.61639182,-21.2849352,4.7929134300000005,5.101392669999999
5714.5,1.6481118399999999,1.5058795900000002,1.7567217800000001,0.065047665,-0.7502273139999999,0.015730140647000002,-0.981095371,0.987696313,0.592200088,-1.29441702,0.0514385966,-3.53281286,0.20655149599999997,0.3588807556,93.54714700000002,0.23895572051405906,-1.6736279129981995,-5.56677770614624,0.03597397636499332,1.6493599799999998,-19.451913100000002,4.78373406,4.902522729999999,-0.674390897,-1.8844333400000004,-0.574245935,0.12756834500000003,1.67285945,-20.9318121,4.804314150000001,4.9234461000000005
5724.5,1.6481782300000003,1.51090126,1.7556796399999999,0.0632816539,-0.727906005,0.026318719,-0.9868922079999999,0.983875656,0.5956441189999999,-1.30408618,0.0587465045,-2.949972498,0.20626253400000003,0.30055869,81.4117211,0.18827160075306892,-1.8999348998069763,-5.566380262374878,0.0358661418049019,1.87579824,-18.5269328,4.79592303,4.669961669999999,-0.67276098,-2.15447601,-0.47425417799999997,0.1703168084,1.9011774,-19.317270200000003,4.80852705,4.6608725400000015
5734.5,1.6493427600000001,1.50832558,1.7566345899999998,0.06466470120000001,-0.7986163900000001,0.01677062262,-0.986697,0.986928482,0.596408732,-1.31742243,0.0526403894,-3.8376235100000002,0.207211504,0.358999276,106.68077869999999,0.20572047159075738,-1.6623137593269348,-5.588179969787598,0.03575876816214738,1.6380693699999995,-19.5315064,4.79773275,4.97736178,-0.677798261,-1.53221827,-0.510240149,0.1097789726,1.6634815799999998,-21.379537700000004,4.817401190000001,4.9963187300000005
5744.5,1.6491692400000002,1.5070538400000002,1.75741312,0.0637254087,-0.724128265,0.009388351100000001,-0.983559799,0.9844410470000001,0.5917929199999998,-1.29819615,0.06943490029999999,-3.2368444340000004,0.206606636,0.267638881,121.19061099999999,0.15689734034240246,-1.8567079067230225,-5.628571557998657,0.035651424969615035,1.8321579399999997,-20.3398635,4.804402489999999,4.745973639999999,-0.6884033350000001,-1.8672574499999999,-0.499972924,0.12211000890000001,1.8519600999999999,-21.125725100000004,4.824905509999999,4.743598189999999
5754.5,1.64915323,1.5082336299999999,1.7555960300000002,0.0634215194,-0.7376949099999999,0.0214395819,-0.983574497,0.9872488240000001,0.591234984,-1.2645156299999996,0.06088619670000002,-3.2149999560000007,0.205279758,0.31184044150000007,90.7534588,0.21306285858154297,-1.894685411453247,-5.605434560775757,0.03554410650869326,1.8705100799999996,-18.4060249,4.81702273,4.70282336,-0.679944144,-1.88956574,-0.46643492000000003,0.136218763,1.8855685400000002,-19.632695599999998,4.82279377,4.72675816
5764.5,1.6492059399999999,1.5056766000000004,1.7569437300000001,0.0641493088,-0.7281339359999999,0.006942037,-0.9805292400000001,0.9846600070000001,0.5923127319999999,-1.3168386600000002,0.04560513570000001,-3.5571463299999997,0.20537459699999996,0.36838321399999996,86.4025337,0.247442277520895,-1.7241593778133393,-5.603685998916626,0.035437191421949475,1.7001289199999998,-20.1777381,4.81831152,5.024047960000001,-0.6779062229999999,-1.8907352200000003,-0.5637289080000001,0.134584181,1.7185152,-20.5306359,4.82977496,5.050991590000001
5774.5,1.6487697300000002,1.50799071,1.7562995700000001,0.06488302399999998,-0.8390454390000001,0.012452166000000004,-0.984774649,0.9874295479999999,0.5980696670000001,-1.31056696,0.0497352234,-3.8497100400000006,0.206606432,0.384236695,102.5878737,0.32334852814674375,-1.7819580435752869,-5.58142991065979,0.03533088423333619,1.7582885599999998,-18.9335627,4.8185382400000005,4.797985880000001,-0.6697378099999999,-2.05011501,-0.60313037,0.14916205440000002,1.78087923,-20.575700500000004,4.8397779,4.815721459999999
5784.5,1.6481957,1.5034239999999999,1.7568059499999997,0.06385140880000001,-0.6299031840000001,0.01312607918,-0.9859171200000001,0.9899198400000001,0.589387788,-1.2702607700000002,0.05846767869999999,-3.5020755869999993,0.20744639300000003,0.31638149200000004,104.87963319999999,0.2396374262869358,-1.9078331112861633,-5.617655467987061,0.03522514665845244,1.8839058799999997,-20.281778600000003,4.814228020000001,4.762136610000001,-0.6790678870000001,-1.7692982699999997,-0.5890747150000001,0.12947673440000002,1.9047333700000002,-21.254171300000003,4.838169519999999,4.77972799
5794.5,1.64917253,1.50201816,1.75526954,0.0641524266,-0.7114601369999999,0.01454829101,-0.982481971,0.9861324139999998,0.587299693,-1.2665122500000001,0.05852444889999999,-3.84508717,0.209288682,0.34125462800000006,122.68469350000001,0.22972972989082335,-1.718925988674164,-5.634534072875977,0.0351194464259322,1.69494613,-19.5154247,4.82174003,4.9900061,-0.682604104,-1.6356074299999999,-0.5386840190000001,0.10658835640000001,1.72607347,-20.2040628,4.84491746,5.0048036
5804.5,1.6489486100000004,1.50700447,1.7575638100000002,0.0638152621,-0.7494621859999999,0.018699160860000005,-0.979417432,0.985988414,0.584367443,-1.2574600200000001,0.0561884176,-3.231358927,0.205447592,0.332397819,93.23826470000002,0.2293033514171839,-1.8336770296096803,-5.6267951965332035,0.03501388348522634,1.8099028899999996,-20.699506,4.824550759999999,4.7787261700000006,-0.6787842380000001,-1.66605719,-0.5475026599999999,0.10617040550000001,1.8462755000000002,-22.1019214,4.85399733,4.789857380000001
5814.5,1.64834946,1.5080404,1.75482662,0.06337107659999999,-0.764597835,0.017740110830000006,-0.981756997,0.981922835,0.586943888,-1.2599805700000002,0.058158388299999995,-2.9049852649999997,0.20591759399999998,0.3174224125000001,66.7398464,0.23618150167167187,-1.9906559109687805,-5.625561952590942,0.03490876429001509,1.9670187700000004,-18.1105134,4.837574710000001,4.602305299999999,-0.676910628,-1.8776605100000006,-0.568340702,0.13928838699999999,1.9807848200000002,-19.2646278,4.85271869,4.6331939
5824.5,1.6486128,1.5055699200000001,1.75551851,0.0648533903,-0.7155486959999999,0.0026424042830000003,-0.9802324849999999,0.9841033339999997,0.5890006870000001,-1.2833530400000002,0.048578155199999994,-3.261951268,0.206440572,0.346371615,87.4245708,0.2878165375441313,-1.6818350732326508,-5.587413597106933,0.03480418086113736,1.6587164039999998,-19.562829,4.8180112500000005,5.038676799999999,-0.664050545,-2.05789927,-0.556464647,0.14628747999999997,1.6911558,-20.2030303,4.857173789999999,5.08029217
5834.5,1.64923459,1.5072812199999999,1.75575464,0.0638633211,-0.7213959559999998,0.01173279932,-0.986449357,0.9829720020000001,0.5883576530000001,-1.28634874,0.036279145,-3.8622531600000003,0.205598795,0.434533579,77.0935214,0.3324644297361374,-1.7499636054039,-5.6151299476623535,0.03470021870184239,1.7266791300000002,-19.3492563,4.8378275,4.960085530000001,-0.6708166600000001,-2.0566413,-0.5726416400000001,0.1337238785,1.7568835200000001,-20.354387400000004,4.86257668,5.017726980000001
5844.5,1.64785802,1.5045555899999998,1.75504114,0.0645228519,-0.6828552840000001,0.01509516531,-0.980670538,0.98261904,0.5933451169999999,-1.2894971199999998,0.06463779849999998,-2.927145224,0.20700246300000003,0.292356395,88.80684725,0.1806532135233283,-1.8500218272209168,-5.62965989112854,0.03459658985893423,1.8267090600000002,-19.2806357,4.84883008,4.757860839999999,-0.6736485859999999,-1.89418531,-0.601988991,0.1306275221,1.84373343,-19.873875599999998,4.8692155900000005,4.760115440000001
5854.5,1.6495630700000004,1.5036698,1.75735645,0.06380215410000001,-0.6550073590000001,0.03789301167,-0.9805034509999999,0.9873631140000001,0.578671412,-1.24160107,0.047771297416999994,-3.8548751,0.20631371499999998,0.400540849,92.2112867,0.2789356976747513,-1.7110080182552339,-5.638934707641601,0.034493085137048754,1.687721017,-21.709745399999996,4.8670848499999995,5.037287650000001,-0.6749166160000001,-1.93007046,-0.602410886,0.127969453,1.7169351800000001,-22.5352988,4.879438470000001,5.069579729999999
5864.5,1.6488873300000002,1.50253549,1.75731821,0.0639150705,-0.559582696,0.004298426250000001,-0.9809682449999999,0.981289991,0.585369129,-1.27073741,0.047632416299999994,-3.8674327600000007,0.206276807,0.38502466900000004,100.8700796,0.3330845460295677,-1.706524407863617,-5.625251197814942,0.03438984065438052,1.6834981669999998,-21.753140499999997,4.876678150000001,5.092662290000001,-0.6693651039999999,-1.9942350499999997,-0.584047156,0.1323151299,1.70575737,-22.283981599999997,4.88678013,5.09457765
5874.5,1.64740945,1.5095927,1.7556245699999997,0.0631624097,-0.7201834189999998,0.017243129200000002,-0.9869970830000001,0.9831790650000001,0.5912995539999999,-1.27662334,0.0627918387,-3.220771107,0.205576739,0.30870650850000003,99.4853247,0.21514948084950447,-2.097012424468994,-5.590822076797485,0.03428718189370585,2.07445579,-19.7157346,4.86458661,4.55262633,-0.657676993,-2.00123159,-0.5212269239999999,0.154728544,2.09329288,-20.646786,4.88597142,4.564724920000001
5884.5,1.64953071,1.50837015,1.75515338,0.06465747959999998,-0.7649675219999998,0.020201547869999996,-0.9841488829999999,0.9855516740000001,0.5726816400000001,-1.20536513,0.05541166140000001,-3.5470965399999996,0.207878838,0.344565322,95.94710610000001,0.2218235231935978,-1.6204696655273438,-5.641217279434204,0.03418517592895851,1.5975200900000002,-18.91716,4.87741266,5.109299989999999,-0.671140074,-1.7593587899999998,-0.444249632,0.153618937,1.6259451500000002,-20.467223100000005,4.8922085299999996,5.115496579999999
5894.5,1.6486735499999998,1.5049972999999999,1.7566279000000002,0.06499351210000001,-0.7304473979999999,0.0112040048,-0.981270801,0.9859159569999999,0.592290016,-1.2680187000000003,0.043116222,-3.2646949539999994,0.20706345699999998,0.364224469,73.5473699,0.30453633293509486,-1.5249191686511039,-5.654480123519898,0.03408316749602162,1.5019543994,-20.8441323,4.88821034,5.37161416,-0.6735887359999999,-1.49028845,-0.394594084,0.1442713079,1.5228895630000001,-21.8636381,4.897127039999999,5.40256883
5904.5,1.6491396699999998,1.50190237,1.75803436,0.06439645299999999,-0.6400676439999999,0.018051105169999998,-0.980603492,0.986619116,0.583776816,-1.2483287600000001,0.04022003589999999,-3.8597250599999997,0.20583860999999998,0.42562043699999996,76.42785169999999,0.3566484868526459,-1.6532251000404359,-5.677209281921387,0.033981142709891644,1.6301507299999998,-22.9026196,4.894200679999999,5.25395357,-0.67882865,-1.45375349,-0.42229761000000005,0.12877734000000002,1.6485130830000003,-23.7012518,4.90668855,5.283812859999999
5914.5,1.6494394499999998,1.5086752799999998,1.75625399,0.0643543661,-0.7907369989999999,0.0192202234,-0.9893777260000001,0.9827196490000001,0.585625752,-1.25992525,0.054516636029999996,-3.5193122739999994,0.204854268,0.338916687,100.0795758,0.23736510574817657,-1.611611020565033,-5.684839677810669,0.03387918649364251,1.58857993,-20.457245399999998,4.875266239999999,5.227436920000001,-0.6795934819999999,-1.69855059,-0.29965687800000007,0.175126009,1.6184562800000002,-21.177861099999998,4.90926159,5.23502504
5924.5,1.64906796,1.50709143,1.7554431999999998,0.06329441350000001,-0.6359652499999999,0.011514688700000001,-0.9814264340000001,0.9870202579999999,0.5853640640000001,-1.25566416,0.0563761894,-3.8395219600000003,0.207078835,0.35631398899999994,112.1888619,0.2116582289338112,-1.7949164748191833,-5.62877345085144,0.033777659124489504,1.7725640999999999,-19.810086399999996,4.8885835900000005,4.93185882,-0.661553381,-1.275820986,-0.13320185990000005,0.22838760800000002,1.8000446799999998,-21.128510900000002,4.913343879999999,4.946717170000001
5934.5,1.64854657,1.4992657299999999,1.7581361400000002,0.064044507,-0.531583173,0.02469507273,-0.9770762000000002,0.981421453,0.582741184,-1.2524364799999999,0.05850989459999999,-3.522730724,0.20801234899999996,0.323237214,104.41357489999999,0.20219896622002126,-1.758805775642395,-5.671387577056885,0.0336768236853987,1.7361461400000002,-22.817018600000004,4.905515299999999,5.22201201,-0.6726561849999999,-1.64752939,-0.264820945,0.19921630000000004,1.7581757000000002,-24.020577399999997,4.92240587,5.23002364
5944.5,1.6495723899999999,1.50128114,1.75688193,0.0637016005,-0.584460878,0.006398939903999999,-0.978968544,0.98415339,0.595848597,-1.31912724,0.05094187569999999,-3.5289408100000004,0.20738171200000002,0.3714276344,82.1447169,0.24475842341780663,-1.647961676120758,-5.6474967956542965,0.03357625624618745,1.6256556,-21.9793969,4.912036240000001,5.29489922,-0.664142713,-1.6855341900000003,-0.450256934,0.150116535,1.65053135,-22.6106455,4.91818923,5.303653349999999
5954.5,1.6482946200000002,1.5027530299999998,1.7574707100000002,0.06337761360000001,-0.540604572,0.029737243700000006,-0.9838517569999998,0.9853211399999999,0.5942122590000001,-1.2863445,0.0599180438,-3.8445238700000006,0.20694876899999998,0.345463659,123.00255,0.20105483755469322,-1.9115153789520263,-5.647117996215821,0.033476153690293164,1.8893284299999997,-22.432477100000003,4.91658175,4.93224566,-0.6625684709999999,-2.0719097200000003,-0.529236661,0.17829108700000001,1.9067283,-23.4477711,4.92588377,4.95158217
5964.5,1.6479058100000004,1.5041733599999998,1.7564103500000001,0.0631232711,-0.544706073,-0.008347762869999999,-0.979397735,0.979598054,0.5936809920000001,-1.29204375,0.05466722659999999,-3.53293696,0.20725804699999997,0.33311580539999996,94.98483920000001,0.20130691193044187,-1.8201664090156555,-5.630625820159912,0.033376546802766235,1.7982561000000001,-21.661206600000003,4.91855143,5.09946,-0.656259807,-2.22141593,-0.502441141,0.197641986,1.81710372,-22.3867513,4.93473158,5.11413199
5974.5,1.64885585,1.50554135,1.75687761,0.0635511395,-0.6677616060000001,0.011155803399999997,-0.9809402269999999,0.984395546,0.5849373069999999,-1.25409868,0.05810539309999999,-3.25785817,0.207361978,0.31531043900000005,93.715509,0.19841451793909073,-1.662083375453949,-5.639534664154053,0.033277466468409296,1.6401991800000002,-21.8745961,4.928961660000001,5.2517700099999995,-0.6574306859999999,-2.4821916699999997,-0.42009352,0.23677970399999998,1.6600169399999998,-22.7696889,4.93369273,5.261340560000001
5984.5,1.64843126,1.5019683199999998,1.7570911199999997,0.06471362680000001,-0.56874285,0.012524106673999998,-0.98034725,0.988434247,0.594252183,-1.2783738799999997,0.0451033604,-3.8565176400000007,0.207425468,0.381470447,102.3366186,0.23991771340370177,-1.5217246294021607,-5.643554830551148,0.03317874938100459,1.4999143,-22.2294736,4.92196928,5.48198715,-0.657164589,-2.6761647899999996,-0.37738525,0.265910164,1.5302783699999998,-22.539242899999998,4.93754425,5.50647775
5994.5,1.6489946500000001,1.5101253399999999,1.75513453,0.0635059262,-0.6781124664999999,0.028339184060000005,-0.9833435869999999,0.9837954180000003,0.5940481799999999,-1.31526904,0.0620694385,-3.22684821,0.205901971,0.30216181,93.49543609999999,0.15629502478986979,-1.7500502109527587,-5.652971887588501,0.03308034368349867,1.7282609699999998,-20.117337999999997,4.932914630000001,5.18556188,-0.658482682,-2.0784575,-0.362615932,0.23406678199999997,1.7470795899999998,-21.083682599999996,4.9528779499999995,5.19381412
6004.5,1.64948229,1.50586969,1.7545129,0.06337342409999999,-0.678330043,-0.013675722522000004,-0.9749974549999999,0.9857993100000002,0.5920758859999999,-1.29136185,0.0606715687,-3.229044957,0.206360732,0.305332865,99.53757340000001,0.19151316322386264,-1.7329413712024688,-5.661164617538452,0.032982140158956286,1.7111849849999998,-19.8548274,4.934407670000001,5.080551679999999,-0.659440577,-1.8183889100000001,-0.334251129,0.22075742899999998,1.73660652,-20.0239762,4.9589086799999995,5.07534013
6014.5,1.6491018500000003,1.5060424300000002,1.7559179500000002,0.064404002,-0.6284916620000001,0.022714664069999998,-0.9839216409999999,0.9883406259999999,0.5833408510000001,-1.27674334,0.052775328999999996,-3.54800034,0.208332284,0.34408083899999997,96.547474,0.20999399125576018,-1.634590756893158,-5.692439889907837,0.03288416143943887,1.61264562,-21.351187200000002,4.94789065,5.3616679199999995,-0.6671522659999999,-1.9870352500000004,-0.282367002,0.208243261,1.6337715200000003,-21.1983463,4.9608640699999995,5.366270419999999
6024.5,1.6493953099999998,1.50787236,1.7547181100000002,0.06364346850000001,-0.7290269229999999,0.022145358139999998,-0.98367785,0.9875391849999999,0.59278016,-1.27205951,0.06142392189999999,-3.26274521,0.206907511,0.31711310200000004,99.7488007,0.2161975471302867,-1.744682204723358,-5.673079299926758,0.03278628970313804,1.7230357299999999,-19.268794500000002,4.9509148099999996,5.14586506,-0.660033708,-1.49154135,-0.223206151,0.219673746,1.73096864,-20.346629999999998,4.96564037,5.17450808
6034.5,1.64914433,1.50864312,1.7567322600000002,0.06327938799999999,-0.714258143,0.021604471081000002,-0.977263256,0.982554916,0.598046796,-1.3084604899999999,0.05958771310000001,-3.83942539,0.20436277099999994,0.31675942300000004,133.7427616,0.19171177744865417,-1.7414665460586547,-5.6763739585876465,0.03268875038403489,1.71990024,-21.652530899999995,4.95870495,5.20939089,-0.659551676,-1.78542156,-0.261043669,0.22415733499999996,1.74474108,-22.479282500000004,4.9696127699999995,5.2196801399999995
6044.5,1.64908419,1.50496347,1.7568951099999999,0.06483881990000001,-0.760376568,0.007001469190000001,-0.983635237,0.9855700470000001,0.5948372199999999,-1.31289942,0.0504677339,-3.84954059,0.206695138,0.388683004,92.18305410000002,0.2608636736869812,-1.5361285984516144,-5.702410745620727,0.032591484315655075,1.51442553,-22.155622299999997,4.956301359999999,5.340445820000001,-0.665713299,-1.8724473900000003,-0.40151925200000005,0.18377830099999998,1.533021057,-24.1282471,4.97862502,5.374896640000001
6054.5,1.6494666600000003,1.50617434,1.7571853000000002,0.06280359179999999,-0.6732501359999999,0.006989387625,-0.985192941,0.983202268,0.5931921699999999,-1.2752043299999998,0.044169017959999994,-3.56153654,0.20638800799999996,0.40721966699999995,69.6711486,0.2918226055800915,-1.7190922379493714,-5.702682733535767,0.03249443228101884,1.6974983900000002,-21.9351508,4.96181811,5.3364905700000005,-0.664341571,-2.16725793,-0.420999514,0.18117942200000003,1.7164238400000003,-23.3775378,4.97995999,5.36679547
6064.5,1.6484644199999998,1.50858655,1.755963,0.0636909082,-0.7003021749999999,0.00313353126,-0.9856113649999999,0.987487378,0.5894196190000001,-1.2862530900000002,0.04592211275000001,-3.8584058600000004,0.20675047899999996,0.4004488439999999,94.4851592,0.37904818207025526,-1.7059193849563599,-5.696813678741455,0.03239764860027499,1.68449218,-21.0890547,4.96621209,5.28289229,-0.6611832990000001,-1.79689737,-0.386186111,0.17763574099999996,1.6890088000000003,-22.2813305,4.98489031,5.32609778
6074.5,1.64865886,1.50632188,1.75611985,0.0642939753,-0.6981237170000001,0.01507633108,-0.9882229929999999,0.986927823,0.5872566889999999,-1.27067293,0.0561371372,-3.8430524500000005,0.208973729,0.354398837,115.0860189,0.32350028306245804,-1.667965030670166,-5.757617855072022,0.032301047114202466,1.64607594,-21.353929900000004,4.96894058,5.26200193,-0.6774536170000001,-2.08141954,-0.467044311,0.1587605205,1.6652046339999997,-22.970980899999997,4.995926730000001,5.29256058
6084.5,1.6490520999999998,1.50461795,1.75712348,0.0642649874,-0.6677891,0.027187424199999997,-0.9836262530000001,0.984551025,0.586526965,-1.26200154,0.050530100499999994,-3.85438575,0.20914083199999997,0.367827539,104.6722675,0.2744737043976784,-1.5353396892547608,-5.726572322845459,0.03220442406253209,1.5138543099999997,-23.443511899999997,4.975929160000001,5.56138571,-0.66695412,-1.6538822399999997,-0.42627520699999993,0.15583011900000004,1.5488366040000003,-23.5930466,4.989953550000001,5.54952932
6094.5,1.6486563800000003,1.5058811200000002,1.75649482,0.06488484950000001,-0.6396726939999999,0.02098532511,-0.9826720019999999,0.9886030250000001,0.5881404950000001,-1.27494812,0.0512204528,-3.8668248500000004,0.20906419499999998,0.374195933,104.7339029,0.2869152471423149,-1.5738280296325684,-5.763972282409668,0.03210811555580348,1.5521042599999997,-22.4412582,4.97490264,5.4600338299999995,-0.6763789800000001,-1.7679778659999996,-0.43333904,0.15667117109999998,1.5823562800000002,-22.729254899999997,5.00331018,5.471413290000001
6104.5,1.64927064,1.5063336999999999,1.75682291,0.0635527142,-0.6616777939999999,0.020512114200000004,-0.9864157859999999,0.990600948,0.600791342,-1.30062933,0.055975657699999994,-3.2546481140000005,0.20708053499999995,0.325029953,89.051922,0.28252281472086904,-1.7093765020370484,-5.760396194458008,0.03201191582852889,1.6877978500000002,-22.778572500000003,4.9910798,5.415476870000001,-0.6738785979999999,-1.55623932,-0.47107513,0.12275522540000001,1.7072512300000002,-23.183326800000003,5.00585774,5.43122832
6114.5,1.64999268,1.50912273,1.75574084,0.0641276004,-0.7488070960000001,0.021802757309999997,-0.976393564,0.980699843,0.58989888,-1.2695360499999997,0.053140704700000006,-3.2616396500000002,0.20585367899999998,0.351134504,74.9879744,0.2587007999420166,-1.4457393884658813,-5.763708686828613,0.0319159464671418,1.42424113,-21.488611600000002,4.99276773,5.55062603,-0.67338221,-1.66678247,-0.44695556200000003,0.142731152,1.44539266,-21.9263805,5.011275929999999,5.56146428
6124.5,1.6492595600000002,1.50820346,1.75565441,0.06436665750000001,-0.7405892319999999,0.00535802359,-0.981968824,0.984788318,0.59003312,-1.2871713,0.0611681276,-3.541069756,0.206660611,0.32072223699999997,111.68594030000001,0.2088929146528244,-1.547016793489456,-5.7734723567962645,0.03182033722603798,1.5255395260000002,-21.5210961,4.981872319999999,5.3795131099999995,-0.674755639,-1.71735708,-0.375946965,0.168821795,1.562198696,-22.419068900000003,5.01265304,5.38696427
6134.5,1.64918966,1.50498043,1.75761714,0.06342325349999998,-0.565473065,0.031243361600000002,-0.983625565,0.987795921,0.5917563610000001,-1.2847296000000001,0.059596521440000015,-3.8279662599999993,0.207079726,0.322437223,137.3372288,0.23180295377969742,-1.6984564065933228,-5.795661544799804,0.03172490028228718,1.67688554,-23.2941101,5.01381051,5.449630220000001,-0.6797304670000001,-1.4387467299999996,-0.46097769599999994,0.12074247699999999,1.7081018099999998,-24.4242606,5.02172637,5.44691476
6144.0,1.6490674555555556,1.5087710666666667,1.7570941666666666,0.06260219222222223,-0.6510566344444445,0.005858490777777777,-0.9851510933333335,0.9836840933333334,0.5962046877777777,-1.3020043222222224,0.05388377251111111,-3.483215422222222,0.20402024,0.3347539588888889,112.7832112222222,0.3922286099857754,-1.6989720662434895,-5.8079502317640515,0.031634321336255815,1.6773941444444445,-23.029125444444446,4.999446033333332,5.374635222222222,-0.6818985944444445,-1.8303327333333332,-0.5543347688888889,0.1183697151111111,1.7285537111111111,-24.008557555555555,5.020427177777778,5.364558244444445
9854.5,1.6553711400000002,1.5132142000000002,1.77588817,0.0630232091,-0.501506465,-0.1089724799,-0.9902343100000002,0.977874059,0.59024113,-1.23240493,0.034819011260000005,-3.9242214700000004,0.205946981,0.43894997699999994,78.3474209,0.3688762068748474,1.0589225977659225,-5.819349050521851,0.010961380802314675,-1.0620960500000003,-48.56704739999999,6.2837837500000004,12.1792164,-0.289431442,-3.2524447199999997,1.38043479,0.7999879940000001,-1.0521084780000003,-49.878387399999994,6.30541459,12.202435900000001
9864.5,1.6554368800000003,1.50998615,1.7772636600000002,0.0633292366,-0.501027033,-0.10703929409999999,-0.9826377480000001,0.978893122,0.5790276839999999,-1.1977140499999999,0.05174813565999999,-3.321278315,0.20334702300000002,0.34560458799999993,82.7698829,0.26429584845900533,1.045989415049553,-5.820341873168945,0.010931980475480394,-1.0491482680000002,-47.4095271,6.27341293,11.7293448,-0.288884704,-3.37326149,1.3277280599999999,0.7881362230000001,-1.03081183,-48.5101193,6.30623814,11.738196650000003
9874.5,1.65587674,1.50592832,1.7773079099999998,0.06382269460000001,-0.422367238,-0.09630257200000002,-0.983734088,0.9816210109999999,0.581166555,-1.2100024999999999,0.0461843051,-3.9575398600000007,0.20665909600000001,0.387532237,97.78464979999998,0.30331559255719187,1.5506330132484436,-6.260262775421142,0.010902035297198914,-1.5548360200000002,-50.9288965,6.29061482,12.5993391,-0.385457063,-2.9385752300000005,1.2064852,0.727114728,-1.532103225,-51.30263239999999,6.30829359,12.60250885
9884.5,1.65507847,1.5054760100000002,1.77509278,0.0627518141,-0.3778751698899999,-0.09892056739999999,-0.9817925469999998,0.9806916670000001,0.5876804309999999,-1.22877264,0.0533313527,-3.5900061340000002,0.20492333599999996,0.330466514,104.96805429999999,0.25514242649078367,1.024966585636139,-6.363896799087525,0.010870738303922198,-1.0293978774700001,-51.3544816,6.29007273,12.17604,-0.40750959899999994,-2.92919064,1.1471133599999999,0.6640201299999999,-1.027995303,-52.395854199999995,6.31161666,12.20529975
9894.5,1.65643379,1.51202989,1.77296596,0.062491040799999995,-0.5604058380000001,-0.0912073033,-0.986029343,0.97065535,0.579784685,-1.21070124,0.0566946104,-3.297957845,0.205242084,0.3147555600000001,93.1302882,0.2458889488130808,1.2837474048137665,-6.504945421218872,0.010838581944954203,-1.288493569,-46.2433847,6.28925407,12.02465045,-0.437765058,-2.74953138,1.13179951,0.664702126,-1.257261271,-47.473177500000006,6.30626605,12.0148166
9904.5,1.6541853199999998,1.50771881,1.7709278300000002,0.0633052002,-0.444799743,-0.10047885654,-0.98558252,0.9789690429999999,0.586986285,-1.22716413,0.057075119900000006,-3.642073576,0.206061657,0.3433480655,106.7343623,0.2551794175058603,1.0598156437277795,-6.47914571762085,0.010806018332898173,-1.064475482,-47.7451244,6.294628959999999,12.0397564,-0.431108958,-2.84207924,1.08382961,0.653500863,-1.0318883762,-47.9256092,6.311343290000001,12.006762550000001
9914.5,1.6542463699999999,1.51353049,1.7736303500000001,0.0641202917,-0.5728205620000001,-0.08573383809999999,-0.9803156399999999,0.9761979609999999,0.590209344,-1.24075171,0.052887429099999994,-3.006738545,0.205681505,0.31443726660000004,72.2006435,0.2891688793897629,1.3448956429958343,-6.522869873046875,0.010773314952159213,-1.3496352999999999,-49.0865289,6.29796446,12.389055899999999,-0.439806781,-2.6675590100000006,1.015500965,0.621773538,-1.321117749,-49.3456372,6.320120079999999,12.360653
9924.5,1.6565802600000001,1.5072705100000003,1.7761188100000003,0.0634374755,-0.4318600979999999,-0.09024292114999999,-0.9847984679999999,0.9848851199999998,0.58220501,-1.2004529999999998,0.0467847777,-3.661280164,0.20599424900000002,0.38360718799999993,86.22752459999998,0.362333906441927,1.2528797328472137,-6.426657390594483,0.010740622974430196,-1.2573665149999997,-48.8735757,6.297034600000001,12.31392225,-0.417618795,-3.13734344,1.0156450090000002,0.651238724,-1.227938182,-48.8050157,6.315821730000001,12.2897286
9934.5,1.6552814900000001,1.50733209,1.7745316900000003,0.0627488248,-0.2625266580000001,-0.11885988699999998,-0.9873465540000002,0.976560892,0.581575055,-1.20181573,0.05768364709999999,-2.6563715959999996,0.20676669700000003,0.281433025,63.6518291,0.3363926000893116,0.9688764661550522,-6.223370933532715,0.010708415301062865,-0.97285992,-48.2528284,6.298464839999999,11.923431249999998,-0.37186823999999996,-3.1290193200000003,1.0747953300000002,0.678290463,-0.9756971415000001,-48.3572552,6.318153730000001,11.9368994
9944.5,1.6558898599999998,1.5068318299999999,1.7749693400000002,0.0635443062,-0.40503111799999997,-0.11402321340000002,-0.990976495,0.980651599,0.58407602,-1.2016568300000001,0.04012101579999999,-3.9474533700000003,0.20400617699999996,0.41346950099999996,85.28305559999998,0.38263594210147855,1.2781086593866349,-5.402959203720092,0.010677423635930638,-1.2801412420000002,-51.1068935,6.28271528,12.454825999999999,-0.19026172840000002,-3.52725856,1.38524874,0.8181127869999999,-1.2489253310000001,-52.018956,6.3208996200000005,12.472006449999999
9954.5,1.65460566,1.50909805,1.7745026999999998,0.06340256050000001,-0.413192919,-0.0937785955,-0.981890016,0.9793696300000001,0.5755346259999999,-1.18650958,0.05772461790000001,-3.008839081,0.20487779699999997,0.302799022,80.20617145,0.33556233868002894,1.0247941434383392,-5.274297571182251,0.010649210014989235,-1.026511142,-48.5264393,6.30144429,12.218541700000001,-0.16121796500000002,-3.3994260599999997,1.4456773499999998,0.8350899420000001,-0.9802274699999998,-48.5152779,6.32567868,12.165874550000002
9964.5,1.6548957000000002,1.51408238,1.7753176,0.062399373,-0.4778412432,-0.1091729343,-0.9850639400000001,0.9806888690000001,0.5887564720000001,-1.20508676,0.04718738366999999,-3.62948941,0.20308642499999996,0.368826673,97.068667,0.38555908203125,1.0634626984596252,-5.763382863998413,0.010621891984051026,-1.0663118335,-47.906776099999995,6.30612301,11.975500550000001,-0.268183592,-3.5046703299999997,1.31500256,0.792424447,-1.0684143499999998,-48.411366300000005,6.33327682,12.014378500000001
9974.5,1.6544403300000003,1.5045268,1.7721801399999997,0.06344065029999998,-0.361072556,-0.09335602010000002,-0.9854508900000001,0.97904029,0.577047053,-1.18728563,0.049889354,-3.56822894,0.20704100900000003,0.342743624,99.33658919999998,0.232048924267292,1.327794337272644,-5.7073204040527346,0.010593791589288077,-1.3304979006000002,-51.7817497,6.29592554,12.68139935,-0.25512457299999997,-3.30379595,1.33032749,0.796245419,-1.306215425,-53.2336983,6.32135342,12.702855549999999
9984.5,1.6556353600000002,1.5109395,1.7747641299999999,0.06281840429999999,-0.424060998,-0.10562777939999998,-0.986681319,0.9851495639999998,0.5790574119999998,-1.2097141,0.05318207907,-3.267009006,0.20433603699999997,0.32562238600000004,85.42158910000002,0.37435011491179465,1.443729192018509,-5.171303129196167,0.0105658586215905,-1.44517313,-50.3362366,6.31358575,12.526227600000002,-0.1365899954,-3.5863043399999994,1.4950602700000002,0.8382886060000001,-1.4048116730000002,-51.274782300000005,6.331856899999999,12.4868679
9994.5,1.65442753,1.5118509800000002,1.7722481400000003,0.06236582989999999,-0.390645735,-0.09590533905000002,-0.9835427680000001,0.9810357570000001,0.5796128810000001,-1.18447094,0.0575595185,-3.57297983,0.20519312000000003,0.307077685,114.53728819999999,0.2668164141476154,0.9487499922513962,-5.068568229675293,0.010539570001950563,-0.9499451569999999,-50.1006774,6.30130831,12.165691849999998,-0.11338502056,-4.13581804,1.6070079599999996,0.9394543390000001,-0.9292171445999999,-50.839782699999994,6.3290535199999995,12.165048299999999
10004.5,1.6546591300000002,1.51119975,1.7732865100000001,0.0625183754,-0.41337866949999996,-0.11414457659999999,-0.9854238329999999,0.9777490609999999,0.581664159,-1.20651984,0.0511551118,-3.2564714099999996,0.20515355400000002,0.343768163,79.52719379999999,0.26549881845712664,0.9741006091237068,-4.908955049514771,0.010514217251716924,-0.974918205,-49.8980954,6.31621863,12.241678799999999,-0.07775485435,-3.42604385,1.6166083199999999,0.8713045779999999,-0.9483733529999998,-51.441335200000005,6.32828986,12.2357632
10014.5,1.6549802099999997,1.5163994100000002,1.77191355,0.06274562019999999,-0.516109183,-0.08769049749999999,-0.986859226,0.978518263,0.5840131809999999,-1.21684196,0.045295855600000004,-3.8919004300000006,0.20498839099999996,0.38093268199999997,107.91851919999999,0.3622264593839645,1.1759405575692654,-5.097191286087036,0.010489296126190178,-1.17718400153,-48.7350568,6.3077005,12.345578499999998,-0.11850287009999998,-4.05023278,1.46575627,0.855234272,-1.1573888799999998,-50.3848524,6.34003597,12.3577231
10024.5,1.6557799199999998,1.50946955,1.77596802,0.0630001162,-0.392721627,-0.09245363770000001,-0.987111824,0.9846796259999999,0.577589634,-1.1924036900000001,0.0654841066,-3.597718595,0.205522061,0.29671964400000006,127.4400646,0.17495856285095215,1.1242324888706208,-4.849841070175171,0.010464434563676066,-1.1248989850000002,-49.428585299999995,6.315312619999999,12.14471585,-0.06367187910000002,-3.6894084500000006,1.4916553799999999,0.846126186,-1.1244546289999997,-50.8234679,6.3357907099999995,12.1775535
10034.5,1.6566183099999996,1.5154258200000001,1.7710781100000001,0.0629240495,-0.5881340420000001,-0.0899252475,-0.989163571,0.980302453,0.588081988,-1.2502043600000001,0.055748945169999994,-3.6344541400000003,0.205841743,0.338255987,113.74555660000001,0.3237511605024338,1.6579929292201996,-4.549477243423462,0.010440270179240369,-1.6579650400000001,-47.045957,6.329705049999999,12.6716676,0.0027064787499999953,-4.0037518500000004,1.6396535499999998,0.909806399,-1.65000016,-47.8860683,6.3301744499999995,12.6854306
10044.5,1.6553994499999998,1.50821842,1.77254641,0.06344061320000001,-0.4174048133,-0.1009822464,-0.9869188080000001,0.9796579769999999,0.5849989329999999,-1.20826918,0.05424049569999999,-2.683430489,0.204768113,0.30417152799999997,62.25530975,0.23566570952534677,1.3716174811124802,-3.96575186252594,0.010417599527981141,-1.3702519690000001,-48.73701369999999,6.303436239999999,12.37999445,0.131082965,-3.94393119,1.7970774099999995,0.9768847509999998,-1.339973532,-49.079460499999996,6.33939337,12.377565449999999
10054.5,1.6556296700000002,1.51007822,1.7742066900000002,0.0628594826,-0.45455729000000006,-0.10285841649999998,-0.9862435099999999,0.979315387,0.581311087,-1.22957737,0.0473972141,-3.9168521800000007,0.204842452,0.39024846699999993,99.3336223,0.3150658056139946,1.2550581991672516,-4.0453444719314575,0.01039700820841229,-1.25387204,-50.42644839999999,6.32090691,12.544883899999999,0.1140428113,-3.7794342,1.80812981,0.9540485089999999,-1.276643063,-51.86272429999999,6.33760353,12.5991365
10064.5,1.6560196699999998,1.51315571,1.7746469399999998,0.0622582502,-0.43873726,-0.1012045489,-0.979514715,0.984406412,0.5862410170000001,-1.2078795999999998,0.04366056755,-3.9055324999999996,0.20543356699999998,0.39740502499999997,100.42719069999998,0.287656606733799,1.0913605481386184,-4.441465282440186,0.010376548161294403,-1.091072783,-49.237028699999996,6.315600020000001,12.445370800000001,0.0277059771,-3.72994294,1.67593288,0.8888689070000002,-1.061862803,-50.8249475,6.34137774,12.451391150000001
10074.5,1.65457906,1.51092249,1.77406729,0.0623721305,-0.498259982,-0.09659602520000002,-0.9898255169999999,0.978954155,0.5873321229999999,-1.24170121,0.059477392100000005,-2.367318189,0.204224265,0.27758642099999997,50.80719679999999,0.25471196286380293,0.9190016835927963,-5.137347269058227,0.010354662985315694,-0.9202870026000001,-47.90555630000001,6.327520580000001,11.95199495,-0.12411769400000001,-3.8345806899999992,1.39617092,0.814675611,-0.916211258,-48.2915225,6.341089460000001,11.9554004
10084.5,1.65601085,1.51077151,1.7788842900000001,0.06377139899999999,-0.45987136,-0.10081576540000001,-0.986114965,0.9846772589999999,0.5850751150000001,-1.2274112,0.0384482664,-3.6570279300000004,0.205412103,0.413457382,76.8451883,0.4268374159932137,1.341193649172783,-5.79802565574646,0.010330135610857627,-1.343962771,-49.0911171,6.33298087,12.2004844,-0.26803050900000003,-3.9313133000000002,1.1766872300000002,0.7565282929999999,-1.3213308770000003,-50.5436715,6.34964205,12.2291877
10094.5,1.6562898999999998,1.50776481,1.7773730200000002,0.0625417538,-0.34945327060000003,-0.10077916540000001,-0.984455692,0.9745943770000001,0.5853390639999999,-1.233542,0.05371476140000001,-3.270932697,0.20536635900000003,0.31028693350000003,96.0431502,0.39472667425870894,1.4886278748512267,-5.924560499191284,0.010302909026886272,-1.491668104,-51.7129915,6.316102020000001,12.77686795,-0.294975269,-3.5374307199999997,1.1440672699999999,0.6996626579999999,-1.45145372,-52.277316899999995,6.349682330000001,12.7796025
10104.5,1.6558547799999999,1.5074335900000002,1.7734460700000003,0.0635440682,-0.48635466229999996,-0.11458615400000001,-0.9852471070000002,0.9737089940000001,0.5858506099999999,-1.18800346,0.06022406970000001,-3.2913188239999998,0.20481056099999995,0.286735125,108.64085619999999,0.4483309671282768,1.4109826624393462,-5.5544031143188475,0.010274712699351391,-1.4131756440000003,-50.535171500000004,6.30911046,12.522559849999999,-0.21334270899999996,-3.55440225,1.3393208499999998,0.760227688,-1.4254570550000003,-51.8153654,6.355802670000001,12.5958658
10114.5,1.6545480099999998,1.5081591199999997,1.7736055499999999,0.0632071015,-0.382849203,-0.09966443709999999,-0.985927601,0.9824087999999997,0.5833388800000001,-1.2246957699999999,0.0599346371,-3.290961764,0.205262224,0.30520953600000006,106.54070619999997,0.294632987678051,1.4284647703170776,-5.033757019042969,0.010247590431981438,-1.429479338,-51.6974776,6.32805608,12.777983299999999,-0.0989665255,-3.45066346,1.5178925099999998,0.8481131019999999,-1.40992075,-52.699524399999994,6.34550537,12.781813
10124.5,1.6549213000000003,1.5104403,1.7708749900000005,0.0626224263,-0.37855503599999996,-0.12092266739999999,-0.986215123,0.9757002119999999,0.5863332929999999,-1.221767494,0.0503793456,-3.9111770199999993,0.206409706,0.352841624,127.77031369999997,0.441833333671093,1.1153806507587434,-4.916340970993042,0.01022232843373635,-1.1161240829999999,-49.8683752,6.3448767,12.421144200000002,-0.0727408423,-4.134699639999999,1.62446105,0.893033101,-1.104709126,-50.7623011,6.36273417,12.418064
10134.5,1.6551465099999998,1.5061384299999998,1.7742336199999997,0.06332411279999998,-0.39546645499999994,-0.1079379265,-0.9866959589999998,0.9748317779999999,0.585447527,-1.2183676499999998,0.057508988000000004,-3.034398099,0.20555593700000005,0.30384471080000003,84.10340270000002,0.26979874931275843,1.3800020858645439,-4.94059419631958,0.010197662963726949,-1.3807925129999998,-50.1998532,6.33232385,12.54563495,-0.0774773423,-3.64539784,1.6892472,0.926981432,-1.372722657,-50.9130679,6.3596239599999995,12.54992015
10144.5,1.65442422,1.5069043400000002,1.77465994,0.0629208901,-0.374059794,-0.1029536094,-0.983131864,0.978751997,0.5816516870000001,-1.22286091,0.03809518336,-3.5975991800000005,0.20366969,0.41024207000000007,80.7740314,0.32616294994950296,1.1432782426476478,-4.22129373550415,0.01017381115103061,-1.142465926,-52.2653988,6.34239298,12.4048187,0.07986253810999999,-4.15393906,1.8737646600000002,0.9455269310000001,-1.1337452626000002,-53.9088213,6.368715,12.450115499999999
10154.5,1.6549486999999998,1.5120592999999998,1.7754670799999999,0.0624778927,-0.402135341,-0.1025557316,-0.988577776,0.9763336370000001,0.581525757,-1.19826496,0.04551972629499999,-3.9195678899999997,0.20591681099999998,0.39691601099999996,99.75238339999999,0.285572250187397,1.1086410641670228,-3.9917265653610228,0.010152254445539837,-1.1073176137,-49.43603399999999,6.336663540000001,12.369327,0.13031831289999998,-3.9161959599999996,1.9031934700000002,0.943521172,-1.0584336980000002,-50.830391600000006,6.36251635,12.324700949999999
10164.5,1.6563843200000001,1.5176345800000002,1.7741500400000003,0.061915673500000004,-0.537313646,-0.09487644999999999,-0.9845226549999999,0.977979264,0.581847646,-1.2388792800000001,0.048155386300000005,-3.89331689,0.203554666,0.376143829,104.27213830000001,0.2583041489124298,1.1303962647914887,-4.76062798500061,0.010131480101661084,-1.1307682920000002,-49.050904100000004,6.331916830000001,12.325784350000001,-0.0367396267,-3.9359915300000003,1.73001518,0.924329075,-1.107544224,-51.055416300000005,6.35997122,12.326531500000002
10174.5,1.6553768199999996,1.5085800199999997,1.7756938500000001,0.0638047861,-0.3886896321,-0.11214380049999999,-0.9840312610000002,0.9837818779999997,0.58191306,-1.1773357699999998,0.0501259116,-3.636196024,0.205642975,0.360896176,96.4102821,0.2557017277926207,1.5407173484563828,-5.204418039321899,0.010108968656956843,-1.5420602107999999,-51.9399721,6.3476643699999995,12.808041699999999,-0.13284193429999996,-3.69575033,1.5337314899999996,0.85294901,-1.5070976302,-52.67197269999999,6.37034876,12.7791886
10184.5,1.6555634099999998,1.50847941,1.77423225,0.0632619429,-0.39125875686999995,-0.1200297699,-0.9812092370000001,0.986272159,0.581960077,-1.18876398,0.06225981960000001,-3.2903261000000006,0.20608071800000002,0.2959161124,111.25484399999998,0.24409456700086593,1.1846495255827905,-5.7982627868652346,0.010084202086152346,-1.187286277,-50.59930859999999,6.35068427,12.36489425,-0.261437626,-3.9297736699999994,1.27032239,0.744095029,-1.1687530008,-50.724259999999994,6.371704739999999,12.35569535
10194.5,1.65561584,1.5142007399999997,1.77190006,0.0641245796,-0.5470064431,-0.09182604800000001,-0.984761192,0.9773165019999999,0.577714759,-1.19054165,0.05347119429999999,-3.62411087,0.206799318,0.34262226,103.87040089999998,0.25838463604450224,1.488185352087021,-6.177364921569824,0.010057085868437173,-1.491636907,-50.749029400000005,6.35688021,12.709163499999999,-0.343131368,-3.9504087700000006,1.044843991,0.643756049,-1.4793320900000002,-52.09942920000001,6.38012832,12.7141407
10204.5,1.65633813,1.5111929199999998,1.7751708800000003,0.0631393723,-0.42986844799999996,-0.1117578177,-0.9834331689999999,0.981492381,0.5830596419999999,-1.2107768700000001,0.04480260509999999,-3.26190436,0.206320483,0.36366972750000004,74.681476,0.4249472588300705,1.5183597475290298,-6.520908069610596,0.010027836154827934,-1.5225420950000002,-50.560472399999995,6.3446603999999995,12.788148000000001,-0.416946469,-3.3078466500000006,0.7572878890000001,0.562787935,-1.4818683030000002,-51.946345199999996,6.37285165,12.777537700000002
10214.5,1.65579945,1.5127718599999997,1.7747765700000002,0.0626049276,-0.5574573559999999,-0.12144867919999999,-0.9808236090000001,0.9803881110000001,0.5766553160000001,-1.158673055,0.049283867499999995,-3.6092479500000003,0.205198424,0.36374744740000003,92.43940219999999,0.4137066401541233,1.312098653614521,-6.327242422103882,0.009997375362250278,-1.3158384373999996,-50.87875220000001,6.34619562,12.521285299999999,-0.37395675399999995,-3.42414721,0.8322839999999999,0.5833201069999999,-1.320455475,-51.56946600000001,6.3790400400000005,12.547231599999998
10224.5,1.6552057100000002,1.5109662099999999,1.7733275799999997,0.06280564920000001,-0.38423067550000006,-0.11276640119999999,-0.985168178,0.9829573830000001,0.585533465,-1.2188650699999999,0.05444373610000001,-3.6187818500000004,0.20543560199999997,0.345118887,113.86903810000001,0.28857485949993134,1.176213440299034,-6.47693510055542,0.009966882572552124,-1.180256413,-51.413982499999996,6.36196189,12.5360198,-0.405526491,-3.33203991,0.790850148,0.586601842,-1.1590260339999998,-51.980448,6.3740030700000005,12.520716449999998
10234.5,1.6553910700000003,1.51393153,1.77186815,0.0628541388,-0.4709187482,-0.08826588219999999,-0.9825456919999999,0.9848380369999999,0.5823436049999999,-1.23221195,0.06079350840000001,-3.5934059150000004,0.20556839499999996,0.30419161399999994,122.9709892,0.19881977140903473,1.4104593217372894,-6.337893104553222,0.009936247244842326,-1.414180928,-49.8304337,6.365473530000001,12.7778183,-0.374437558,-3.42043523,0.802859447,0.561198778,-1.3748330149999999,-50.6067871,6.387277709999999,12.732792499999999
10244.5,1.6554250099999996,1.5106292000000001,1.77255736,0.06225672469999999,-0.33039824300000004,-0.1047372084,-0.9841658470000001,0.987743399,0.592439371,-1.2385722199999998,0.0553413897,-3.29582671,0.20534042700000002,0.32392857799999997,94.7195982,0.280883003026247,1.2401651240885259,-6.351170206069947,0.009905757845707516,-1.2438951236,-49.8075689,6.35446535,12.62856665,-0.376406624,-3.0951225100000004,0.764183507,0.549718662,-1.2210601391,-50.6847123,6.382454,12.619660200000002
10254.5,1.6550796900000002,1.50716663,1.7711893499999998,0.06381679269999999,-0.4182364604,-0.12938174389999996,-0.9825220250000001,0.9801349119999999,0.577830365,-1.18161069,0.053561876800000005,-3.626842874,0.204258907,0.34839376540000005,101.43432019999999,0.36676317304372785,1.527335634827614,-6.3135387897491455,0.009875597807609854,-1.530964264,-53.2252293,6.36257454,12.918220199999999,-0.36733993,-3.64047578,0.797173647,0.5830452019999999,-1.5433843589999998,-54.381055100000005,6.38343624,12.965175949999999
10264.5,1.6560422199999998,1.5076615400000002,1.77823136,0.06316598999999998,-0.3171729193,-0.08328224059999999,-0.9822757110000001,0.976651105,0.5893425350000001,-1.2229214499999999,0.05448904980000001,-3.5897682839999994,0.20558257900000002,0.336368608,100.93983310000002,0.33986514508724214,1.5911937296390533,-6.18805570602417,0.009845742361969516,-1.594535527,-52.939856799999994,6.349645229999999,12.9827876,-0.339290758,-3.3276708900000003,0.8224681439999999,0.6102234440000001,-1.556160633,-53.3081202,6.38207163,12.9530903
10274.5,1.6540238500000002,1.51723219,1.77474354,0.0631662519,-0.53824347625,-0.11616306660000002,-0.9905402420000001,0.979245806,0.581417716,-1.2163290100000002,0.04598798763999999,-3.6114658829999997,0.205291497,0.377294456,86.8074699,0.32108317464590075,1.3867908835411071,-5.817005443572998,0.009816621328792676,-1.3893261730000002,-52.83234,6.35588035,12.936286899999999,-0.258171959,-3.3163517999999996,1.0940887999999998,0.6499160359999999,-1.3984153400000001,-54.3812002,6.38530964,12.985526000000002
10284.5,1.6562087899999998,1.50706903,1.7753468500000005,0.06269270860000001,-0.37668526865,-0.11910145400000001,-0.9882950429999999,0.979919924,0.578821171,-1.146898988,0.050132621499999995,-3.9366656200000003,0.203907397,0.36204233100000005,115.11070400000001,0.23762629553675652,1.3697549015283585,-5.759131193161011,0.009788737630161626,-1.3721524729999999,-50.36460510000001,6.365928640000001,12.778318650000003,-0.24487933599999998,-3.5083754400000005,1.0792709500000002,0.658150743,-1.3466838710000002,-51.3670445,6.38453461,12.770593199999999
10294.5,1.65467568,1.5088087,1.7735029199999999,0.06248484719999999,-0.3280932388,-0.1051768623,-0.9874123100000001,0.976264217,0.582681704,-1.1659946300000001,0.055143252600000005,-3.224459746,0.206980984,0.32344489000000004,91.75494102999998,0.2395276851952076,1.1758180171251298,-6.104172992706299,0.00976112772179202,-1.17892954,-53.5210023,6.362273419999999,12.5948025,-0.318664648,-3.30737357,0.9745499650000001,0.607387055,-1.1744640739999999,-54.53670179999999,6.3913673499999994,12.627226599999998
10304.5,1.6547468799999998,1.50872022,1.77448617,0.0634127828,-0.33176887206999994,-0.1109629628,-0.9862756659999998,0.9860928989999997,0.580572986,-1.17895614,0.053535712400000005,-3.6251770399999996,0.20496042399999997,0.34414577699999993,110.98630819999998,0.40041396021842957,1.5778731271624564,-6.034870862960815,0.009733059759353688,-1.5808220039999998,-52.61715819999999,6.36851301,12.990571749999997,-0.302882814,-3.34898873,1.13336747,0.645222024,-1.5609210776000002,-53.7446896,6.397407110000001,12.9955045
10314.5,1.6559041,1.51571569,1.77543886,0.0633576674,-0.47066851200000015,-0.1361471735,-0.985674163,0.9801126589999999,0.579611385,-1.155070175,0.04257241516,-3.9164615400000002,0.20491903100000003,0.38649749800000005,108.62502570000001,0.34390482157468794,1.7242720961570739,-5.788361120223999,0.009705150520040066,-1.726688394,-50.8732252,6.37591886,13.229064099999999,-0.24889028000000005,-3.7680937199999995,1.24063551,0.74892457,-1.702690322,-52.438911299999994,6.39951288,13.2380729
10324.5,1.6558714600000002,1.50829853,1.7753851,0.062727968,-0.28221204260000005,-0.11733102449999999,-0.9866215279999999,0.97746368,0.573684467,-1.145343283,0.05896336819999999,-3.5657291,0.205128858,0.33008146899999996,110.19792950000001,0.2372395411133766,1.2951425194740296,-5.635354661941529,0.009678053427853741,-1.2972251625699998,-52.76591080000001,6.36977092,12.5559348,-0.21513792399999998,-3.61217187,1.32206933,0.7599519599999999,-1.282519116,-53.5941184,6.39539955,12.5574613
10334.5,1.65515298,1.51110678,1.77201545,0.06369093220000001,-0.4702818419,-0.10902166989999999,-0.9843826979999999,0.986331889,0.5823357180000001,-1.18485962,0.043545607599999994,-3.3736696129999997,0.20425656399999997,0.37407436499999996,75.1066116,0.35760853812098503,1.8471840977668763,-5.470351266860962,0.009651695668481758,-1.8489109167000002,-52.5662026,6.377666189999999,13.31817285,-0.17886586740000002,-3.7539548100000006,1.4657908499999999,0.8096449330000001,-1.853770828,-53.0966461,6.39295622,13.340847199999999
10344.5,1.65571451,1.5150727800000001,1.77547671,0.062236654700000005,-0.460281613,-0.10719310839999999,-0.9827198490000001,0.9801925050000001,0.575617249,-1.1846515700000002,0.054163757429999994,-3.3015057299999997,0.20592003499999997,0.327041625,93.8550059,0.23511812202632426,1.2802373051643372,-4.569312286376953,0.009626476184947932,-1.280085217,-50.6945228,6.37177418,12.6497244,0.0158545622,-3.86681517,1.7428676199999997,0.905308344,-1.24917231038,-51.634300599999996,6.39762853,12.631320300000002
10354.5,1.6555379899999998,1.51537426,1.7720482800000004,0.0628691281,-0.548890347,-0.0991498749,-0.986835505,0.983238594,0.5825010820000001,-1.19865788,0.060973783700000006,-3.6121224399999994,0.20539687199999998,0.3249624055,109.53142820000001,0.24200866743922234,1.6666615545749663,-3.9205178022384644,0.009604280165771403,-1.6651629140000002,-50.0677067,6.375653440000001,12.97638935,0.1560257146,-3.8652076900000005,1.9667816699999996,1.020785135,-1.654082199,-51.06660380000001,6.3952947899999995,12.977799899999999
10364.5,1.6554412199999997,1.5070942200000002,1.7742517,0.0637948807,-0.3291390449,-0.12617508169999997,-0.985360511,0.9765721300000001,0.5801815429999999,-1.161682493,0.04043126649999999,-3.3354206600000005,0.20700545899999998,0.38107604139999995,64.3109876,0.3386602006852627,1.8821238279342651,-4.265829944610596,0.009584691784821566,-1.8813361439999998,-53.0835286,6.38396501,13.278816,0.08211262100000001,-4.46202007,1.94967267,1.0152563009999998,-1.844660279,-53.16759449999999,6.40643111,13.253511800000002
10374.5,1.6551847199999998,1.5107428099999998,1.7735610099999999,0.06294665810000001,-0.433360056,-0.1320872865,-0.980396274,0.97661938,0.5792354449999999,-1.2069870000000003,0.0481330019,-3.87985803,0.20539897700000004,0.36894950700000007,105.33930860000001,0.24628460109233857,1.4365659594535827,-4.614479446411133,0.009564824746456905,-1.4364937000000002,-53.2235451,6.38550939,13.054434300000002,0.007527022099999996,-3.9198894100000006,1.77418886,0.901628313,-1.424320406,-54.726451,6.41027367,13.0760701
10384.5,1.6561178600000002,1.51378843,1.7708993899999996,0.06269294190000001,-0.517928523,-0.1053335598,-0.9860427079999999,0.9821745409999998,0.580699594,-1.18952709,0.042953949649999996,-3.632429464,0.205582522,0.379659874,88.39222129999999,0.28390334025025366,1.9143145501613616,-4.7933793544769285,0.009543835412734071,-1.91460518,-52.690334099999994,6.37997575,13.627089999999999,-0.030468149850000004,-3.7564841799999997,1.7739459,0.9428375149999999,-1.884815725,-53.96762369999999,6.40719318,13.616114450000001
10394.5,1.6555225400000004,1.51006163,1.77474415,0.06321346020000002,-0.34835404880000004,-0.10208198469999999,-0.98404973,0.973742676,0.5853296269999999,-1.2273252600000002,0.04748157927,-3.88196838,0.20655990100000002,0.357056678,118.52463,0.2703172266483307,1.8767072141170502,-4.729294872283935,0.009522171386470624,-1.8768612999999998,-54.46839609999999,6.39118403,13.585478700000001,-0.016196290760000003,-3.64318229,1.7429175399999999,0.880853872,-1.868801036,-55.64104110000001,6.4135272400000005,13.586423700000001
10404.5,1.65590875,1.50700159,1.77422902,0.0627100604,-0.40921715719999996,-0.0793415827,-0.986653701,0.982426327,0.5798938610000001,-1.2277543400000002,0.05699009560000001,-3.640495327,0.20546338400000003,0.339122748,103.04513769999998,0.2542830344289541,1.6596124678850175,-5.102763414382935,0.009500020453409794,-1.660523877,-52.363122999999995,6.38645626,13.0369811,-0.09590189084,-4.0799733,1.6875281299999998,0.879335696,-1.6609456260000002,-53.31777139999999,6.405169809999999,13.045149450000002
10414.5,1.6562677099999998,1.5134411399999999,1.7740844599999999,0.06271237739999999,-0.528853507,-0.1190621891,-0.985694227,0.9822917560000001,0.587018466,-1.2077308500000001,0.050386902100000006,-3.90844011,0.204974094,0.35879861700000004,117.0726365,0.2816906914114952,1.835504448413849,-5.355947542190552,0.009476923709606585,-1.836922994,-50.2330638,6.397654470000001,13.080095499999999,-0.1496741606,-4.2513124300000005,1.6300760100000002,0.873012851,-1.806205456,-51.00792260000001,6.41908628,13.0630255
10424.5,1.65533742,1.51022629,1.7749449900000003,0.06350608440000001,-0.3446983,-0.1051180695,-0.9845529119999998,0.981048318,0.578694144,-1.20217081,0.04764694709,-3.3099374060000004,0.20570493,0.3509873855,79.52645720000001,0.3307269595563412,1.5903676331043244,-5.782863664627075,0.009452569444714471,-1.5926427659999998,-54.62393530000001,6.392429679999999,13.2773187,-0.24063413800000003,-3.6142485699999995,1.5084542900000002,0.797939282,-1.527964785,-54.64578300000001,6.41885462,13.2254007
10434.5,1.6557383900000002,1.51062637,1.7764153,0.06309946229999999,-0.39565769913,-0.1242210284,-0.9819006270000001,0.9722053839999999,0.5857970880000001,-1.2295558100000001,0.0556510427,-3.2982677349999996,0.20701038600000002,0.32916827499999995,87.87012159999999,0.28521828055381776,1.6877287685871125,-5.855461883544922,0.009426842475044894,-1.6901377060000002,-52.977837699999995,6.4041437000000005,13.232924800000001,-0.255478171,-3.3622489,1.38847604,0.7379838619999999,-1.6970511959999999,-53.1644466,6.42220863,13.2422899
10444.5,1.65529069,1.5025218,1.7727867,0.0635030874,-0.358201735,-0.12143539119999999,-0.982688738,0.9834071590000001,0.5858797839999998,-1.192156694,0.0501892596,-3.648065175,0.207753655,0.3698324846,101.39065500000001,0.31293813064694403,1.9272380471229553,-5.926599836349487,0.009400262894761112,-1.92977686,-55.1732411,6.400948659999999,13.3688748,-0.2699740460000001,-3.40078972,1.40319902,0.7513649319999999,-1.91345709,-55.7814298,6.41419892,13.363860599999999
10454.5,1.6563327400000003,1.5101019400000002,1.77259676,0.0628666612,-0.3680830449,-0.0900555738,-0.9835086930000001,0.981292259,0.586232064,-1.2194781000000001,0.0609950592,-3.302389315,0.205484824,0.28849557800000003,111.35302869999998,0.22829702943563462,1.9324642598628998,-5.8995753765106205,0.00937348179756857,-1.9349338450000002,-52.8508002,6.395632770000001,13.513314349999998,-0.26340324800000003,-3.1870716900000002,1.41077436,0.731938246,-1.9051487699999998,-52.74345860000001,6.410525010000001,13.474556100000001
10464.5,1.6559510200000003,1.5164083400000001,1.77187108,0.0626734689,-0.508820936,-0.1129547681,-0.985638686,0.9805875820000001,0.5889771460000001,-1.2021450800000002,0.0540024927,-3.6137508999999994,0.203505973,0.3281996866,118.3753647,0.26894795447587966,1.892760169506073,-6.237241792678833,0.009346490825588794,-1.89589115,-52.140076799999996,6.405790809999999,13.365357899999998,-0.334892058,-3.74125121,1.22174165,0.7067784589999999,-1.8884112299999998,-53.060481800000005,6.421015540000001,13.379192749999998
10474.5,1.6553953800000003,1.50610733,1.7708131900000001,0.06210943570000001,-0.12816465990000003,-0.10342740300000001,-0.9839842540000001,0.982960372,0.5870196270000001,-1.2193268800000001,0.0582773254,-3.042567458,0.203932202,0.29419417800000003,89.5285802,0.3401080310344696,1.3306566923856735,-6.1095452308654785,0.009318830882026247,-1.333516112,-54.19749249999999,6.4124514600000015,12.855739,-0.30674005099999996,-3.02802325,1.33866037,0.716190061,-1.3425792060000001,-54.3526457,6.42797456,12.881632399999997
10484.5,1.65635041,1.50525113,1.7749307399999998,0.0631568782,-0.24690067799999998,-0.12490457819999998,-0.9797997969999999,0.9707132999999999,0.5684018209999999,-1.1434127669999998,0.0402288876,-3.64823669,0.20568135999999998,0.413609512,72.3006396,0.7818465203046798,2.153492748737335,-5.798233270645142,0.00929148696724294,-2.15571745,-55.50544070000001,6.38310149,13.734996999999998,-0.23936848399999996,-3.7195271500000002,1.47979785,0.7931338450000001,-2.07821139,-56.820364500000004,6.424689549999999,13.709542199999998
10494.5,1.65478889,1.5151818499999998,1.77280598,0.061615315000000004,-0.34855823570000005,-0.11335288939999999,-0.986609176,0.9768729190000001,0.5788881060000001,-1.20612655,0.065618090368,-2.7020797450000003,0.20450046299999997,0.2423622526,99.8536782,0.3225758131593466,0.9928898379206658,-6.124028015136719,0.00926468291721252,-0.9957459390000001,-51.88326230000001,6.4029089400000005,12.3145967,-0.30819922,-3.5240607699999997,1.2689717100000002,0.694291061,-0.9877985597999999,-51.7976548,6.43384101,12.299821799999998
10504.5,1.6545778400000004,1.5147163700000001,1.77299358,0.0618651289,-0.3895724866,-0.10548016470000002,-0.986902909,0.9808767040000002,0.5837816889999999,-1.2195870500000001,0.0580398897,-2.9987426790000002,0.20344524900000005,0.2919203486,89.5795154,0.2037234626710415,1.3515372440218925,-6.653615665435791,0.009237166932143187,-1.3554217857,-53.335724600000006,6.411077929999999,12.824485,-0.42042907099999993,-3.48549979,0.9238394119999999,0.58369577,-1.3395431517999998,-54.85431140000001,6.433160770000001,12.832118
10514.5,1.6571834399999996,1.5163921999999999,1.7771584699999998,0.062401158899999996,-0.47042427150000005,-0.11344693769999999,-0.986174031,0.978644188,0.580740196,-1.18939591,0.0489967122,-3.3206798399999995,0.204320588,0.36799577699999997,67.4576868,0.3258129645138979,1.5505009949207307,-6.771984004974366,0.009208267025231778,-1.554597445,-51.8917504,6.40514656,12.993428799999998,-0.4447385109999999,-3.0494342800000003,0.8563917520000001,0.528632914,-1.5227324709999999,-52.9709199,6.431222880000002,13.002503399999998
10524.5,1.6564586399999999,1.5115620099999998,1.7744266400000002,0.0629981274,-0.2818349577,-0.10082331690000002,-0.9857172010000002,0.9843749300000001,0.587102445,-1.21056947,0.04593962359999999,-3.9262726700000004,0.205611678,0.381852746,114.727295,0.34037386178970336,1.8462217569351196,-6.664428806304931,0.009178668556958527,-1.8500856929999998,-54.902054,6.414461269999999,13.48391555,-0.420821338,-3.3192434199999994,0.9689836820000002,0.6120187689999999,-1.82182684,-55.7509778,6.43122977,13.479160250000001
10534.5,1.65612472,1.50673511,1.7757938800000002,0.0632371124,-0.29344776660000005,-0.1018420699,-0.9825028029999998,0.9803682610000001,0.5779795850000001,-1.20541731,0.056775252700000015,-3.91111808,0.20746673300000001,0.34893181000000006,114.2559055,0.2606981873512268,1.7859981536865235,-6.672590112686157,0.009149190574162365,-1.7898564399999999,-56.340507200000005,6.40594648,13.426144049999996,-0.42158203799999994,-3.2760456100000006,0.8725201290000001,0.552916811,-1.7639927099999997,-56.5580613,6.4327489600000005,13.404342600000001
10544.5,1.65495292,1.51971659,1.7691913700000002,0.0619858852,-0.512722152,-0.11714647600000001,-0.989042613,0.9816240089999999,0.5754478290000001,-1.14760676,0.055719016600000004,-3.24847744,0.20529516,0.309669695,101.33818920000002,0.23146168403327466,1.5219549715518952,-6.823211288452148,0.009119634507904349,-1.5260848230000001,-51.743667,6.41053857,13.150528699999999,-0.452679645,-3.08342998,0.769014189,0.541937933,-1.504625983,-52.64528170000001,6.43780962,13.1465903
10554.5,1.6559784499999999,1.5115588399999997,1.7760409400000001,0.06294310280000001,-0.44535801599999997,-0.10294077509999999,-0.9896721390000002,0.978507506,0.5822482370000001,-1.2024572399999998,0.06349280430000001,-3.310369525,0.20573817,0.297971959,108.39364,0.2317406479269266,1.8260705947875977,-6.529243755340576,0.009090159229757916,-1.8296090500000002,-55.2092095,6.416885070000001,13.2343639,-0.38912964800000005,-3.0043657899999996,0.95263104,0.5862775929999999,-1.7963200949999998,-55.763314300000005,6.439273849999999,13.2121128
