JvanZyl1/RocketTrajectoryOptimisation/data/agent_saves/PyTorchSAC/LandingBurnPureThrottle/2_A_3/agent_saves/sac_pytorch_learning_stats_reduced.csv
step,state_mean,state_min,state_max,state_std,state_kurtosis,action_mean,action_min,action_max,action_std,action_kurtosis,reward_mean,reward_min,reward_max,reward_std,reward_kurtosis,critic_loss,actor_loss,alpha_loss,alpha_value,q_value_mean,q_value_min,q_value_max,q_value_std,log_prob_mean,log_prob_min,log_prob_max,log_prob_std,target_q_mean,target_q_min,target_q_max,target_q_std
4954.5,1.6500602200000003,1.53360157,1.7528463899999998,0.0595690614,-1.0100135900000002,-0.014216690100000002,-0.9914598429999998,0.9899202089999999,0.622322625,-1.34411291,0.0530226721,-3.5657954930000004,0.204929125,0.36289409050000004,92.1936923,0.28817240446805953,-2.4720754861831664,-5.087420654296875,0.045378138481513855,2.442792,2.2456410800000004,2.52765277,0.068652467,-0.6451239390000001,-1.1712949299999997,0.5422676070000001,0.32534336599999997,2.45198901,-1.30376068,2.5597559600000004,0.3783294586
4964.5,1.64971444,1.53161476,1.75353845,0.061807837700000014,-1.0862096380000001,-0.03019039711,-0.9881791030000002,0.9907470660000002,0.620398955,-1.3182834799999998,0.04462053338000001,-3.8552742099999997,0.202768885,0.382206551,98.2060087,0.30893253087997435,-2.4736286878585814,-5.083022499084473,0.045242867606707524,2.4445691199999997,2.22828198,2.5342059699999995,0.074895766,-0.64211368,-1.3758078599999999,0.4976798270000001,0.305011455,2.44476786,-1.60121928,2.56847209,0.40079472000000005
4974.5,1.6498285899999998,1.5327803699999998,1.7533638800000002,0.06188399239999999,-1.0850189399999999,-0.00869687743,-0.9887029469999999,0.9862000309999999,0.622095779,-1.33940836,0.0546678153,-3.2185290899999996,0.20354007300000002,0.3262478134,80.6744267,0.24745458848774432,-2.4787949085235597,-5.138751125335693,0.045107996114059815,2.44908113,2.24238653,2.5391101000000003,0.07495878739999999,-0.658520941,-1.38134973,0.513031524,0.28810644199999996,2.4573325400000003,-0.9618446299999999,2.57014368,0.34319147800000005
4984.5,1.65017003,1.53206825,1.7537900400000002,0.0616441718,-1.046429346,-0.02453982973,-0.987879159,0.988449513,0.6212555,-1.34198059,0.053509259100000005,-3.55851605,0.20421710399999998,0.349431541,88.86988699999999,0.258348036557436,-2.4815015316009523,-5.0639934062957765,0.044973350215935015,2.45303294,2.24774156,2.5403266899999997,0.0725740136,-0.632816993,-1.28850868,0.7122278000000001,0.364782581,2.4566665999999997,-1.3000736600000002,2.57036269,0.36703336799999997
4994.5,1.64873692,1.53265344,1.75245192,0.060569669999999985,-1.0037335470000002,0.006103356329999999,-0.9942614580000001,0.9857271009999999,0.6268233440000002,-1.35207234,0.0666257349,-2.6653938029999997,0.20395437300000002,0.25155637499999994,87.2207923,0.15852143689990045,-2.4946384906768797,-5.148272943496704,0.04483963900689564,2.4651073500000003,2.25936427,2.5458572900000003,0.07047896640000001,-0.6583984299999999,-1.42884051,0.3749289970000001,0.275733783,2.47716167,-0.39028697999999995,2.5753169700000003,0.26543804539999993
5004.5,1.6502851099999998,1.53294518,1.7527819299999998,0.06057381869999999,-0.9948724310000001,-0.01506391184,-0.9872599019999999,0.9851819430000001,0.6206298859999999,-1.34967244,0.05057629539999999,-3.5529761200000003,0.203560987,0.36612662,89.04754740000001,0.2931559193879366,-2.4958182334899903,-5.173791980743408,0.044705558370355745,2.4660793,2.26540168,2.54830526,0.0691429378,-0.665014484,-1.48088476,0.4102762848,0.292237727,2.46086515,-1.2694481400000002,2.5741795899999995,0.382507453
5014.5,1.6492910400000003,1.5341526,1.75237427,0.060721726600000005,-1.0609410210000003,-0.010560310659999999,-0.991221454,0.990541232,0.6241593910000001,-1.36596111,0.0620015506,-2.9352440750000004,0.20299607700000002,0.28789995240000005,88.4715505,0.19648004565387964,-2.4954961061477663,-5.128423881530762,0.044571576906815055,2.46656873,2.2681578900000003,2.54636147,0.06905611149999999,-0.648819347,-1.2219434,0.5124062979999999,0.301608152,2.4777878799999997,-0.6694079300000001,2.5787422500000003,0.303685543
5024.5,1.6495546400000003,1.5326816200000002,1.7527342500000003,0.06116507959999999,-1.077101394,-0.0016925603920000005,-0.986820163,0.9873843310000001,0.6201016500000001,-1.3415949699999998,0.05645738499999999,-3.280524123,0.20464385000000002,0.32268605549999996,98.7111395,0.2458799472078681,-2.4994153022766112,-5.150664138793945,0.04443832561492549,2.47032747,2.2693604699999996,2.55391622,0.070841009,-0.654375701,-1.3209114000000002,0.4166990320000001,0.271470967,2.47345978,-0.99666523,2.58726794,0.337029718
5034.5,1.64944452,1.53171462,1.7533370099999999,0.06110059649999999,-1.059964355,-0.00838965173,-0.9901642990000001,0.9909374,0.6107640790000001,-1.2973148700000001,0.0562049528,-2.967744443,0.20451811800000003,0.29956645000000004,81.50918830000002,0.2112053856253624,-2.5053313255310057,-5.175389146804809,0.04430542983478446,2.4760498000000006,2.2780054499999998,2.5587246,0.0699437686,-0.6607178639999999,-1.29704591,0.282353998,0.271492842,2.4754897700000003,-0.68563171,2.58253385,0.31750691600000003
5044.5,1.64972125,1.53184379,1.7529445400000003,0.0609543696,-1.022511271,-0.013991084980000002,-0.988880605,0.986392969,0.6184890170000001,-1.30103534,0.06774997810000001,-2.069499468,0.203679558,0.22976799999999997,50.552036900000004,0.14150970615446568,-2.5062644481658936,-5.166482257843017,0.04417257654034096,2.4772670499999996,2.2751140100000002,2.55931602,0.0693850286,-0.6562660709999999,-1.2342398600000002,0.400191614,0.30643701500000003,2.49016985,0.20318870000000003,2.5844641800000003,0.24574318600000003
5054.5,1.64953393,1.5332869799999997,1.75306351,0.0610633161,-1.0796219400000002,-0.0399506982,-0.990107647,0.9895375700000001,0.620327186,-1.3444262000000002,0.06139333069999999,-3.85216738,0.20440827499999997,0.32664671900000003,140.14285939999996,0.22810385674238204,-2.5150248527526857,-5.139310550689697,0.04404025691145108,2.4865674700000002,2.2980664799999997,2.56490333,0.06709074229999999,-0.645973463,-1.1208499600000001,0.6198607470000002,0.31383434499999996,2.48724021,-1.57547206,2.5858831,0.340503919
5064.5,1.64980139,1.5331123899999999,1.75322955,0.0602557393,-1.031662895,-0.010987528319999999,-0.9876515360000001,0.9911319939999998,0.6253794830000001,-1.33818335,0.0636959356,-3.2637231820000006,0.203164387,0.287587164,112.7874237,0.18542590029537678,-2.5148246049880982,-5.202350425720215,0.04390847227046176,2.48563559,2.2905344899999998,2.56690254,0.06822072950000001,-0.6645673280000001,-1.33760203,0.442264008,0.27861442299999994,2.49187253,-1.0013792900000003,2.59154442,0.304733835
5074.5,1.6499622000000003,1.53276855,1.75305827,0.0608986952,-1.05703043,-0.0061573574599999995,-0.9830632970000002,0.9926184540000001,0.611454084,-1.28475839,0.0615993169,-3.266964395,0.20400021200000004,0.29444442300000007,115.07305769999998,0.20841453671455384,-2.5172292470932005,-5.207180404663086,0.043776769557740715,2.48813087,2.29193424,2.56901228,0.069457561,-0.6645093950000001,-1.2755405300000002,0.41195412400000003,0.288583957,2.4917122500000004,-0.9833103800000002,2.5931036,0.31076838700000003
5084.5,1.650047,1.53285366,1.7534950700000003,0.060619063099999995,-1.04726996,-0.0068694618999999985,-0.9909000130000001,0.9912626580000004,0.618436604,-1.3114933,0.05003095465,-3.27974091,0.203624941,0.3683647065000001,73.80574659999999,0.3133565627038479,-2.5173956155776978,-5.169287252426147,0.043645277640911403,2.48898226,2.2970951100000003,2.57025822,0.0684520375,-0.6508117469999999,-1.2173033999999998,0.621808601,0.32402433799999997,2.4838412599999997,-0.9878001900000001,2.5974145799999997,0.385184764
5094.5,1.6504175099999998,1.5326387099999998,1.75388078,0.06148039220000001,-1.067397903,0.0012094201500000012,-0.987376216,0.992051883,0.620372261,-1.32843505,0.05031054619999999,-3.5600647249999993,0.20374047099999998,0.36661422999999993,84.54002139999999,0.2907136850059032,-2.509122133255005,-5.156489086151123,0.043514741833515024,2.4810406,2.2759658199999997,2.5671396299999993,0.07284162350000001,-0.6451482650000001,-1.25741899,0.60679338,0.307181817,2.4851927500000004,-1.2733418100000002,2.60763873,0.385247254
5104.5,1.6500287099999997,1.53318014,1.75343029,0.060120526400000006,-1.039999421,-0.02907083337,-0.9892954159999998,0.988885511,0.62461442,-1.3509141900000001,0.059363408500000006,-3.522819045,0.20329721600000003,0.33329416100000003,107.34034210000002,0.24902281761169434,-2.5174709796905517,-5.200663614273071,0.04338462391404615,2.4889293900000005,2.2902162400000003,2.5745513,0.071136884,-0.6576644080000001,-1.19117219,0.515133812,0.30638535200000006,2.4987917800000004,-1.2370013499999999,2.60097078,0.34877468500000003
5114.5,1.64967076,1.5329898300000002,1.75336282,0.060637836,-1.037860593,-0.00372995395,-0.987606561,0.985961172,0.622536548,-1.3560833100000003,0.0612848012,-3.52363115,0.20286493700000002,0.31343850100000004,114.75906479999999,0.2168201707303524,-2.5232544898986817,-5.1369483947753904,0.04325508930311684,2.4957451799999992,2.29068491,2.5788388,0.0721866922,-0.635791689,-1.19194178,0.6054418100000001,0.326857203,2.5031059499999997,-1.23772098,2.60541541,0.32891551699999994
5124.5,1.6505196700000002,1.5329181100000002,1.7529713399999998,0.05990019789999999,-1.020665146,-0.004601480899999999,-0.986920282,0.987914734,0.632133845,-1.3742502799999998,0.0571581691,-3.5278346800000002,0.20402499900000004,0.32590927399999997,104.46626470000001,0.23416023291647434,-2.5278599739074705,-5.230950164794922,0.04312630457659559,2.4992094,2.29291272,2.5840541299999997,0.0711890106,-0.6641448780000001,-1.6363825699999999,0.275637676,0.241636418,2.49955446,-1.23182184,2.61520368,0.34296874199999994
5134.5,1.6495568299999999,1.53283134,1.7532490700000003,0.06099975569999999,-1.0658558699999998,-0.003592205369999999,-0.9900759889999999,0.988945935,0.630795363,-1.3787761299999999,0.055393884299999994,-3.2619160899999997,0.203040386,0.33340122,89.61108279999999,0.2523707253858447,-2.5295894622802733,-5.138358640670776,0.0429972875955004,2.5023575900000004,2.29878292,2.5838636100000003,0.0694102312,-0.633137248,-1.246685,0.802269734,0.371759694,2.5021751000000005,-0.95841878,2.6089077400000003,0.35056993500000005
5144.5,1.6504856500000002,1.53313988,1.75288932,0.0608484024,-1.0410081569999998,-0.015580982100000002,-0.9888414319999999,0.990237617,0.6200221280000001,-1.34744636,0.06226602600000001,-3.25199297,0.204209558,0.29946774400000004,100.3646749,0.2001016467809677,-2.5258009910583494,-5.244457244873047,0.04286928726870291,2.49727282,2.29620478,2.5817740999999996,0.0725729205,-0.6652749870000001,-1.3370063399999998,0.36800850599999996,0.25914207100000003,2.51040316,-0.9667453499999998,2.6170973500000003,0.31673922
5154.5,1.65010971,1.53137357,1.75290471,0.06092977580000001,-1.031968603,-0.008139753600000002,-0.9896828579999999,0.9891075749999999,0.6335651999999999,-1.3499047699999998,0.053868054,-3.2223825120000003,0.20330443599999998,0.3204883694999999,80.9459784,0.2409692345187068,-2.535376691818237,-5.214757108688355,0.0427408901046671,2.5074039100000003,2.3072288100000002,2.59300575,0.07366877749999999,-0.654272454,-1.4092677099999997,0.46509778499999993,0.28365401500000004,2.50558498,-0.91253238,2.6156094,0.338977462
5164.5,1.64968085,1.5321059099999998,1.7538298899999998,0.0603015106,-0.987686075,-0.015195167480000002,-0.9895395890000002,0.9889704439999999,0.6147469190000001,-1.3172760700000001,0.038820486700000004,-3.5612694150000004,0.204144828,0.40675710800000003,65.7742597,0.3530091967433691,-2.5297745943069456,-5.217831134796143,0.042612864555354006,2.5019110099999997,2.30354233,2.58625595,0.072275943,-0.653674449,-1.3340845199999998,0.49205606199999996,0.296144455,2.49263405,-1.26571718,2.6176847899999998,0.428250253
5174.5,1.6501940300000002,1.53372253,1.75363498,0.060864674099999995,-1.05438972,-0.014218971199999996,-0.9899509360000002,0.9882611490000001,0.618059626,-1.34801189,0.04164935762000001,-3.8607160400000007,0.202927566,0.40640427400000007,90.1732341,0.35109427869319915,-2.5176355600357057,-5.237398767471314,0.042485362392369115,2.48965922,2.27999368,2.5801401,0.076329875,-0.6582978190000001,-1.3716943499999998,0.29198289,0.28173573,2.49698494,-1.5500133600000001,2.6183419999999997,0.42563011900000003
5184.5,1.64982987,1.53266782,1.7530957900000002,0.0612736306,-1.061508147,0.00777231593,-0.986688858,0.986507997,0.621256769,-1.33488565,0.055126565399999994,-3.246589228,0.20483724600000003,0.34183419400000004,83.56435719999999,0.27590038999915123,-2.520193648338318,-5.241375398635864,0.04235795799124641,2.49231413,2.27577569,2.58841722,0.0811794154,-0.657983447,-1.2313203300000002,0.706534126,0.33730162100000005,2.5122917799999995,-0.9488429700000001,2.61993278,0.35926271200000004
5194.5,1.6497689599999998,1.53218916,1.7531345899999997,0.0603343011,-1.020801118,-0.022167473400000005,-0.988218962,0.9884657119999998,0.6196453769999999,-1.34733337,0.056917981400000005,-3.5270420729999996,0.203824941,0.3426671229999999,104.98999169999999,0.2615704327821732,-2.5415244340896606,-5.174646091461182,0.0422313098611711,2.5146859899999994,2.30777481,2.6063831,0.0770364795,-0.635322933,-1.28110439,0.757632039,0.35550412600000003,2.51721089,-1.22123863,2.6282736200000003,0.3596221519999999
5204.5,1.6500449799999999,1.53309396,1.7529140399999998,0.06062127789999999,-1.035271256,-0.016375479470000003,-0.9898378899999999,0.9903571889999998,0.6216085299999999,-1.33614289,0.0549602881,-3.8610263199999997,0.20443093299999998,0.342011134,121.658617,0.24638195633888244,-2.545715165138245,-5.271469831466675,0.042105476548918844,2.5177342,2.3114175700000006,2.6038320400000003,0.0735978477,-0.6643513400000001,-1.5587945799999998,0.41334698400000003,0.263660133,2.518581,-1.5447880699999998,2.63408922,0.359070707
5214.5,1.6497087499999998,1.5319216,1.7534616200000002,0.06127529930000001,-1.04720168,-0.020664218199999997,-0.9884510859999999,0.9881820149999999,0.610385541,-1.31113277,0.045651777899999996,-3.8562265600000005,0.20404625000000004,0.37199867600000003,104.95985499999999,0.2937647670507431,-2.539085841178894,-5.224494552612304,0.04197944035848009,2.5118766200000002,2.30065132,2.5980813400000002,0.07341954599999999,-0.6479619169999999,-1.2840625199999998,0.468943713,0.29677083899999995,2.5117628,-1.53620307,2.6276549200000003,0.390927549
5224.5,1.6502582799999999,1.53200758,1.7533310400000002,0.06032485480000001,-1.024614611,-0.0236442969,-0.9859957429999998,0.986513721,0.61791358,-1.3420823599999998,0.061488074200000006,-2.91911682,0.20400839700000004,0.291355991,85.54152429999999,0.20979770924896002,-2.5431412935256956,-5.272885274887085,0.04185379277963878,2.51543997,2.31029429,2.60478087,0.0751191209,-0.6616564329999999,-1.33698235,0.31530906999999997,0.26920375300000005,2.52918144,-0.61077216,2.6315324800000006,0.30778648
5234.5,1.65044863,1.53374341,1.75269803,0.06041803520000001,-1.0710146,-0.012361370489999999,-0.9885806629999999,0.9853913000000001,0.622616488,-1.3470356300000002,0.059745728100000006,-3.2740638580000003,0.20443990299999998,0.3163871105,97.42615930000001,0.2345353677868843,-2.556939625740051,-5.241640186309814,0.041728365074812646,2.5297978399999996,2.3253844500000005,2.61754913,0.07333381110000001,-0.650247617,-1.3708558499999999,0.48942055900000003,0.33500032199999996,2.5288661699999997,-0.9496495999999999,2.6343888800000004,0.3316296174
5244.5,1.64997806,1.53253068,1.7530539500000004,0.06064542790000001,-1.009921812,-0.01249408662,-0.991785828,0.989125177,0.6177738639999999,-1.31942094,0.05951555138,-2.922486469,0.20377502500000003,0.29573851549999997,79.392374,0.2222229478880763,-2.5559353828430176,-5.242710161209106,0.04160374562354933,2.5289257399999996,2.32200952,2.61575688,0.07231886090000002,-0.6490283670000001,-1.25431207,0.358913136,0.29583038300000003,2.5319403600000006,-0.60635149,2.6384409699999996,0.31355315100000003
5254.5,1.6502307999999999,1.53359409,1.75284064,0.060833203700000005,-1.042454156,-0.02372710557,-0.9915008539999999,0.9872662210000002,0.6213847419999999,-1.33870641,0.0519284143,-3.5535159800000002,0.20459369,0.36904040800000004,93.2921534,0.30048234239220617,-2.5526046991348266,-5.281290483474732,0.04147933500456824,2.52523645,2.3223387099999995,2.61018665,0.0729990961,-0.6596041749999999,-1.3763125200000002,0.26217792195999995,0.2582361080000001,2.52621477,-1.2349780100000003,2.64145844,0.386901878
5264.5,1.6491548200000001,1.5332077800000001,1.7525936000000002,0.0603978492,-1.022008214,-0.0202406849,-0.9861243299999998,0.988479294,0.617264668,-1.3282283700000002,0.050931640900000005,-3.5710321629999995,0.20344168699999998,0.361083401,95.88987809999999,0.28764795921742914,-2.5516397953033447,-5.230198955535888,0.041355237421738925,2.5250820800000002,2.32045931,2.60986781,0.07330313,-0.6420001940000001,-1.2829070700000003,0.388482211,0.28126397000000003,2.53142004,-1.2381876200000002,2.63737921,0.378161344
5274.5,1.64963315,1.53208635,1.7539216100000001,0.0611280689,-1.027330298,0.007934198363,-0.9891131850000001,0.990285765,0.620271239,-1.3321604299999998,0.04256986434,-3.556112316,0.202855373,0.385373337,82.83092690000001,0.3381534615531564,-2.5514480113983153,-5.313463163375855,0.04123177640006274,2.5239560399999994,2.3117530699999995,2.6162835600000003,0.07929534000000002,-0.666575728,-1.48892821,0.26379322899999996,0.252846696,2.5222861599999997,-1.2294767300000002,2.64708945,0.404924292
5284.5,1.65121021,1.53438162,1.7525015400000001,0.0601591655,-1.06812743,-0.01833717255,-0.987233434,0.9865324550000001,0.618438214,-1.3436413600000001,0.0449622992,-3.86164136,0.20421214300000004,0.395610495,95.94088560000002,0.33071280270814896,-2.5442130088806154,-5.247656917572021,0.04110814032045909,2.5177152900000004,2.31062624,2.6140384200000004,0.0802451514,-0.644390346,-1.41966279,0.530351806,0.30878828,2.5236135400000004,-1.5330942899999997,2.64571369,0.415434492
5294.5,1.64977022,1.5317138700000001,1.75388849,0.06049277449999999,-1.0255118460000001,-0.0211452396,-0.985833016,0.987664676,0.619559584,-1.3279650699999999,0.053120916,-3.5434200930000004,0.20344554400000003,0.35666705000000004,92.87937919999999,0.27838586270809174,-2.5541319608688355,-5.2897580623626705,0.04098522954341585,2.5272365,2.3101906600000004,2.62245523,0.0797609806,-0.656027839,-1.2571128799999998,0.309089921,0.25796048000000005,2.53721358,-1.2210017400000002,2.6509013499999994,0.375174676
5304.5,1.6498072000000001,1.53254702,1.7532293700000003,0.06109140330000001,-1.0568861760000001,-0.018043836197,-0.993297104,0.9884742049999999,0.621322853,-1.32603377,0.0642847939,-3.2466637590000005,0.203022048,0.29778231599999994,106.00929719999999,0.20407468173652887,-2.5654652595520018,-5.241809511184693,0.04086273815043473,2.53932641,2.31356312,2.63230652,0.07829681200000001,-0.639481215,-1.1380390999999999,0.6153866060000001,0.32144778799999996,2.55026502,-0.9276114000000002,2.6487525099999996,0.315316904
5314.5,1.6493977100000001,1.5322428699999997,1.75380294,0.060382077,-1.0417201860000003,3.295155000000022e-05,-0.9876589769999999,0.9904088850000001,0.6268724750000001,-1.35774332,0.05863372979999999,-3.5527871360000005,0.20274317600000002,0.32874780000000003,111.21616669999999,0.24137468338012696,-2.574984836578369,-5.290762042999267,0.040740877742747685,2.54836245,2.3355402,2.6375074300000003,0.0740899136,-0.653250525,-1.2509824999999999,0.5664774429999999,0.29965111199999994,2.54820755,-1.2222101699999999,2.6555883799999997,0.34558907000000005
5324.5,1.6499061500000003,1.53184005,1.75391613,0.0611171653,-1.0371475699999997,-0.0080048574,-0.983813638,0.9896610039999999,0.610017445,-1.3188354800000002,0.04758940610000001,-3.8610150999999995,0.204756515,0.386905007,97.557405,0.3155159756541252,-2.5700896739959718,-5.235352087020874,0.04061953620161183,2.54431297,2.33053786,2.63022056,0.07333492639999999,-0.634406463,-1.27282074,0.6661226299999999,0.330900675,2.5390109699999996,-1.5224848400000002,2.6593896999999997,0.40643263100000004
5334.5,1.64942001,1.5323583600000001,1.75326431,0.060919814800000006,-1.0626921360000001,-0.03761009023999999,-0.9876299209999999,0.9901872560000001,0.6180061499999999,-1.3298619600000001,0.050272120499999996,-3.8646115800000005,0.20356536100000003,0.370221326,102.6329143,0.28252021223306656,-2.563023638725281,-5.321645498275757,0.04049864345996432,2.5362941,2.3224337099999994,2.6274462000000005,0.07732961149999999,-0.6598060669999999,-1.5499666999999997,0.453130478,0.267146909,2.5442954,-1.51979568,2.6600423,0.388840349
5344.5,1.6494499999999999,1.53272405,1.7532963600000002,0.0606464562,-1.0422716499999998,-0.025043595999999994,-0.98921081,0.9863428150000001,0.6194440410000001,-1.33828232,0.057097784698,-3.554068163,0.203659835,0.317236686,113.86329029999999,0.22515610307455064,-2.566438674926758,-5.294452762603759,0.040377556869786634,2.54019388,2.3283029600000003,2.63327181,0.0803361885,-0.64978444,-1.3085536199999999,0.553878518,0.305766597,2.55249038,-1.22405667,2.65502536,0.336493529
5354.5,1.64981333,1.53401202,1.75244735,0.061545258000000005,-1.1029670649999999,-0.022164412900000003,-0.9879831969999999,0.9892870169999999,0.6205899829999999,-1.3304303800000001,0.06392809958000001,-2.276731213,0.20327201400000003,0.264268467,53.12280969999999,0.20571137135848402,-2.5799889087677004,-5.303907680511474,0.040257075416144913,2.5537666500000005,2.34400387,2.64760468,0.0792620792,-0.6511873810000001,-1.2433095700000003,0.4081974260000001,0.298972257,2.56197426,0.07020257,2.6599469200000003,0.2788144756
5364.5,1.6506732400000002,1.5333161199999998,1.75347139,0.0599334896,-1.0515441859999999,0.007221253129999999,-0.9916548149999999,0.990949275,0.62080961,-1.33501997,0.057447611600000004,-3.5524252000000005,0.203758253,0.343339482,98.999148,0.2566716730594635,-2.58553729057312,-5.328945970535278,0.040136660985983195,2.5591416399999996,2.35433803,2.64920731,0.0744598314,-0.6574422880000002,-1.4248739000000001,0.346985007,0.288337989,2.5554620799999994,-1.22045191,2.6633308899999997,0.36238907499999995
5374.5,1.6493248700000003,1.53324506,1.7540137299999998,0.0606989244,-1.06232074,-0.030531645960000003,-0.988995071,0.9901980449999999,0.620745596,-1.34562156,0.0516108386,-3.5434402,0.202254932,0.357362556,87.83612979999998,0.27991775535047053,-2.5831619024276735,-5.319208431243896,0.0400164511586142,2.5570287,2.3502592399999997,2.64166458,0.07209341189999999,-0.652869494,-1.18438489,0.344018125,0.27118894000000004,2.55675252,-1.19557874,2.67092643,0.37610367899999997
5384.5,1.6501440500000002,1.5309710399999998,1.75386515,0.0606677264,-1.0295453209999998,-0.01934494947,-0.990254401,0.9907652940000002,0.622291704,-1.32037783,0.0518359811,-2.953829225,0.20259362099999997,0.326144047,70.46605509999999,0.25938606094568967,-2.5734905004501343,-5.323567724227905,0.03989671686367761,2.5474429099999996,2.3316969199999997,2.6395185399999996,0.077322739,-0.652684146,-1.2705097799999998,0.329193901,0.26210190099999997,2.5573462699999996,-0.59504628,2.6662819,0.3465899006
5394.5,1.64937413,1.5329243599999998,1.75325978,0.06063493019999999,-0.997076285,-0.0130572,-0.983254322,0.9869043309999999,0.6239664690000001,-1.3626289699999998,0.06461735869999999,-2.6807291429999998,0.20391932400000004,0.26638556560000004,79.6674717,0.1744512587785721,-2.586640191078186,-5.312413215637207,0.03977736135552544,2.5608687299999997,2.3399577999999996,2.6525823999999996,0.0799443958,-0.647691644,-1.1880238999999997,0.433770206,0.29019166199999996,2.57433104,-0.33102741,2.67036253,0.28423534939999995
5404.5,1.6495064400000004,1.5332449400000001,1.7541299600000002,0.06195872109999999,-1.11141724,0.006183110699999998,-0.9890109779999999,0.9912490479999999,0.6176776509999999,-1.3204356099999999,0.0549515768,-3.5629210859999993,0.203649069,0.342077303,103.30238439999998,0.2553936053067446,-2.598962664604187,-5.3381736278533936,0.0396586890510164,2.57301317,2.35576806,2.66221819,0.0781014795,-0.654141317,-1.2032630100000001,0.2617521067,0.271337879,2.56554045,-1.2197300700000002,2.67183251,0.361343332
5414.5,1.64977852,1.53250058,1.7535260899999998,0.060220980199999996,-1.02521312,-0.0290900021,-0.9894685460000001,0.9887682889999999,0.621289303,-1.3446718299999998,0.040657410000000005,-3.8662789,0.20376157900000003,0.42995802000000005,79.79900409999999,0.38319756984710696,-2.585138964653015,-5.3316034317016605,0.03954001180658653,2.55940723,2.35261722,2.64502804,0.07387673249999999,-0.6505795010000002,-1.1831393499999998,0.46425185199999996,0.308434321,2.55589857,-1.50801792,2.6763083100000005,0.44996903499999996
5424.5,1.6496978199999996,1.5332225000000002,1.7540069000000003,0.060861055899999995,-1.0579167950000001,-0.027011936946000004,-0.987396561,0.9897481210000001,0.614842827,-1.3111313299999998,0.050146383800000006,-3.85961092,0.20360278199999998,0.37062007199999997,110.64044329999999,0.2906426087021828,-2.5816309452056885,-5.359120273590088,0.039421742140376456,2.5557012599999998,2.33929383,2.648655969999999,0.0805480228,-0.6575586890000001,-1.3090528,0.4877015619999999,0.29107249599999996,2.56651759,-1.5079742999999999,2.67770596,0.38983229399999997
5434.5,1.64952556,1.5323344199999998,1.7537772400000002,0.06055927209999999,-0.9959452360000001,0.0024129621,-0.990526019,0.988976218,0.626954824,-1.33401934,0.05665918979999999,-3.84747792,0.204063163,0.34832816200000005,119.81159300000002,0.2523017168045044,-2.593354821205139,-5.342054224014282,0.03930366299957756,2.56777015,2.34132623,2.6619591000000002,0.0817056971,-0.6507501070000001,-1.23487807,0.424752686,0.29498312700000007,2.57538326,-1.5021241,2.67906203,0.367204283
5444.5,1.6504620499999998,1.5317760999999999,1.7544794799999999,0.0601766304,-1.0051256419999999,-0.012782880239999999,-0.9877047399999999,0.9873705810000001,0.627130276,-1.3716957099999998,0.05134587719,-3.85332376,0.202762209,0.367963378,111.53668619999999,0.29102192223072054,-2.599161434173584,-5.360749769210815,0.0391860289371696,2.57348703,2.35095573,2.6672632199999997,0.0786981121,-0.654994402,-1.3624867299999999,0.462901952,0.307167194,2.5710309600000003,-1.50233573,2.68219654,0.38758726600000004
5454.5,1.6506558000000002,1.5322432,1.7539063599999998,0.060534022300000004,-1.025817434,-0.0350620269,-0.9904317619999998,0.990708329,0.6161157439999999,-1.3319946699999998,0.058241926900000004,-3.55856896,0.20342663600000002,0.32455682900000005,111.91924730000001,0.2332816321402788,-2.590068006515503,-5.347208547592163,0.03906883473621372,2.56469375,2.34175643,2.65744021,0.0792936551,-0.6492862319999999,-1.5797375899999997,0.49679991799999995,0.305497333,2.5783093399999997,-1.20360831,2.68546182,0.344715383
5464.5,1.65018198,1.5345294500000002,1.7537482100000001,0.0600384232,-1.06378093,0.0008528069000000006,-0.991904499,0.9848161230000001,0.6179372089999999,-1.3317877300000003,0.0594783336,-3.223087734000001,0.20416276299999997,0.3239952226000001,93.51045620000001,0.24925195574760436,-2.6072268962860106,-5.391911840438842,0.03895190416181439,2.58145076,2.3715745900000003,2.6732069899999997,0.07821901309999998,-0.6615419140000001,-1.30378558,0.40261769900000005,0.25979342499999997,2.5844674,-0.8751239500000001,2.69693443,0.341617026
5474.5,1.6501128900000002,1.5313649799999998,1.7533178099999998,0.06143559629999999,-1.0779773430000001,-0.03206354298400001,-0.9914546850000001,0.9866664139999999,0.6198004650000001,-1.3308328699999998,0.06380528969999999,-3.2718894450000002,0.20382673499999998,0.27654245000000005,117.91191909999998,0.16667596083134412,-2.6112221002578737,-5.359100818634033,0.03883509873146032,2.58597555,2.3744400800000003,2.6768220200000004,0.0766160583,-0.649902807,-1.3211076599999998,0.647281065,0.33070601599999994,2.5895544900000003,-0.89881838,2.69412106,0.294964649
5484.5,1.64966972,1.5336883800000003,1.7533955600000002,0.06106778960000001,-1.059606355,-0.0021633155500000003,-0.9881046149999999,0.9886203179999999,0.6271395,-1.3609394599999998,0.058423528300000006,-3.557349015,0.203519549,0.314978662,118.78621189999998,0.21885031536221505,-2.605657434463501,-5.372174644470215,0.038719009128251686,2.5803898000000003,2.3684863700000003,2.67014455,0.07535821300000001,-0.652402234,-1.4417042,0.512675021,0.291262696,2.5884394,-1.1854430200000001,2.6948913699999997,0.33351142899999997
5494.5,1.6495361300000002,1.5321862899999998,1.75364324,0.060930901,-1.0384721840000002,-0.018438589229999996,-0.9866206500000001,0.9896183430000001,0.6112918030000001,-1.30749511,0.05226112974,-3.5636281769999996,0.20306806700000002,0.347727815,104.8648412,0.2784477584064007,-2.6117425203323363,-5.400014400482178,0.038603030711018005,2.5862784699999994,2.36184379,2.67425181,0.0774445174,-0.659437988,-1.2142526699999998,0.4813198549999999,0.282127878,2.5857854199999997,-1.1835837999999999,2.6953314,0.36662686699999997
5504.5,1.65022965,1.5326471300000002,1.7541247800000002,0.0605475819,-1.034463398,-0.02531860204,-0.988318882,0.9869417950000001,0.630666178,-1.36943754,0.052836902399999996,-3.557747425,0.20359174500000005,0.348519656,98.03036449999999,0.2695343680679798,-2.6078117370605467,-5.360678958892822,0.03848741346810962,2.58294791,2.3627641400000003,2.67433847,0.07875978460000001,-0.645831627,-1.3446887200000002,0.5805545630000001,0.30603514899999995,2.58621429,-1.1850508100000001,2.6979093699999996,0.368965617
5514.5,1.6502102100000002,1.53253913,1.7537124800000001,0.061557569599999994,-1.071630886,-0.02201055962,-0.989217479,0.986645842,0.6210540200000001,-1.3406287,0.047482126,-3.86894255,0.20431751900000003,0.377201805,106.4101368,0.30493422150611876,-2.6018365144729616,-5.400111865997315,0.03837234960190529,2.57664081,2.3551046399999995,2.6717373200000005,0.082861145,-0.6564148300000001,-1.3472640500000002,0.40733745,0.27255451,2.5821260600000002,-1.48783001,2.7018994599999995,0.39840778600000004
5524.5,1.6505227100000002,1.5314050399999997,1.75453987,0.0608121496,-1.0595576199999999,-0.0157790747,-0.9924999499999998,0.987828858,0.6215223419999999,-1.3335537599999996,0.05476120600000001,-3.2605585260000005,0.202834393,0.332015068,82.18735740000001,0.2460275411605835,-2.6083460092544555,-5.374926900863647,0.038257587811305324,2.58357929,2.3570084400000004,2.67976968,0.08254949689999999,-0.6471767070000001,-1.38533879,0.47491083500000003,0.29405924699999997,2.5923818300000003,-0.89835708,2.70327321,0.35319185299999994
5534.5,1.6500634900000002,1.53248631,1.7541039899999997,0.061258507399999995,-1.0792634140000001,-0.011321975670000001,-0.988182001,0.9903557060000001,0.6203333750000001,-1.33907119,0.0349510641,-3.86101638,0.20322206999999998,0.4463272,71.0127715,0.4038948088884354,-2.6074451923370363,-5.413712835311889,0.03814312003156716,2.5823566099999997,2.35616459,2.6792399999999996,0.0846405021,-0.657544015,-1.4868344799999997,0.5880973580000001,0.304197068,2.5752366899999997,-1.4943541599999999,2.71363544,0.469507017
5544.5,1.6493592700000002,1.5329663999999998,1.7537485699999997,0.061298251299999995,-1.0766615439999998,0.005847277140000001,-0.988940886,0.9899546670000001,0.6278098209999999,-1.35259013,0.0562034287,-3.860713680000001,0.203063948,0.34343981600000006,129.5932064,0.2517605945467949,-2.607745099067688,-5.438664340972901,0.0380289207839457,2.5825001000000003,2.3517675099999997,2.6792437500000004,0.08464034689999998,-0.663649815,-1.24966701,0.508934354,0.27427423400000006,2.59978771,-1.4861731500000002,2.70544208,0.362001079
5554.5,1.6508757900000002,1.53417471,1.7534497999999998,0.059675068899999996,-1.027086795,-0.006626220124999997,-0.9929968989999999,0.9901327739999999,0.6219431049999999,-1.3456248300000002,0.05074236024999999,-2.9165451369999995,0.20372559600000004,0.350960245,67.55932159999999,0.32346047572791575,-2.614662504196167,-5.347194957733154,0.037915045146259416,2.5906109600000002,2.3667282899999997,2.69019341,0.0821438796,-0.6341720419999999,-1.1771155700000002,0.8342600840000001,0.36364093499999994,2.5935095099999996,-0.5392179200000001,2.7179612599999996,0.37025677209999996
5564.5,1.6502775499999998,1.53199263,1.75359563,0.0603662839,-0.9841762,-0.009089351999999998,-0.9874216849999998,0.98981934,0.6229124889999998,-1.33010743,0.049044874300000006,-3.2727121869999998,0.20272310500000001,0.346671926,76.22710899999998,0.27431216910481454,-2.619683623313904,-5.389234113693237,0.03780200153249466,2.59527404,2.36966448,2.69167022,0.08205575210000002,-0.645521829,-1.3857210199999999,0.6524213010000001,0.318108449,2.59598773,-0.8860622499999999,2.71484346,0.368630769
5574.5,1.6501299,1.5333666400000001,1.75332282,0.0606425636,-1.038552618,-0.037382292160000004,-0.9930324079999998,0.9886056450000001,0.62629221,-1.35939645,0.054344731300000004,-3.28965871,0.20372765599999995,0.33919166000000006,90.51497060000001,0.27018137872219083,-2.616821527481079,-5.4122819900512695,0.03768923614846853,2.59227616,2.3616630799999996,2.6888174200000003,0.08271046709999999,-0.6510537519999999,-1.34725284,0.656775544,0.31344751499999995,2.60295569,-0.89778225,2.71249523,0.359012298
5584.5,1.6500522700000002,1.5326847899999998,1.75297768,0.06074823169999999,-1.042494801,-0.0277957359,-0.988893457,0.9874818399999998,0.621461508,-1.35455591,0.0593221603,-3.5438305229999996,0.20328250099999998,0.31413971,109.64089960000001,0.21249023005366324,-2.627127432823181,-5.404896974563599,0.0375767763747953,2.6027966900000004,2.37298873,2.6995041800000004,0.0831494961,-0.647296871,-1.52064982,0.63420656,0.32077726400000006,2.6087722399999995,-1.15984081,2.71678229,0.33423706999999997
5594.5,1.6502891000000002,1.53231931,1.75366141,0.0603887546,-1.045839821,-0.0015349497449999995,-0.9906128409999999,0.989437118,0.62543101,-1.35848869,0.047520142800000005,-3.574342403,0.20349872000000002,0.387613575,81.8050901,0.3251908481121063,-2.62670636177063,-5.435410070419311,0.037464579981380246,2.6021562099999995,2.3758878699999997,2.69783813,0.0810714965,-0.6550897059999998,-1.5208972,0.37733624000000004,0.26055689400000004,2.6003289599999997,-1.1876629099999998,2.7166785299999994,0.409159091
5604.5,1.6501363900000001,1.5338134,1.75373817,0.0606930257,-1.0568702799999998,-0.04253504818,-0.988598724,0.991091469,0.6186638799999999,-1.3084918999999997,0.0526058993,-3.55829102,0.20236259700000003,0.353094218,89.7634523,0.268018601089716,-2.6225537061691284,-5.439133548736573,0.03735251265950217,2.59809096,2.3762126199999996,2.6972163900000004,0.0835046303,-0.654714002,-1.2084043100000001,0.374917262,0.289579515,2.60639463,-1.17882123,2.7202668799999996,0.374517066
5614.5,1.6506400500000002,1.5334184800000001,1.75322208,0.0611204298,-1.0286265799999998,-0.01437922371,-0.9896267420000001,0.990093042,0.626454655,-1.34173324,0.045477800959999995,-3.5643145400000003,0.203691238,0.36003579059999996,99.27042250000001,0.30067879557609556,-2.624084806442261,-5.401692056655884,0.03724090800495802,2.6001759900000003,2.37603454,2.7004452799999994,0.08521329000000001,-0.6418239630000001,-1.32702428,0.563217761,0.336333724,2.60038979,-1.1738868199999999,2.72130024,0.38271649399999996
5624.5,1.64983455,1.53258186,1.7539969799999997,0.0601066723,-1.0291692060000002,0.002529756,-0.9873617809999999,0.987243128,0.6230264,-1.34526493,0.056239308200000004,-3.8565311199999996,0.20365910800000003,0.356929143,114.36594310000001,0.26443956792354584,-2.6286264657974243,-5.433423662185669,0.03712980142739336,2.60448554,2.37365185,2.70443137,0.0846541519,-0.649975614,-1.53847995,0.357360743,0.29844195399999995,2.6154190400000004,-1.47466373,2.7254775199999997,0.377012627
5634.5,1.64928766,1.53277494,1.7536083900000001,0.0595970723,-0.99538808,-0.00805535078,-0.990402024,0.9877649679999999,0.625100736,-1.34677207,0.0553682938,-3.86591783,0.20257333600000002,0.335124715,124.51059690000002,0.23458072245121003,-2.63963623046875,-5.376466512680054,0.037019141393266924,2.6162630200000003,2.39006997,2.7100057899999994,0.0818892346,-0.6311974319999999,-1.21666375,0.639627164,0.3606996840000001,2.6196866099999996,-1.4637294299999999,2.72926195,0.354908856
5644.5,1.6500409400000002,1.5335374199999998,1.7541360299999997,0.06063150690000001,-1.0405592450000003,-0.019954317250000003,-0.991952156,0.9880992190000001,0.618766009,-1.3471969,0.0419893037,-3.5753357859999992,0.202888424,0.4148849419999999,66.5960175,0.3645919442176819,-2.634914422035217,-5.441984367370606,0.036909209230331905,2.6109315700000004,2.3879401900000006,2.70729188,0.08284023190000002,-0.649587228,-1.2385601299999998,0.555137395,0.329349764,2.60449239,-1.1832803699999999,2.7302692600000005,0.43800300200000003
5654.5,1.6497578499999996,1.53273139,1.75338637,0.0607447319,-1.055560909,-0.010930740000000001,-0.9868663950000001,0.98695646,0.618011837,-1.33925397,0.0416322445,-3.86205378,0.20297505,0.40426814600000005,99.70023069999999,0.3518774822354317,-2.623448371887207,-5.427097940444947,0.03679936373396934,2.59975783,2.37465841,2.6982536,0.0845244471,-0.643588268,-1.14599683,0.4983974,0.31606583499999996,2.60647034,-1.46720274,2.7268841900000003,0.42678853599999994
5664.5,1.6503254200000002,1.5325245500000002,1.7534468100000002,0.06117600649999999,-1.05890336,-0.01590371055,-0.98933432,0.9895241709999999,0.6265175350000001,-1.36000481,0.06121618997,-2.64938219,0.203309853,0.28850822800000003,67.8849299,0.22242382392287255,-2.63320255279541,-5.479256010055542,0.03668963148819209,2.6090579099999998,2.37970885,2.7133197399999998,0.0884259815,-0.6578859140000001,-1.2535837400000003,0.430630732,0.288717568,2.62697532,-0.25624202,2.73019096,0.3081783129999999
5674.5,1.6496929699999998,1.53316645,1.7538149399999998,0.061540688600000004,-1.10139028,-0.0128393792,-0.9895290359999999,0.987721309,0.611700181,-1.29854118,0.0514665817,-3.2598109150000005,0.20370451800000003,0.344028876,77.7042643,0.26948005743324754,-2.6499260902404784,-5.420259618759156,0.036580066876851274,2.6265613300000004,2.3987906000000003,2.72603939,0.0861849574,-0.6385504660000001,-1.58686516,0.4171312854,0.306865455,2.61912879,-0.8719031700000001,2.73371422,0.367199211
5684.5,1.64982374,1.5324654599999998,1.7532002199999996,0.059841436600000006,-1.011746193,-0.013614243999999998,-0.9898441410000001,0.98891971,0.6213343219999999,-1.3327518299999999,0.05824842136799999,-2.936072296,0.20277939400000006,0.301861865,86.41306110000001,0.23308662250638007,-2.647601008415222,-5.488521385192871,0.03647085627110367,2.62360707,2.4005348800000004,2.7157904900000003,0.080465924,-0.657692256,-1.41469991,0.39764048899999993,0.278215395,2.6303533700000004,-0.54112763,2.7366740800000002,0.32330100200000006
5694.5,1.6499145599999998,1.53264438,1.75331537,0.0605168025,-1.0374738200000002,-0.014060747870000001,-0.991378564,0.9863265670000002,0.621528578,-1.3419857000000002,0.059526578100000005,-3.55017256,0.20400115,0.316909872,114.77159220000001,0.2209499381482601,-2.6480528116226196,-5.51093487739563,0.03636166622432218,2.62393987,2.3959636900000003,2.7192379,0.08301398799999998,-0.6629519100000001,-1.4497555500000003,0.35874006699999994,0.282446948,2.6328789000000006,-1.15204342,2.7362039000000005,0.337348657
5704.5,1.65015006,1.5312547,1.75382298,0.06191910500000001,-1.067755305,-0.014239940886999999,-0.9899143519999999,0.987588247,0.623182489,-1.35498952,0.05620989930000001,-3.5513823800000006,0.20370958300000003,0.35158812399999995,91.2986094,0.2636475872248411,-2.6522300958633425,-5.5056078910827635,0.036252462386340244,2.62830232,2.3978054699999998,2.7274943,0.0855007318,-0.659839391,-1.3663692,0.5480661660000001,0.29570329000000006,2.6298331800000003,-1.1606430600000002,2.74369176,0.37340383699999996
5714.5,1.6504632799999999,1.53249302,1.7536315400000002,0.060786898199999995,-1.0395435819999999,-0.02179765595,-0.991062505,0.9891178070000001,0.6239650529999999,-1.34777328,0.05749143530000002,-3.55693969,0.20441890499999998,0.333411998,101.2637891,0.2371037244796753,-2.6531166791915894,-5.482122611999512,0.03614353865036109,2.62957087,2.39615613,2.7272835199999994,0.08229251010000001,-0.6512617790000002,-1.24494911,0.539740209,0.306086905,2.63431269,-1.14447193,2.74135659,0.354822687
5724.5,1.64922935,1.5314278599999998,1.75324363,0.060720171899999995,-1.0233574709999997,-0.019991610899999998,-0.9907312879999999,0.9871076649999999,0.6172719369999999,-1.3320658900000002,0.0634397505,-2.9767637970000003,0.20450412399999998,0.271636743,102.3659919,0.17506547458469868,-2.6574639558792112,-5.487952709197998,0.03603515131244442,2.63397887,2.40163401,2.72917813,0.08286104090000002,-0.6515262920000001,-1.47631672,0.46359453000000006,0.290203676,2.64569699,-0.57123208,2.7430470600000003,0.292579806
5734.5,1.6493580800000003,1.52990589,1.7543388200000003,0.06128682910000001,-1.0060603300000002,-0.022956027299999997,-0.9842337600000001,0.987830515,0.6253354229999999,-1.3520035499999998,0.05391806423000001,-2.938660339,0.203822117,0.316136149,79.04719750000002,0.2539061916992068,-2.6674636363983155,-5.497355651855469,0.035927134983441036,2.6440005300000005,2.4023537900000003,2.7383907800000005,0.08190878600000003,-0.6528655070000001,-1.39538272,0.6328289789999999,0.31176893800000005,2.63790726,-0.5423586,2.74781945,0.33839791500000005
5744.5,1.6506784600000004,1.5326906,1.75349785,0.0609189309,-1.0680053859999998,-0.00884089374,-0.9896477339999998,0.988051411,0.629436018,-1.3470511699999999,0.057088997399999994,-3.564271253,0.20423424199999998,0.3427075,102.07798110000002,0.25735037699341773,-2.6550652027130126,-5.470174837112427,0.03581978580550914,2.6320189000000003,2.40837278,2.7305503300000002,0.08168599950000001,-0.643208605,-1.27845624,0.7040715019999999,0.338711542,2.63926981,-1.15449073,2.7499580900000002,0.363870069
5754.5,1.65084996,1.5317826099999998,1.75382227,0.06110010680000001,-1.063035237,-0.028233664609999997,-0.9919431470000001,0.9902831460000001,0.6209572999999999,-1.34616188,0.0449443214,-3.8575714500000005,0.20349396400000003,0.4009547619999999,94.52289640000001,0.3407376319169998,-2.6536824226379396,-5.500490140914917,0.03571297539574721,2.63043238,2.40511582,2.7319728299999992,0.0849283039,-0.6508346370000001,-1.29048249,0.555557079,0.295466493,2.6296109100000002,-1.4467829,2.7559054100000004,0.42470713700000007
5764.5,1.6495260900000002,1.53157528,1.7550096599999996,0.0605492287,-0.990074981,0.0018298179400000002,-0.993323919,0.9894837799999999,0.6196814959999999,-1.3413496199999997,0.0409668431,-3.5765037399999997,0.202737657,0.41510736000000004,75.05914120000001,0.38037117682397364,-2.6531293392181396,-5.516918897628784,0.03560629723311466,2.6298261899999997,2.38743231,2.7328439199999996,0.08786444739999999,-0.6542797149999999,-1.3111248500000001,0.41778872300000003,0.27197123199999995,2.63045108,-1.1598791099999999,2.76724613,0.43868549100000004
5774.5,1.6495895,1.5324620699999998,1.75361543,0.0606489524,-1.043484995,-0.015518851150000002,-0.9916462149999997,0.9871237960000002,0.6283366650000001,-1.35143398,0.049211700500000004,-3.5671935249999995,0.20342687699999998,0.364580678,82.94346480000002,0.28333305679261683,-2.6510801792144774,-5.501821851730346,0.03549959778727692,2.6280591000000006,2.3837019600000007,2.7354469500000005,0.09125086680000001,-0.6482766339999999,-1.19649435,0.7078591580000001,0.339225061,2.64084045,-1.1561979500000001,2.75924924,0.388041454
5784.5,1.6499214000000002,1.5324268099999998,1.7535775299999998,0.06066032810000001,-1.0231957160000003,0.007787642195,-0.9908703859999999,0.990087831,0.6236575390000001,-1.3262462400000001,0.0496374577,-3.557184333,0.204050698,0.35196274299999997,93.5364196,0.27190030328929427,-2.6607525825500487,-5.437678289413452,0.035393894238154075,2.63853347,2.3895035600000005,2.7439747700000003,0.09132958769999999,-0.6275942349999999,-1.2349596299999999,0.721380898,0.352902326,2.64231689,-1.1527382899999998,2.75966089,0.3763892019999999
5794.5,1.6497840400000001,1.53270826,1.7536915100000001,0.060475853200000006,-1.0479395229999997,0.005834449595000001,-0.990514063,0.991052503,0.63012669,-1.37050105,0.0554783994,-3.5577961200000003,0.203141996,0.3221978850000001,112.1712354,0.22508550584316253,-2.666001486778259,-5.55961971282959,0.035288718912450875,2.6426116800000004,2.4096100799999998,2.7457208900000003,0.0896009725,-0.662617759,-1.7418901400000002,0.37855779999999994,0.278615145,2.64944226,-1.14078497,2.7621085599999997,0.344996532
5804.5,1.6497887300000003,1.5327407199999998,1.7537733500000001,0.060618630900000005,-1.0375405800000002,-0.0079334289,-0.989990274,0.9909223199999999,0.623360798,-1.3428394099999998,0.05260168260000001,-3.2378773499999993,0.20327068399999998,0.350976104,69.17724899999999,0.2794616619125009,-2.6686806678771973,-5.530566692352295,0.03518308073241935,2.6457185900000004,2.40426005,2.74693907,0.08737547139999999,-0.6524498970000001,-1.44739965,0.524403578,0.29634307400000004,2.64914228,-0.82499763,2.75942966,0.3747145194
5814.5,1.6488318,1.5325410800000001,1.7531457499999998,0.05954842130000001,-0.964438586,-0.00783492485,-0.9865738420000001,0.987083016,0.6207880159999999,-1.35873216,0.06432894569999999,-3.204181763,0.203456079,0.290752066,99.9205445,0.19401488974690437,-2.6775837182998656,-5.531141567230224,0.03507778921552099,2.65473676,2.4172495300000003,2.74898661,0.08449012139999998,-0.651139873,-1.22733586,0.47518823050000003,0.276170174,2.6676974099999997,-0.7828346300000001,2.76877278,0.31045474800000006
5824.5,1.65096473,1.5317132,1.75420736,0.06158887519999999,-1.0659187940000001,-0.038772350299999994,-0.99170863,0.987041216,0.621240748,-1.33530492,0.0570501508,-3.52596639,0.20376295400000002,0.32800393,108.9042655,0.244180329144001,-2.6782668828964233,-5.545450735092163,0.03497270330026414,2.65538983,2.415660119999999,2.75505054,0.0867761906,-0.6539357020000001,-1.27677577,0.405181119,0.262758795,2.65524951,-1.12056136,2.77273222,0.351167723
5834.5,1.65062824,1.5344931000000002,1.7530537499999999,0.0607232115,-1.1060388499999998,-0.0003086430000000001,-0.9921669449999999,0.9904155029999998,0.6262847390000001,-1.3512098,0.057433529399999995,-3.217885159,0.203262146,0.338903438,75.18488618,0.26505663003772495,-2.6794953107833863,-5.561076545715332,0.03486804036505194,2.6565769599999998,2.4287868,2.7541373800000004,0.08288125429999998,-0.6571072490000001,-1.5925129599999999,0.46563276899999995,0.2969406680000001,2.65856426,-0.7870810200000001,2.76828648,0.359728124
5844.5,1.6505055300000002,1.53141477,1.7545606600000003,0.0608181453,-1.037790797,0.0009157387049999993,-0.990280841,0.9904239350000001,0.620857385,-1.3393025799999996,0.0343796711,-3.85838114,0.203257631,0.44806366499999994,68.56977509999999,0.4096186637878418,-2.6698236227035523,-5.55831618309021,0.03476349962326477,2.64705336,2.40002525,2.74803455,0.0863493095,-0.654808551,-1.52264444,0.5213301450000001,0.289859213,2.63713786,-1.44165332,2.7720078,0.47501689299999994
5854.5,1.64921763,1.53325357,1.7533113699999998,0.0603760885,-1.015404365,-0.011920028359999998,-0.987964429,0.9867650379999999,0.6220239949999999,-1.3632341399999999,0.06945446229999999,-2.89999072,0.204197752,0.253134253,106.37666569999999,0.15818686485290528,-2.6696998357772825,-5.571081495285034,0.03465919536403016,2.64691747,2.39824135,2.7513083400000005,0.09048863650000001,-0.6571268880000001,-1.22882271,0.537293198,0.28613232,2.6789221700000003,-0.4767830100000001,2.77385614,0.271615432
5864.5,1.6493176200000004,1.53237289,1.75389974,0.06084190460000001,-1.030838724,-0.024299611776000003,-0.9903355159999998,0.98847892,0.61977039,-1.3332772499999999,0.0483946117,-3.8594045199999996,0.20429079100000003,0.36445713500000004,114.0929241,0.2835455685853958,-2.6916621208190916,-5.560581302642822,0.034555182807894866,2.66910707,2.42318334,2.7736244400000003,0.091184197,-0.65252711,-1.36977565,0.648382088,0.311708921,2.658979,-1.42840859,2.7797212200000003,0.38795048299999996
5874.5,1.65074991,1.5329306599999997,1.7534615800000002,0.060160649,-1.0250990730000002,-0.0357362119,-0.991790703,0.990048853,0.622128436,-1.3332272500000002,0.052512664060000006,-3.85909507,0.203279371,0.3567035529999999,114.1688267,0.26919095665216447,-2.68046293258667,-5.567506122589111,0.03445168515990304,2.65795551,2.4222567899999996,2.75895042,0.08702515289999999,-0.653108974,-1.34718954,0.5005750680000001,0.298519267,2.66150438,-1.4254088499999997,2.77808793,0.379989812
5884.5,1.6503807600000002,1.53199688,1.7539105099999996,0.060435002700000004,-1.0161778399999999,-0.014845629359999998,-0.9909905350000001,0.9866959319999999,0.6148659819999999,-1.32663553,0.052344402899999996,-3.8522731400000003,0.203758354,0.347839274,112.308134,0.25013953596353533,-2.68004732131958,-5.596422243118286,0.03434838700685502,2.65736291,2.4252530900000004,2.7588824799999996,0.08795495099999999,-0.6602176959999999,-1.42465336,0.45831720899999995,0.282268364,2.6647636399999994,-1.4262656200000001,2.7853392200000004,0.37290505500000004
5894.5,1.64966899,1.53304045,1.7536249899999998,0.060044214000000005,-0.9901591260000002,-0.011943641299999998,-0.9915686459999999,0.9912773890000001,0.6213252930000001,-1.3334134199999998,0.04158087895,-3.87440343,0.203665077,0.414115038,80.51305440000002,0.35072666555643084,-2.680998134613037,-5.5133451461792,0.03424556350024886,2.6592762700000003,2.4197401700000003,2.7630493600000006,0.09001935459999999,-0.634114663,-1.2946163,0.5606075689999999,0.310244498,2.65765362,-1.4324181599999999,2.7817321600000007,0.43890294799999996
5904.5,1.6502748,1.5333110200000002,1.7532683199999997,0.060176934,-1.0312318619999998,-0.017593790069999997,-0.9918566199999999,0.9902781,0.629811984,-1.3706462899999998,0.059708830899999996,-3.55346945,0.203786565,0.32868845799999996,112.4820952,0.2413882151246071,-2.685555362701416,-5.596730136871338,0.03414348544313489,2.6631040199999996,2.42057813,2.76794515,0.09171380509999999,-0.657363881,-1.58778566,0.2042961355,0.23345661499999998,2.67787869,-1.10311748,2.78493264,0.34924467859999997
5914.5,1.6504936300000002,1.53232569,1.75336769,0.0605997586,-0.988073876,-0.00823984904,-0.9880613400000001,0.9899760740000001,0.6348059009999999,-1.3917901499999998,0.05771245629999999,-3.5719567,0.203666442,0.332266635,103.5386712,0.23392585180699826,-2.692189264297485,-5.591142320632935,0.03404120056611608,2.6699109899999995,2.42382744,2.77387883,0.09215602399999999,-0.6542438110000001,-1.2206478,0.5315139529999999,0.301309076,2.6757573299999997,-1.13294121,2.78268814,0.35524941100000007
5924.5,1.6495162799999998,1.53087777,1.7542219499999998,0.06142285800000001,-1.006305457,-0.0443146297,-0.9888254570000001,0.9865804040000002,0.622895161,-1.32684303,0.0571760968,-2.640567803,0.20354813500000005,0.28491553240000006,67.493156,0.2123023834079504,-2.6928056478500366,-5.58567967414856,0.033939297562639456,2.6706992400000003,2.43101214,2.7703525300000003,0.0896600721,-0.651159085,-1.3270738299999998,0.44832079399999997,0.29670416999999993,2.67998411,-0.21592452,2.78706342,0.3102338744
5934.5,1.65006551,1.53121618,1.7539178,0.06123313239999999,-1.028495811,-0.033245943454999996,-0.9901884799999999,0.9878124400000001,0.6176166089999999,-1.32241821,0.05110927696999999,-3.525299554,0.20420192100000004,0.36273234299999996,96.6404119,0.3002505414187908,-2.6993406772613526,-5.618961668014526,0.03383769722365506,2.6770172799999994,2.4407208700000003,2.7790801299999996,0.08947893409999999,-0.6595262290000001,-1.55863943,0.34927211,0.261413942,2.67349414,-1.0784476700000003,2.7946958200000003,0.3854905206
5944.5,1.6495317799999998,1.5346887100000002,1.7527506800000001,0.0600968199,-1.0266430000000002,-0.022627403540000004,-0.99194369,0.9909812,0.6130270269999999,-1.31349273,0.051855214527999995,-3.546689433,0.20395070799999998,0.35320976899999995,98.20978629999999,0.277675661444664,-2.699341130256653,-5.590641975402832,0.03373626312453394,2.67741617,2.44234419,2.77486632,0.0862090168,-0.6497000930000001,-1.2098714499999998,0.410041001,0.268394875,2.6794813399999997,-1.09958891,2.7991870400000005,0.376090176
5954.5,1.65008857,1.53286237,1.75315859,0.06011324280000001,-1.011030965,-0.0218594025,-0.9904982030000001,0.9881768,0.6128882259999999,-1.3053048899999997,0.047011559800000005,-3.8657598099999992,0.20311814199999997,0.402638999,92.8420722,0.33620772659778597,-2.689410591125488,-5.614489364624023,0.033635169918787206,2.66736358,2.4236744700000004,2.7706781400000002,0.0904905138,-0.6552733,-1.32918575,0.43870406700000003,0.309655551,2.6740654499999996,-1.4247076800000003,2.7941924800000004,0.4262305209999999
5964.5,1.65107475,1.5339490799999997,1.75342537,0.059562377199999995,-1.043759253,-0.0005414327399999981,-0.991032564,0.991174588,0.6232522690000001,-1.35959698,0.06298664569999998,-2.9073373569999994,0.20209006300000004,0.3032367715,75.4400346,0.22941755913197995,-2.696901273727417,-5.571723508834839,0.03353445161993812,2.67539199,2.4378976,2.7834003500000004,0.09192960609999999,-0.6412135809999999,-1.22603183,0.601278947,0.31977020100000003,2.69003168,-0.4729836100000001,2.7950699099999996,0.326741136
5974.5,1.6512810900000001,1.5320203799999998,1.75407914,0.060912735499999995,-1.006076219,0.0001590022200000006,-0.991698768,0.9903876049999999,0.6334996339999999,-1.39601248,0.038875298415,-3.566430416,0.203456822,0.41318458500000005,72.1982558,0.37593762427568433,-2.7022930860519407,-5.615873384475708,0.03343442530167379,2.68046188,2.42929282,2.78917454,0.09315741000000001,-0.6527620730000001,-1.38686869,0.42478306700000007,0.29021299,2.66604916,-1.13132674,2.7954361,0.4404406740000001
5984.5,1.65008666,1.53244187,1.75324098,0.0610794575,-1.0600157199999998,-0.007813270716,-0.9900793059999999,0.990090321,0.6196514710000001,-1.3382890099999998,0.0625486165,-3.523692835,0.20306023,0.30053876499999993,126.77767429999999,0.20638835076242684,-2.693896675109863,-5.618503093719482,0.03333447450395417,2.67215342,2.42972924,2.7772308000000003,0.09076163929999999,-0.652080891,-1.22155903,0.6814012509999999,0.314262234,2.6952016599999995,-1.0813053,2.7988046100000004,0.32322552
5994.5,1.6511193900000003,1.53190018,1.75385169,0.0604970773,-1.01880758,-0.04088750457,-0.9906858869999999,0.9903910939999999,0.6170153660000001,-1.3473599399999998,0.060707375800000005,-2.964140973,0.203039032,0.29480360860000004,93.56700289999999,0.22454867400228978,-2.7061694383621218,-5.6089893817901615,0.03323480421794744,2.6846326099999995,2.44140212,2.79039615,0.09257747559999999,-0.6478314680000001,-1.3144362199999997,0.545019175,0.30808531899999997,2.69365564,-0.5261148800000001,2.8037092899999996,0.3193468716
6004.5,1.6500829,1.53146553,1.7541446,0.0597980139,-1.007378381,0.002124783289999999,-0.9925898179999999,0.98999385,0.6273578870000001,-1.35833604,0.0501212477,-3.8707565800000006,0.202691241,0.391409983,93.41081559999999,0.31492764353752134,-2.720259690284729,-5.63949065208435,0.03313542026625147,2.69853825,2.44765955,2.7973750600000002,0.0877151105,-0.6553373959999998,-1.3804825400000003,0.523165273,0.31499486900000007,2.68849421,-1.42105552,2.8027553299999997,0.415059106
6014.5,1.64919035,1.53165645,1.753558,0.06061204690000001,-1.0218580400000001,-0.036644137099999995,-0.989493107,0.990044318,0.619478428,-1.34917671,0.0532088765,-3.8459480299999997,0.20269358600000004,0.34712376199999995,128.1110286,0.2702141761779785,-2.7104526281356813,-5.5878880500793455,0.03303633106093855,2.68934431,2.45259408,2.7872991700000003,0.086108667,-0.638749689,-1.21848494,0.72874749,0.347240099,2.69512055,-1.41449778,2.80802494,0.37143839500000003
6024.5,1.6504659499999998,1.53248085,1.7541828000000002,0.06039292580000001,-1.041360585,-0.022338621130000003,-0.9857416320000001,0.9890182600000001,0.612427321,-1.32638233,0.0484454952,-3.8742522799999994,0.20255578999999999,0.395366443,88.2155118,0.31682165861129763,-2.7037545442581177,-5.6463398933410645,0.032937723635400915,2.6821920300000004,2.4269466,2.7867626199999997,0.0917904069,-0.6544429989999999,-1.19836527,0.5100082130000001,0.300398579,2.68888221,-1.403602,2.8064633300000006,0.41956337800000004
6034.5,1.6508843800000002,1.5319691199999999,1.7538096199999997,0.061159937799999994,-0.9929075669999999,-0.0084092857,-0.9923308240000001,0.987468039,0.6220308739999999,-1.35492119,0.0493553589,-3.5620552599999997,0.203868363,0.37783431500000003,78.66537389999999,0.3038078062236309,-2.704926633834839,-5.575127172470093,0.03283949534477906,2.6841612699999997,2.4297282099999995,2.79556385,0.0954183457,-0.6321449979999999,-1.24371647,0.718004752,0.348279756,2.6884097099999997,-1.11500922,2.8107585100000003,0.40443866800000006
6044.5,1.65008741,1.53127142,1.753631,0.061609616,-1.002664945,-0.017463224000000006,-0.991437103,0.9875087949999999,0.62015383,-1.3447495799999998,0.066516463,-2.6683343319999997,0.20473881300000002,0.24919025599999997,87.8983696,0.14991834051907063,-2.7182321310043336,-5.63026533126831,0.03274180044127682,2.6970464499999998,2.44648397,2.8052613999999996,0.09500395910000001,-0.646853847,-1.4182033399999998,0.449023053,0.297624918,2.70984246,-0.2137184199999999,2.81143987,0.27522872900000006
6054.5,1.65003529,1.53294846,1.7531099799999996,0.0612273384,-1.031960847,-0.040142728229999994,-0.9894179040000001,0.9897774199999999,0.624263773,-1.35748108,0.061878793499999994,-3.259102806,0.20392311600000004,0.28839334240000003,107.2650222,0.18740536384284495,-2.727436089515686,-5.670004081726074,0.03264415959003351,2.70598163,2.46979023,2.80635369,0.0891764149,-0.657028079,-1.6072511400000002,0.311845208,0.285644578,2.70933725,-0.8049544199999998,2.8150580699999996,0.312013429
6064.5,1.6499133699999997,1.53403073,1.75418577,0.0612182542,-1.06874969,-0.03493647994,-0.9923452639999999,0.989578617,0.629198707,-1.35517898,0.05934138709999999,-3.84653173,0.20414413400000003,0.331198699,132.036381,0.22981935143470764,-2.7252248764038085,-5.629470872879028,0.03254653351932334,2.7042669399999992,2.46063876,2.80306563,0.086816689,-0.6437442520000001,-1.1872783999999998,0.447630527,0.297261055,2.70835662,-1.4016489699999999,2.8164368099999995,0.354437388
6074.5,1.64960334,1.5325680999999998,1.75411092,0.06121599670000001,-1.01461325,-0.0297658266,-0.986681961,0.9876448090000001,0.623673177,-1.35063324,0.035899978900000004,-3.5741089600000002,0.203268414,0.413425453,71.41389930000001,0.37874897830188275,-2.7168145418167113,-5.689839887619018,0.032449247408938495,2.6953941199999996,2.44933899,2.7973726500000002,0.08975866839999999,-0.659921465,-1.5063941499999998,0.339668368,0.276513686,2.6880407899999996,-1.10858084,2.81908472,0.44262635699999997
6084.5,1.6504092199999998,1.5325883599999996,1.7536536299999999,0.0606534982,-1.0326466,-0.0405492748,-0.9883403450000001,0.987033076,0.6180537669999999,-1.3343392,0.0500417901,-2.984385186,0.202473385,0.33803516799999994,67.3104783,0.28431164026260375,-2.711918592453003,-5.644385099411011,0.03235205986897046,2.6910380700000003,2.44011122,2.8001254600000003,0.09455529339999999,-0.6452201049999999,-1.30894325,0.4732981479999999,0.308371022,2.70259092,-0.52300374,2.8187041000000006,0.363612569
6094.0,1.6506868444444445,1.5324073999999999,1.7532020888888888,0.06041886633333333,-1.0502004366666668,0.0008243268666666662,-0.9861363722222222,0.9926716955555557,0.6301500511111111,-1.3780322444444442,0.05488771862222223,-3.1554237411111106,0.20410901555555558,0.3453080511111111,78.19827933333335,0.29612158570024705,-2.7177673710717096,-5.663988431294759,0.03226015785236494,2.6968058,2.4379418888888886,2.809710111111111,0.09825626888888889,-0.6495673144444444,-1.2998864555555554,0.5429964599999999,0.3219164477777778,2.7084446666666664,-0.6826103333333335,2.8228701333333337,0.3679082888888889
9904.5,1.6487743599999998,1.49418387,1.7577330500000001,0.06523004099999999,-0.33560454089999997,0.03291872178,-0.987760186,0.9927260450000001,0.6287835820000001,-1.3590243,0.05501615790000001,-3.54056588,0.21299786000000004,0.3453077705,99.1235657,0.2652425715699792,-3.1795905590057374,-6.690516614913941,0.010435290708238188,3.1747211500000003,2.57209363,3.3651812,0.201498659,-0.46648600000000007,-1.7485877000000003,2.50063017,0.782419199,3.18291624,-0.8624510899999999,3.3903081,0.42944251400000005
9914.5,1.64810734,1.49388886,1.7574142200000005,0.065137163,-0.410473244,0.028660254599999997,-0.996822435,0.9943686459999999,0.631372904,-1.3524566100000002,0.045118996,-3.5396383799999995,0.211145427,0.384587485,77.438319,0.32971481159329413,-3.17911810874939,-6.658423614501953,0.010406006016971303,3.17434555,2.5836367,3.37012783,0.205571506,-0.4585429690000001,-1.7727497700000001,2.3963754600000002,0.744333108,3.1736500100000002,-0.85155305,3.3924439399999997,0.469040985
9924.5,1.6482228300000004,1.49849061,1.7583401200000002,0.063988698,-0.3950288367,0.011698908974000001,-0.993957769,0.9949549730000001,0.625369047,-1.34304209,0.0596500987,-3.53965873,0.206767031,0.33081369660000004,105.61894,0.24220542162656783,-3.1872368335723875,-7.04451584815979,0.010376623173898255,3.1816091999999996,2.5742200900000003,3.37466898,0.202173321,-0.5421755079999999,-2.2248605899999996,2.1135668300000003,0.619055594,3.19592803,-0.8549349699999998,3.39217177,0.411632439
9934.5,1.6483072,1.49245375,1.7572558299999996,0.06503635569999999,-0.24686574504999997,0.0022660843599999984,-0.9916114400000001,0.994914198,0.6205163619999999,-1.35185737,0.05604027036,-3.5458574600000006,0.210263447,0.330681811,106.57239050000001,0.24499715641140937,-3.1926006078720093,-7.04382905960083,0.010346674339927918,3.1870011099999997,2.5709821600000002,3.37649349,0.203790635,-0.541046422,-2.1252680299999995,2.25463938,0.678921883,3.18823545,-0.84474716,3.39268095,0.414716359
9944.5,1.6482584,1.49729893,1.75750779,0.06382840409999999,-0.430702839,-8.416239999999905e-05,-0.989554876,0.995470936,0.6333562890000001,-1.3610860100000002,0.056106012,-3.5765005200000006,0.20917408400000004,0.34277466,102.48303200000001,0.2584577813744545,-3.193909692764282,-7.0163750648498535,0.010316492307069002,3.1883983500000004,2.58286668,3.3728490800000004,0.19644042599999997,-0.534064229,-1.68781888,1.9487788900000003,0.617672486,3.1920194899999994,-0.8526268100000001,3.3956297399999995,0.42337207199999993
9954.5,1.6485044099999997,1.49374134,1.75641045,0.0648611707,-0.3329559566,0.015980562499999997,-0.9899415519999998,0.9944046930000001,0.6264225189999999,-1.3449216,0.05402659700000001,-3.8621676799999998,0.21106086000000004,0.364036697,111.84518270000001,0.27964258641004563,-3.1894603967666626,-6.563714599609375,0.01028659314878081,3.1849924399999994,2.5804718799999997,3.3730169800000005,0.20089694100000002,-0.434190192,-1.61995838,2.7526012499999997,0.836882642,3.1882703899999996,-1.13421833,3.39771614,0.441023429
9964.5,1.6478631799999999,1.4926967899999999,1.7588774600000001,0.0643445884,-0.15354044400000003,0.013639163999999999,-0.9954491260000001,0.99617387,0.6228037860000001,-1.32835505,0.0482304245,-3.2483223200000007,0.20979266099999996,0.3524062724,70.5005614,0.28316835016012193,-3.1913251638412476,-6.455791664123535,0.010258029205796274,3.1871213299999996,2.5548502799999997,3.3726882,0.20168440700000004,-0.40973301599999995,-1.90824171,2.69035626,0.853317533,3.1884745800000003,-0.59399709,3.39645053,0.444568338
9974.5,1.6480954899999998,1.4922267599999999,1.75858275,0.06533414029999998,-0.42941151600000005,0.0123743815,-0.991369637,0.9959881899999999,0.627577754,-1.3394954000000001,0.0537056821,-3.5514013849999997,0.20770662299999998,0.339327971,100.111785,0.24842641986906527,-3.18231201171875,-6.607797336578369,0.010230077846376397,3.17778861,2.5413672700000003,3.37541587,0.21061049599999998,-0.44206847,-1.91989426,2.30457807,0.7512438720000001,3.1890208299999996,-0.8818704000000002,3.4000002799999995,0.42725219699999994
9984.5,1.64774612,1.4958581399999997,1.75749631,0.0644899256,-0.2352028395,0.01778147064,-0.9899822460000001,0.995025186,0.623288662,-1.34565887,0.06532782009999999,-3.55621471,0.209281424,0.31024607699999995,121.7231447,0.2038921222090721,-3.2028939723968506,-6.880263710021973,0.010201831071576824,3.19778551,2.6011404000000002,3.38756238,0.20435852800000004,-0.500627181,-1.9739834600000001,2.2659338,0.6742895179999999,3.20735576,-0.8638024200000001,3.39882554,0.389159555
9994.5,1.6492561799999996,1.4953925799999999,1.75735906,0.06463006959999999,-0.426063027,0.017619097299999997,-0.993564407,0.995900821,0.627126371,-1.3322816000000002,0.060709675500000004,-2.99514005,0.208078605,0.29550834400000003,83.39895770000001,0.20506553463637828,-3.198376703262329,-7.1225823879241945,0.010172805671660083,3.1927543799999993,2.5847322700000004,3.3823161299999995,0.200608299,-0.552521135,-1.68668561,2.0559190700000003,0.575571183,3.19267158,-0.28221515,3.40285089,0.387018404
10004.5,1.64810951,1.4915239200000001,1.75852611,0.0653990837,-0.28185482159999997,0.02273899174,-0.9870069590000001,0.9948220799999999,0.62278795,-1.32219715,0.0509511464,-3.54843848,0.211940866,0.34992556900000005,105.16954989999999,0.2793560914695263,-3.191750192642212,-7.039083576202392,0.010143115158394021,3.1863386599999997,2.5794077399999997,3.3721217799999996,0.199205005,-0.5333491689999998,-1.8679255099999998,2.3531756800000005,0.6674618069999999,3.18929118,-0.85314142,3.40121435,0.436539666
10014.5,1.6482381199999998,1.4979463,1.7567932499999999,0.06354015949999998,-0.4231792280000001,0.0319190187,-0.990714408,0.993567148,0.628513122,-1.3450825599999998,0.062580201,-3.825916569999999,0.20720000700000002,0.320486162,137.2148386,0.21932716220617293,-3.1992187976837156,-6.462836647033692,0.010113744367917208,3.1951015299999996,2.57666696,3.3838209,0.20007872799999998,-0.40693851300000006,-1.86474641,2.7780484500000004,0.836986177,3.20617501,-1.16205749,3.40676658,0.40051577
10024.5,1.6484762200000003,1.4899849900000002,1.75888148,0.065501703,-0.30658188049999996,0.039240835550000006,-0.989668799,0.9955242459999999,0.640000294,-1.38458437,0.05108355760000001,-3.224875519,0.209480404,0.35751993150000005,71.26987890000001,0.29842236414551737,-3.200480008125305,-6.365092182159424,0.010085801524744203,3.1965976,2.57482448,3.3890772499999997,0.205443284,-0.3848164540000001,-1.98644359,2.83634867,0.927894,3.18886842,-0.5243165599999999,3.40675097,0.447068143
10034.5,1.6486619800000004,1.4914937199999998,1.75730109,0.0660636577,-0.3001483825,0.0238116283,-0.9922710350000001,0.9930746340000001,0.6263941709999999,-1.3663185599999998,0.053949872799999986,-3.2516251699999996,0.20865634699999996,0.328418384,86.2952229,0.2478953655809164,-3.1876770496368407,-6.191726350784302,0.010058758169147662,3.18419236,2.57290874,3.37504941,0.204877419,-0.346312613,-2.14523509,2.4997988899999997,0.9255098119999999,3.18932078,-0.55083194,3.4063833699999995,0.42074391699999997
10044.5,1.6481559100000003,1.4932642399999998,1.75872975,0.0656451355,-0.339181514,0.0153973155,-0.9891314779999998,0.9941677209999998,0.6281149930000001,-1.3519367800000002,0.044651434010000005,-3.54138886,0.20779810099999999,0.381157974,83.63055560000001,0.3266999442130327,-3.19250431060791,-6.04870228767395,0.010032643340056258,3.18934882,2.56395421,3.37957781,0.20614950499999996,-0.31445788599999996,-2.27671623,2.71112952,0.9683131170000001,3.1856671400000005,-0.87560547,3.4093675599999997,0.47108399900000003
10054.5,1.64791321,1.4904251599999998,1.75810259,0.06516791009999999,-0.14577653799999998,0.021894173099999997,-0.9926657320000001,0.99485177,0.6255550910000001,-1.3656020400000002,0.0704235626,-2.9102848889999997,0.21031856399999999,0.24712277140000002,104.26528929999999,0.1459554150700569,-3.203428864479065,-5.915383386611938,0.010007135050901724,3.2005783300000004,2.5504092099999998,3.3871035,0.205056992,-0.284778341,-2.46411158,2.6385655800000003,0.9687082969999998,3.21672162,-0.22709098,3.40816809,0.337546516
10064.5,1.6480367399999998,1.49277901,1.7587890099999999,0.0644335067,-0.3147778565,-0.00032117730000000045,-0.9943620080000001,0.9931622279999999,0.631042412,-1.3639178399999998,0.0673161452,-2.9283904300000003,0.206670599,0.267093618,97.6805339,0.17138166949152947,-3.2245834112167358,-5.764442729949951,0.009982278184272454,3.2220743299999994,2.60350886,3.39885094,0.19145070599999997,-0.251312458,-2.86444958,2.78619619,1.005830035,3.2134063499999996,-0.24241668,3.4085144200000004,0.35708629700000005
10074.5,1.64781096,1.4906232,1.7581439700000001,0.06476944570000001,-0.17581724520000003,0.013697567506000003,-0.991388849,0.994621364,0.628277526,-1.35240358,0.0650477398,-2.6305891800000003,0.20863567600000002,0.26674700580000005,74.98833089999998,0.18257138496264816,-3.212304472923279,-6.231719017028809,0.009957590750349792,3.2087984299999994,2.59427886,3.378668770000001,0.187994881,-0.35202369599999994,-2.2459051,2.62284982,0.9007807900000001,3.2141471299999997,0.07727385999999994,3.4112722499999997,0.360825445
10084.5,1.6488080600000004,1.4975027300000001,1.75712076,0.0640351809,-0.4256996375999999,0.03406244724,-0.991240192,0.9950104530000001,0.626863915,-1.34515752,0.0643410327,-3.174395634,0.20751217299999997,0.283772672,109.74731526000002,0.19732462335377932,-3.2138998985290526,-6.40608320236206,0.009932057282877185,3.21003476,2.6169462900000005,3.3885188,0.19329295600000002,-0.38908121199999995,-2.18543024,2.66311154,0.864909245,3.2112303300000007,-0.5065275400000001,3.41270009,0.37470675
10094.5,1.6480698,1.4929939399999999,1.7570134,0.0644820571,-0.3757976824,0.01954384426,-0.991123808,0.995395841,0.633091355,-1.36624043,0.06417933423,-2.9625270729999995,0.20873426199999998,0.280000488,96.9163637,0.19772717244923116,-3.2243268966674803,-6.682247638702393,0.009905652445424108,3.2198868,2.61962485,3.39984775,0.19384034,-0.448133832,-2.2391744100000004,2.8330057300000004,0.8663904460000001,3.2167922600000005,-0.24452471,3.41241949,0.36962435000000005
10104.5,1.6488017399999997,1.49254845,1.75913091,0.06470790090000002,-0.27456734726,0.015118538160000004,-0.986752639,0.9931227859999998,0.629546744,-1.3660203899999999,0.059394749700000006,-3.2196525,0.20882983300000002,0.3195383091999999,82.6481713,0.2456067545339465,-3.2046616077423096,-6.669240093231201,0.009878482716804476,3.20026979,2.5943411700000003,3.3882884200000007,0.198041523,-0.44445847899999996,-1.9799388600000003,2.6368893,0.8036305690000001,3.2050285400000007,-0.5084747500000001,3.4160310499999995,0.41030844
10114.5,1.6477247900000003,1.4918246199999998,1.75779752,0.06473349919999999,-0.3291320248399999,0.024164680599999995,-0.9904970540000001,0.9940685659999999,0.633474148,-1.35296145,0.05865616189999999,-2.96827415,0.209957496,0.3162756794,70.89140519999998,0.24161071702837944,-3.212945008277893,-6.840823650360107,0.009850831362265755,3.2082077899999994,2.58245304,3.3938954199999998,0.19892240499999997,-0.4807296419999999,-1.8167590800000002,2.67579507,0.7796536100000001,3.2142205000000006,-0.25938922,3.4183133900000002,0.40399478999999994
10124.5,1.64832988,1.4865423899999999,1.76152841,0.0652999965,-0.21009012500000002,0.033832566450000004,-0.986952574,0.991871881,0.6231428960000001,-1.34662748,0.051157513759999995,-3.545256403,0.20977194300000002,0.364482814,87.291042,0.2919157803058624,-3.202196550369263,-6.717033576965332,0.009823038593508592,3.1977452,2.54023223,3.3942142399999993,0.20673669700000002,-0.453038959,-2.33388413,2.9509335,0.840740188,3.2005724400000006,-0.8860755300000001,3.417771150000001,0.45504875800000005
10134.5,1.64735991,1.49127364,1.7579760500000003,0.0651209912,-0.18308289,0.027443541199999998,-0.9913374940000003,0.9927835679999999,0.625568141,-1.3371045,0.059497039918,-2.567218606,0.210339792,0.2804561726,64.5452644,0.2194797471165657,-3.215357756614685,-6.65254774093628,0.009795496202835898,3.21106408,2.5773208700000003,3.39788546,0.20408263799999998,-0.438214246,-2.00964591,2.6004776499999998,0.794176426,3.2180649000000003,0.10667311999999998,3.41797866,0.37522113199999996
10144.5,1.6482980899999997,1.49669947,1.75735934,0.06508101499999999,-0.38874372249999994,0.0434579898,-0.991467077,0.9930319249999998,0.6381947179999999,-1.39240226,0.0548236963,-3.5674886099999994,0.210778497,0.35079717400000004,99.1253737,0.26964341327548025,-3.2108993768692016,-6.772612810134888,0.00976814303767374,3.2063730599999998,2.60269647,3.39736711,0.20497079099999999,-0.46328088999999995,-1.9105484999999998,2.5348751399999996,0.76075447,3.2065588500000004,-0.8584829500000002,3.4198084800000004,0.437043949
10154.5,1.64815893,1.4913801600000003,1.7582301,0.0655065596,-0.13970587040000002,0.025663760860000003,-0.9905877310000001,0.9970862989999999,0.631545308,-1.37179803,0.05174014340000001,-3.56218609,0.209601425,0.36596318199999994,96.4000732,0.301725310087204,-3.206327128410339,-6.964595794677734,0.009740406181007005,3.2014181099999997,2.58485973,3.39565287,0.20673725799999998,-0.5038462149999999,-2.16280912,2.7602206199999997,0.7353505909999999,3.2050168300000004,-0.8625647100000002,3.42239982,0.45244369300000004
10164.5,1.6483794899999995,1.4818407899999997,1.7603680700000002,0.0655878925,0.1086737834,0.0007703658199999987,-0.98940231,0.994998374,0.624909716,-1.35254661,0.03420046495000001,-3.566074136,0.211195902,0.433102008,66.7027932,0.4094769679009914,-3.192394757270813,-6.723573541641235,0.009712478629560073,3.18801429,2.49375853,3.39294413,0.216514666,-0.45090137300000005,-1.74317563,3.00091467,0.823228737,3.18440157,-0.8782538499999999,3.42214614,0.525833465
10174.5,1.6471463199999998,1.48912671,1.7595146400000001,0.0665812042,-0.1873839314,0.0452967331,-0.9912275999999999,0.9960616840000002,0.6296423539999999,-1.35035785,0.060306160600000006,-3.2655874,0.21010795499999996,0.30406605600000003,97.76671960000002,0.21041936725378035,-3.1956664085388184,-6.7980187892913815,0.009684915878190582,3.1911515599999998,2.516184,3.40104994,0.224074515,-0.466065167,-1.99967317,2.7676819900000003,0.7899008999999999,3.2159464800000004,-0.52610878,3.42156845,0.394632945
10184.5,1.6483176499999999,1.48938849,1.75950226,0.06543426370000001,-0.1871201553,0.0348909513,-0.9847866530000001,0.995809195,0.626448321,-1.3511374899999997,0.05404137,-3.2655038759999995,0.20832274599999998,0.32899024,95.891468,0.2715048110112548,-3.2146562576293944,-6.933723211288452,0.009657298213910514,3.20988032,2.5560304599999997,3.4106058500000005,0.21512930299999997,-0.494413559,-2.09808398,2.34733473,0.7042552390000001,3.2111661500000004,-0.53714645,3.42375356,0.420333396
10194.5,1.6479195299999998,1.4899596699999997,1.7596061400000003,0.0647963022,-0.1772954577,0.0233191472,-0.9909426330000001,0.9918796139999999,0.625274891,-1.34450783,0.0446942352,-3.56950723,0.208109793,0.3789871779999999,99.4147553,0.3400154124945402,-3.2124905586242676,-6.8323579788208,0.009629539498365609,3.2079475299999998,2.5407040800000003,3.39854391,0.20713988999999997,-0.471655072,-1.84788158,2.5266302,0.746007037,3.20500336,-0.85748371,3.4246197,0.46939718899999994
10204.5,1.6477981499999999,1.4933084199999997,1.7570296799999998,0.06520128809999999,-0.33569551090000005,0.020105063050000004,-0.990264756,0.995146755,0.630418182,-1.36060015,0.055599446600000005,-3.2738284999999996,0.21012741899999998,0.32079156359999994,91.90883190000001,0.2328570479527116,-3.210766077041626,-6.914527130126953,0.009601882037166262,3.2060749100000003,2.5866748999999998,3.40158303,0.21015212099999997,-0.488432289,-2.3210893399999994,2.4560188299999997,0.747853587,3.21608098,-0.54224607,3.4277912600000002,0.41147027999999997
10214.5,1.6485008100000003,1.4859918,1.7597257800000001,0.0666368301,-0.1789861973,0.0123851022,-0.992086381,0.9956616429999998,0.637492969,-1.37233217,0.06267947630000001,-2.92022989,0.209043448,0.274085477,86.05718490000001,0.1771495185792446,-3.2089590072631835,-6.886479330062866,0.009574204161548782,3.2043478599999995,2.5479626000000004,3.4096300900000003,0.217738086,-0.48147569600000006,-2.0068308700000004,2.76017067,0.7727519939999998,3.21530677,-0.22240791,3.42836924,0.37493400400000004
10224.5,1.64753106,1.48603495,1.75991948,0.06555501119999999,0.054519882200000015,0.012010968510000001,-0.987540181,0.9949330269999999,0.627735645,-1.35966462,0.0576699891,-2.94770288,0.210467227,0.30767211250000004,78.58754590000001,0.23560385946184398,-3.2238628387451174,-6.810051345825196,0.009546721448937418,3.2194307699999998,2.5512434500000003,3.4086906100000007,0.208744482,-0.464126128,-1.9391363899999998,2.8183679400000003,0.7836317079999999,3.2186654700000004,-0.26877118000000005,3.4305083100000004,0.4046466570000001
10234.5,1.6490260799999998,1.4843125099999999,1.7590344500000001,0.06557749929999998,-0.0705549717,0.015217796716000001,-0.992505347,0.993010795,0.632052827,-1.37271308,0.0603518017,-2.96947213,0.21119253,0.3017438244,82.04341000000001,0.22170893419533969,-3.209485411643982,-6.983620500564575,0.009519370924817496,3.2047196300000005,2.5289444399999996,3.40089591,0.209469628,-0.500515807,-2.32897471,2.55462347,0.7682860330000001,3.2141305000000004,-0.25981329000000003,3.4311955499999995,0.399679661
10244.5,1.6476323599999998,1.4829279499999999,1.75922035,0.0661107414,0.029725924000000004,0.043864558786000006,-0.9908103770000001,0.994564707,0.628695223,-1.33731569,0.05463333330000001,-2.9159016059999994,0.213655464,0.33118886,63.018945959999996,0.2788681421428919,-3.222039532661438,-7.0793922424316404,0.009491711978947126,3.2171008899999998,2.53086416,3.4093274399999998,0.211653504,-0.5201484359999999,-1.8840923600000004,2.3991033,0.670752254,3.21690264,-0.22813332999999997,3.4325853300000007,0.424868073
10254.5,1.64733555,1.48965461,1.7580057199999999,0.06540714150000002,-0.20478374449999998,0.03845760686000001,-0.994407919,0.9962635729999999,0.63209067,-1.35641594,0.04775905949999999,-3.562253845,0.20924511299999998,0.36395033000000004,90.6353085,0.2921806577593088,-3.21814911365509,-7.138613033294678,0.009463810180533069,3.21311379,2.5598424700000004,3.4046653099999995,0.21023308200000002,-0.531895893,-2.21054102,2.4136064500000005,0.6747158849999999,3.21421322,-0.8350068900000001,3.43452784,0.45532119700000007
10264.5,1.64875051,1.48520778,1.7607299900000002,0.06608722459999998,-0.103370228,0.016268203552,-0.9908490080000002,0.9954671939999999,0.6334877819999999,-1.3803004600000002,0.042112673149999995,-3.85631092,0.20950000500000004,0.398434648,85.3979601,0.33053446263074876,-3.1921992778778074,-7.039202928543091,0.009435824275771314,3.1873891299999997,2.5080472800000004,3.4023302600000003,0.22105268800000002,-0.509607258,-2.0830627999999995,2.0855240200000003,0.6319179930000001,3.19708584,-1.1865145499999998,3.43812695,0.49185870600000003
10274.5,1.64816165,1.4892920999999997,1.75889842,0.0658750815,-0.08935810800000002,0.014575845668000001,-0.9944731219999999,0.9954747520000001,0.623750628,-1.31695005,0.053342707,-3.8685046300000003,0.210009945,0.351992761,112.19207999999999,0.2600728660821915,-3.2078467845916747,-6.654138374328613,0.009408307996141008,3.2038366199999997,2.53864919,3.4140470499999998,0.223932954,-0.4261282209999999,-1.9948792499999999,2.80051848,0.8713311880000001,3.2153903999999995,-1.1332898100000002,3.43187535,0.44064045699999993
10284.5,1.6480273699999999,1.48083959,1.7610760199999997,0.06594097439999999,0.05728258069000001,0.03560236225,-0.9919483840000002,0.9970559400000001,0.626608704,-1.3505254600000005,0.044431222900000004,-3.56948576,0.21364540399999998,0.389306152,83.21121740000001,0.34286174476146697,-3.207275319099426,-6.633039236068726,0.009381724045878812,3.2033269599999996,2.48864005,3.40949702,0.22099814700000003,-0.42074096299999997,-1.9415877299999997,2.83723089,0.8702992439999999,3.2059338499999996,-0.89058005,3.4341300800000005,0.4814059479999999
10294.5,1.64868534,1.48022475,1.7612647499999998,0.0660313996,-0.004887203600000006,0.005274810600000001,-0.9941045049999999,0.9962063069999999,0.6276324200000001,-1.3687388999999999,0.0460189946,-3.85548407,0.21113020700000001,0.39538930800000005,101.209891,0.3385189831256866,-3.206360960006714,-6.962134981155396,0.009355382057479562,3.2017725999999995,2.48707453,3.4101974499999996,0.22086062600000003,-0.49033153500000004,-1.89927931,2.46873957,0.7439496489999999,3.2048496900000005,-1.13884287,3.43260303,0.485732856
10304.5,1.64800148,1.48879272,1.75817293,0.06610631419999999,-0.42096203699999996,0.030636356169999997,-0.990552207,0.9934321149999998,0.632759523,-1.36361452,0.050573839499999995,-3.8520263900000002,0.20795769599999997,0.379275076,103.9277824,0.3035095870494843,-3.2080864906311035,-7.115502500534058,0.009328474825923482,3.2032135599999996,2.53075857,3.41376286,0.219584932,-0.5222298910000001,-1.86218495,2.07796909,0.641094988,3.2108987200000003,-1.1386155800000002,3.43691086,0.4647978299999999
10314.5,1.64811181,1.4907679899999997,1.75907877,0.0648629463,-0.185175842,0.03622699144,-0.992292604,0.994437621,0.6332783199999998,-1.3658201199999997,0.05159628780000001,-3.5504665330000003,0.21022754000000005,0.367279878,90.1893731,0.29980959109961985,-3.2127576589584352,-6.9897627353668215,0.009301130572421396,3.2081577500000003,2.5531332300000003,3.4142259699999995,0.2175999,-0.494397734,-1.9231702800000001,2.8290013099999998,0.7386492889999999,3.21568496,-0.8646792699999999,3.4381617000000007,0.458655103
10324.5,1.6479479300000002,1.48985851,1.75885368,0.0657139044,-0.2196294787,0.025493780980000002,-0.9939791070000001,0.992381533,0.6216487719999999,-1.3318437500000002,0.05786822142,-3.5568638249999998,0.21072555199999998,0.330570499,107.5441454,0.24412328470498323,-3.225154256820679,-6.744847631454467,0.009274112062494538,3.2210617899999994,2.56110197,3.4242402999999997,0.21833584800000003,-0.44113622599999996,-1.92165419,3.05336528,0.867522046,3.2228104199999996,-0.8315424,3.43948182,0.420662636
10334.5,1.6477306299999999,1.4900298200000002,1.7585904000000003,0.06619612290000002,-0.1720226984,0.04536604493,-0.987551674,0.9943917790000001,0.6360426870000001,-1.37499138,0.05030259882,-3.8424543800000004,0.209866421,0.364901424,108.2617896,0.28259961009025575,-3.216489291191101,-6.641333055496216,0.00924780913705336,3.21262122,2.57170968,3.41206004,0.21627464999999998,-0.41815174600000005,-1.8715498,2.7870224099999996,0.857594383,3.2149507500000007,-1.15060344,3.44169299,0.456875896
10344.5,1.6482659599999998,1.48961324,1.7587426000000002,0.06518008,-0.2850419149999999,0.038974498059999994,-0.992252888,0.9921626139999999,0.635701357,-1.38054616,0.0631797683,-3.208914713,0.20810604000000002,0.29456996700000004,91.66208985,0.19777694009244443,-3.2196645975112914,-6.810724973678589,0.00922190992584808,3.2154817699999994,2.559265730000001,3.4167821199999997,0.21544547400000003,-0.45345360400000007,-1.6605872099999999,3.0310634799999994,0.824522408,3.23088604,-0.53512007,3.4434170600000003,0.38997369300000007
10354.5,1.6485880100000003,1.48765838,1.7587644699999998,0.0652526088,-0.11831703700000003,0.010333470529999998,-0.9914184159999999,0.9952166389999999,0.6321857110000001,-1.3613612300000002,0.05121121420000001,-3.5609599599999995,0.21049130700000002,0.37270447949999996,86.7012846,0.3119414683431387,-3.2269179582595826,-6.545812511444092,0.009196066000859485,3.2232746399999996,2.5590443600000006,3.42461761,0.214238689,-0.39607988,-1.7798004899999995,3.1064029,0.8969620090000001,3.21691516,-0.83608856,3.44316701,0.4646959010000001
10364.5,1.64771368,1.4849284699999998,1.76052324,0.0660796446,-0.03388520470000002,0.037650366000000005,-0.9891628889999998,0.9962622320000001,0.639622323,-1.3810101099999998,0.0505773211,-3.554514514,0.21175664199999997,0.3547896380000001,95.57859789999999,0.2807184476405382,-3.2144278049468995,-7.010692310333252,0.0091704984352487,3.2098935400000004,2.51479083,3.4106712300000006,0.218233093,-0.4943368669999999,-1.83093028,2.41381019,0.7130566,3.219782189999999,-0.8724153699999999,3.44390815,0.44990186200000004
10374.5,1.64853165,1.4835306199999998,1.76087279,0.0649529415,0.06228123029999999,0.02308451501,-0.9909316990000001,0.9946011309999999,0.636962543,-1.3775629300000003,0.0572825594,-3.82689314,0.21202606400000001,0.346335995,129.799499,0.2636790215969086,-3.223489594459534,-6.9835593700408936,0.009144179760221227,3.2190289900000004,2.5202433800000006,3.4251430999999997,0.219160904,-0.487653887,-1.87586914,2.5204878,0.710046151,3.22573892,-1.1509340399999999,3.443807390000001,0.437690947
10384.5,1.6483694899999999,1.4889476000000001,1.7584947699999998,0.0653087096,-0.269911363,0.04241832775,-0.991804649,0.997057607,0.631820276,-1.3552993199999999,0.0647964721,-2.893249726,0.21075427800000002,0.295298596,78.28646095999999,0.21517991945147513,-3.2285682439804075,-7.032036018371582,0.009117613709355555,3.2240349100000003,2.5702803,3.4290019199999997,0.21695999700000002,-0.4970541600000001,-1.6411904,2.6536927400000003,0.747443995,3.23160455,-0.18324332999999995,3.4447700999999995,0.394684912
10394.5,1.64793581,1.4879710499999999,1.7589730700000001,0.06560987310000001,-0.1074678482,0.02196862145,-0.9902050459999998,0.9954856019999999,0.621347716,-1.34691144,0.06221020070000001,-3.240707769000001,0.211647273,0.3046071654,93.39701749999999,0.21734038535505534,-3.2357422351837157,-6.866656541824341,0.009091134825288541,3.2315505399999993,2.56195343,3.42230304,0.209849562,-0.460939561,-1.8765645100000001,2.82699766,0.8055941650000001,3.23517316,-0.57316557,3.4477738799999997,0.40098595300000006
10404.5,1.6480866200000002,1.4816877600000002,1.76073534,0.06639780390000001,-0.015097117100000007,0.0363256214,-0.989837302,0.9939121060000001,0.624732024,-1.34068209,0.0534621227,-3.26444254,0.213064178,0.344001563,84.1982334,0.2810240278020501,-3.231408381462097,-6.709867525100708,0.009065013247464752,3.22753886,2.52647487,3.4192411399999996,0.21429346099999996,-0.42671300500000003,-1.8025847499999998,2.95810142,0.86738187,3.2240281999999993,-0.54939306,3.44773943,0.44099416699999994
10414.5,1.64811804,1.4861944200000001,1.7605079700000001,0.06570555950000001,-0.05831246584999998,0.02247444646000001,-0.9929071220000001,0.9908139499999999,0.635429274,-1.38491702,0.0564845012,-3.2688958550000002,0.208060416,0.322830212,97.5663471,0.25341011881828307,-3.2260292530059815,-6.610760498046875,0.00903950357896195,3.2223691299999997,2.51654584,3.4195217399999995,0.21496070900000003,-0.404790502,-1.6808631699999999,3.0905001200000006,0.900477804,3.2290625499999996,-0.5582861299999999,3.4496459,0.42126980199999997
10424.5,1.64819452,1.49142729,1.75959343,0.06432628189999999,-0.16947792960000002,0.040534296600000005,-0.9928689370000001,0.994119664,0.630898651,-1.3687756499999997,0.062081359400000015,-3.82869423,0.20825561799999998,0.32314163100000004,133.15641599999998,0.2199532374739647,-3.2325510025024413,-6.664420413970947,0.009014409962271649,3.2288058299999998,2.55416158,3.42701807,0.212978123,-0.41535605200000003,-1.8296262799999998,3.07852397,0.909777014,3.23856178,-1.1462090100000002,3.450484779999999,0.413062386
10434.5,1.64847383,1.49029265,1.75896085,0.06464530339999999,-0.138541962,0.00046433873999999884,-0.9913663380000001,0.9939692960000001,0.633716853,-1.36894527,0.06300768339999999,-2.917287054,0.20902717600000004,0.29995598,74.2171094,0.21720122676342726,-3.2356669187545775,-6.366627931594849,0.00898958473731266,3.23250774,2.58084414,3.42958432,0.212483713,-0.351321613,-2.1979710199999998,3.0586862,0.9812354460000001,3.23780608,-0.22573195,3.4514609399999996,0.398956858
10444.5,1.6484637899999999,1.48060127,1.7618426099999998,0.06510910480000001,0.22251997604,0.00619839026,-0.992189821,0.9958838589999999,0.6277942540000001,-1.3463192600000002,0.0589155594,-3.53995015,0.20967133799999998,0.347699802,109.55141799999998,0.2732646193355322,-3.2428649187088014,-6.12642273902893,0.00896543133468903,3.2401778500000007,2.5262602700000003,3.43182701,0.21110430399999996,-0.29960006699999997,-2.3477264999999994,3.14820964,1.012388776,3.2340700299999994,-0.89393777,3.4549693600000007,0.44147840299999996
10454.5,1.6475699000000001,1.4889198899999998,1.7595965100000002,0.0653328144,-0.17754058350000002,0.0408724873,-0.9947173360000001,0.9969202669999999,0.628022895,-1.3459979899999999,0.04975937330000001,-3.559295633,0.20932240100000002,0.366841702,90.27866350000002,0.3005182880908251,-3.2379762649536135,-5.707848644256591,0.008942411876697929,3.23609673,2.55844629,3.42297652,0.20958289700000005,-0.210134847,-2.65367774,3.3984788700000004,1.10602764,3.2321916600000002,-0.8673433500000002,3.4567479399999996,0.461064144
10464.5,1.6483628200000002,1.4914845500000002,1.7586184499999997,0.06571026760000001,-0.295821969,0.01934323056,-0.995653723,0.994852993,0.6364870939999999,-1.37198585,0.042600315300000004,-3.8400859499999997,0.210517092,0.39524733799999995,109.06124150000001,0.3617953285574913,-3.221742844581604,-6.6061516284942625,0.00891993524625916,3.2181755499999993,2.5747357799999997,3.4261517600000007,0.22085014900000002,-0.399839234,-1.8987655700000001,2.7162129199999994,0.8739669859999999,3.21840245,-1.16096898,3.45345044,0.49011203
10474.5,1.64870846,1.48921177,1.7590154300000003,0.0655647062,-0.25413803,0.025462593449999998,-0.988333637,0.9972972879999998,0.636173968,-1.3741432699999998,0.04691641462,-3.8505465800000005,0.208194095,0.39700038200000004,89.34073020000001,0.3252507597208023,-3.214562177658081,-6.835661602020264,0.008896104671971687,3.21057871,2.5234712299999997,3.43091127,0.22864250400000002,-0.447659058,-1.9384217199999998,3.17856919,0.844197701,3.22175113,-1.1529475900000001,3.4569262700000003,0.48872819500000003
10484.5,1.6478913100000003,1.4860561799999998,1.75999022,0.06522785950000001,-0.045214405000000006,0.017098308700000002,-0.990498423,0.9949615709999999,0.62237304,-1.33553594,0.060915026199999986,-3.5413205999999997,0.209262741,0.32528688099999997,103.403612,0.23110641147941352,-3.2338369369506834,-6.745883846282959,0.008871317548839576,3.2300403799999997,2.52644038,3.43700016,0.22345176099999997,-0.42781042099999994,-2.15423297,3.07597664,0.869066335,3.2429134599999996,-0.84343072,3.4587395199999995,0.419063646
10494.5,1.6471535199999998,1.4925469299999998,1.75922388,0.06503106389999999,-0.23401795699999997,0.0213045294,-0.9910910610000002,0.9947578159999999,0.626357664,-1.3566307800000001,0.06282854589999999,-3.260575736,0.20999221,0.304203121,100.8250394,0.20924829952418805,-3.252881669998169,-6.682720804214478,0.008846397227749613,3.24922152,2.5749436,3.4416462099999996,0.21205646100000003,-0.41360032,-1.9110358400000003,3.24927515,0.9049378429999999,3.2487008800000003,-0.5728850600000001,3.4590958899999995,0.399683484
10504.5,1.6482068599999997,1.4879971200000002,1.75781212,0.0653562945,-0.210652966,0.026784087800000002,-0.9892310160000001,0.9974345260000002,0.623711735,-1.32578525,0.04966265375,-3.2623118999999994,0.212773615,0.36351065199999993,68.24984359999999,0.29820873998105524,-3.2291419506073,-6.067461538314819,0.00882225770968525,3.22664782,2.56356493,3.42401429,0.215573645,-0.28269352400000003,-1.8584330200000003,3.3227932099999995,1.044012856,3.2284357299999997,-0.53786679,3.4585392199999996,0.46098472500000015
10514.5,1.64778081,1.48987562,1.7591273499999995,0.06563871710000001,-0.1508810743,0.030128645314000002,-0.9906857850000002,0.9967614630000001,0.6356486320000001,-1.3757279,0.0501657622,-3.8441817799999995,0.211538278,0.388760352,92.1915482,0.3095633536577225,-3.2335068941116334,-6.921300601959229,0.008798628712320376,3.22943754,2.55380258,3.43501922,0.222427186,-0.46237989499999993,-2.3305143900000003,2.4853066900000003,0.7626220739999999,3.23304099,-1.17465725,3.4620713699999994,0.481306356
10524.5,1.6465188200000003,1.48359977,1.7607677100000003,0.0662457836,-0.04545563140000001,0.012107090420000001,-0.9895567469999997,0.996658336,0.629039019,-1.3509294499999998,0.0505868733,-3.85176011,0.211018506,0.365514984,104.38627040000002,0.2766789898276329,-3.2383470058441164,-7.039914941787719,0.008773758775000301,3.2340766000000003,2.5185889899999996,3.4386925699999997,0.22527836999999998,-0.486566859,-2.08252844,2.6670366800000003,0.7674110030000001,3.2408371000000002,-1.1298402499999998,3.4637638,0.4581850769999999
10534.5,1.6482207799999997,1.4882260200000001,1.75921337,0.06578881630000001,-0.1519186296,0.038556060520000004,-0.990199565,0.9936971050000001,0.6346030970000001,-1.36674571,0.0536047514,-3.5730177949999997,0.210852368,0.35331203650000004,100.2541813,0.2803064823150635,-3.2336289644241334,-6.606489372253418,0.008748616258215425,3.2301791900000003,2.55340286,3.4343829599999998,0.223476678,-0.394195619,-1.73402764,3.2515764600000003,0.93495015,3.23692081,-0.8429041100000001,3.4620386299999995,0.445589351
10544.5,1.6478990300000003,1.4843462000000005,1.75929486,0.0665894918,-0.08344272439999999,0.01724177638,-0.991983192,0.996652511,0.634714344,-1.3726432199999998,0.0546417908,-3.5584932699999996,0.212070604,0.357456377,98.9444653,0.27959113866090773,-3.2328919887542726,-6.382459878921509,0.008724214535972174,3.22987141,2.52594868,3.43920916,0.22494644599999997,-0.34612195300000004,-2.10752938,3.0261293900000004,0.975707575,3.2341633799999996,-0.8529825900000001,3.46637149,0.452444572
10554.5,1.64808759,1.48399456,1.75907974,0.0651248826,-0.019269695400000002,0.040928064640000004,-0.9924164099999999,0.9962907660000001,0.630197784,-1.3535919399999998,0.05124983889999999,-3.558828863,0.21076745299999997,0.357672729,99.62892120000001,0.2903231784701347,-3.242090606689453,-6.0394388198852536,0.008700729829576679,3.2397141700000005,2.5325107,3.43825445,0.220794271,-0.27304876100000003,-2.04779518,3.133921,1.022472293,3.23947878,-0.8322606499999999,3.46616402,0.453631158
10564.5,1.6477198599999998,1.4852288,1.76061882,0.0649991959,-0.1053595477,0.016606733500000005,-0.992095831,0.9916083060000002,0.6323181800000001,-1.37394502,0.05669634760000001,-2.933975626,0.20842375600000002,0.317961061,81.9858965,0.26327766217291354,-3.2433712482452393,-6.324021434783935,0.00867798373696838,3.24048665,2.52418285,3.4411481000000004,0.22060426,-0.33230072599999994,-2.0342707300000002,2.97335414,0.960460372,3.24615808,-0.28968678,3.4684793,0.420508064
10574.5,1.6469522699999999,1.4793638199999999,1.76190939,0.06594566449999999,0.25920746440000003,0.024963917810000003,-0.9927909709999998,0.993331105,0.6304536530000002,-1.36418101,0.06260187539999999,-2.648548633,0.21131794299999998,0.28433122,68.9609718,0.20465043261647226,-3.2580750465393065,-6.053819608688355,0.008655332818169157,3.2556967300000004,2.5144970599999996,3.4445982799999997,0.216493271,-0.27467504,-2.29469252,3.28400654,1.06199998,3.25673576,0.004416870000000017,3.4669876699999995,0.39156971599999996
10584.5,1.64743839,1.4834023899999997,1.75976564,0.06532904149999999,-0.0695073796,0.037267822000000006,-0.9920773640000002,0.9934385410000001,0.628467662,-1.36156668,0.0662828743,-3.252973735,0.210804291,0.276654281,111.2866238,0.1747588323429227,-3.2548930168151857,-6.164077711105347,0.008633172786018396,3.2523269999999997,2.5586600200000005,3.44001069,0.211461136,-0.29717821200000005,-1.98123795,3.2379951300000003,1.040289784,3.25695617,-0.5232856,3.4695890400000002,0.37658227899999996
10594.5,1.64773696,1.4855282499999998,1.7584786600000002,0.066264404,-0.058316140399999994,0.00691726431,-0.991727397,0.994445112,0.63495209,-1.37298077,0.0647392699,-3.55757158,0.21389277999999998,0.311952803,117.77447749999999,0.20560505986213684,-3.248348021507263,-6.228850269317627,0.008610855352955079,3.2456770300000004,2.57239901,3.44099037,0.21664429799999999,-0.310105318,-2.15801416,3.08469588,0.9888744460000002,3.2508558,-0.84630776,3.46936712,0.405796124
10604.5,1.64757806,1.48941345,1.7600338400000002,0.0652831639,-0.15789610299999998,0.025522208,-0.992760842,0.9948553450000001,0.634556543,-1.3660748199999997,0.05418202240000001,-3.54376477,0.20902243499999998,0.325511326,103.57292509999999,0.23835440687835216,-3.2531763315200806,-6.737647628784179,0.008588216492792195,3.2496001800000003,2.57031281,3.44324904,0.21416331300000002,-0.416328579,-2.06502791,2.9261641399999996,0.828915859,3.2494253799999995,-0.8769774800000001,3.47036685,0.42702452300000004
10614.5,1.6471787,1.4885300799999999,1.7583149200000001,0.0656964295,-0.188334398,0.0318929794,-0.9919730739999999,0.9962116740000001,0.634281235,-1.36150801,0.0545281871,-3.508938956,0.211357717,0.32824831800000004,107.7807726,0.24676920454949142,-3.247144842147827,-7.031117391586304,0.008564453461807372,3.24305718,2.5617187400000003,3.4447915799999995,0.221820985,-0.477167913,-2.21787478,2.6015253000000005,0.7328950080000001,3.2489445599999995,-0.80786826,3.47051272,0.427840167
10624.5,1.64807541,1.48842282,1.75760525,0.0661228798,-0.23406670040000002,0.02783016187,-0.9894044040000001,0.997691162,0.626006533,-1.3339433,0.05723937890000001,-3.8596105,0.21130790800000004,0.37664383,106.71644389999999,0.2954003468155861,-3.2457905292510985,-7.0093913078308105,0.0085396796716283,3.24176073,2.56841899,3.45050485,0.22302961299999996,-0.471721099,-1.93848558,2.55278386,0.761568695,3.2463620899999994,-1.13929205,3.4728986500000003,0.46333304099999995
10634.5,1.6476120599999997,1.4826127900000001,1.76073649,0.06686883960000001,0.0456470162,0.0412418633,-0.987831319,0.9968381530000002,0.634384017,-1.3770043399999998,0.0457893749,-2.9479494859999997,0.21233210900000002,0.3561191516,56.16431190000001,0.31651910245418546,-3.2367202281951903,-6.80626916885376,0.008514848485679455,3.23307319,2.5072620399999996,3.44073209,0.22857496,-0.428193745,-2.2630000699999995,2.8133067600000006,0.8366199809999999,3.23476159,-0.2579636700000001,3.4758431400000007,0.46747828900000005
10644.5,1.64796756,1.4859662499999997,1.7608700900000003,0.06710316179999999,-0.09127567040000001,0.0243765503,-0.9877449479999998,0.995175577,0.6296351160000001,-1.3560939099999998,0.057790816200000004,-3.8305944900000006,0.211088699,0.33108635,123.44426219999998,0.23098579198122024,-3.238248109817505,-6.703044748306274,0.00849045104897517,3.2348025199999997,2.5154820599999996,3.4469691300000003,0.232122406,-0.405687483,-1.7971715499999998,2.7118165999999997,0.850468156,3.24684036,-1.1770102,3.47100338,0.43264008700000006
10654.5,1.6478827299999999,1.4894408499999998,1.7597046300000003,0.06641072849999999,-0.2219605864,0.046525996400000005,-0.9894791070000002,0.9966948089999998,0.6201676110000001,-1.3317498700000001,0.03887116019,-3.85385707,0.209554262,0.429634697,86.37752079999999,0.3938662841916084,-3.245055341720581,-7.006629371643067,0.008466303790276169,3.2410882599999993,2.53947573,3.45182765,0.23035227200000002,-0.4684675370000001,-1.95236277,2.44601964,0.781718834,3.2307568100000004,-1.16247034,3.4757630299999995,0.5263736349999999
10664.5,1.64889865,1.4811816199999999,1.7607882000000004,0.06619046860000001,-0.112173038,0.053948932500000005,-0.9892466460000001,0.995564087,0.614708251,-1.2897089899999998,0.06538431250000001,-3.5569168099999997,0.20972240699999997,0.30491207900000006,117.42584409999999,0.20068343505263328,-3.2282227993011476,-7.0877069473266605,0.008441783303172292,3.2241312200000003,2.49268636,3.4456706400000003,0.23327589100000004,-0.48455917699999995,-1.8668186100000004,2.54556589,0.7485175500000001,3.25115363,-0.8393633100000001,3.47797987,0.405220105
10674.5,1.6474242999999997,1.4847026700000001,1.76091388,0.0664731834,-0.09597533753000001,0.042525814,-0.990275521,0.9968980250000001,0.630715859,-1.37088353,0.059721729999999994,-3.8499191399999995,0.209854393,0.33678731100000003,118.16595099999999,0.23228958249092102,-3.2575485467910767,-7.200888824462891,0.00841689937955903,3.2532771600000006,2.5252336800000004,3.46168846,0.227538813,-0.50733642,-1.94662611,2.47969106,0.716452321,3.25389935,-1.13945606,3.47973243,0.43244083499999997
10684.5,1.64776526,1.4852703,1.7593292000000003,0.0667601521,-0.27859972875000005,0.033389751030000005,-0.989743092,0.996274985,0.6339625159999999,-1.3745074899999998,0.062415643599999994,-3.228845088,0.21034349200000002,0.29949126000000004,103.70503880000001,0.2104397926479578,-3.246926021575928,-6.97953462600708,0.008391741396910953,3.2430634400000002,2.53305174,3.44598936,0.22328637500000004,-0.4600985410000001,-1.8538250200000004,2.6207081400000005,0.8071677810000001,3.2528881099999998,-0.5303495199999999,3.4779249,0.40285786600000006
