JvanZyl1/RocketTrajectoryOptimisation/data/agent_saves/PyTorchSAC/LandingBurnPureThrottle/20250606_153426/learning_stats/sac_learning_stats_reduced.csv
step,state_mean,state_min,state_max,state_std,state_kurtosis,action_mean,action_min,action_max,action_std,action_kurtosis,reward_mean,reward_min,reward_max,reward_std,reward_kurtosis,critic_loss,actor_loss,alpha_loss,alpha_value,q_value_mean,q_value_min,q_value_max,q_value_std,log_prob_mean,log_prob_min,log_prob_max,log_prob_std,target_q_mean,target_q_min,target_q_max,target_q_std
4.5,1.60739541,1.4324773799999997,1.7715124799999997,0.09067202109999999,-0.8818907490000001,0.4300629880000001,-0.9391439370000001,0.9975634299999999,0.554665934,-0.44226975490000003,0.0891555435,-1.49859017,0.22897056800000004,0.151808895,62.73551560000001,1.661450031399727,0.5621563337743283,-2.567039680480957,0.19966979063612494,-0.6807101595,-0.7179261670000001,-0.6364380437,0.019274227300000002,-0.593621501,-2.15247618,0.07713611259999999,0.41010754299999996,0.00943407136,-1.548522544,0.308836519,0.18034439900000004
14.5,1.6076865400000002,1.4331510199999997,1.7708600200000002,0.09002077149999999,-0.8772646080000002,0.41063354700000004,-0.938224651,0.9975634299999999,0.5702606109999999,-0.49342414770000004,0.0908393981,-1.239703619,0.22925791000000006,0.1388814726,47.779474949999994,0.08516421541571617,-0.06956742675974965,-2.661520218849182,0.19906699645631593,-0.0597098405,-0.0905686812,-0.0347546331,0.0163449462,-0.649215982,-1.6110639159999998,-0.15881367880000002,0.2609695590000001,0.08001018709999999,-1.2394184940000001,0.363076952,0.1533925215
24.5,1.6085034099999997,1.4322068699999997,1.77167217,0.09010491490000001,-0.9601708600000001,0.397979329,-0.934501423,0.9977535699999999,0.5761170270000001,-0.616544887,0.09191111360000001,-1.53788284,0.22839478000000005,0.16744742,66.91161989999999,0.08124177120625972,-0.15266482830047606,-2.712558627128601,0.19846406129792957,0.018123426999999998,0.0034000869999999996,0.0312397105,0.00778568273,-0.6776902359999999,-1.3178957450000002,-0.32640498000000007,0.15670668940000002,0.1258294845,-1.4953455239999998,0.362386174,0.172478283
34.5,1.6088297900000001,1.4323278699999995,1.77163261,0.0922482499,-1.018836318,0.36907847899999996,-0.9414390099999999,0.9980327979999999,0.59480875,-0.7651789650000002,0.0915065105,-1.53788284,0.22897056799999999,0.157590375,64.27089790000001,0.06062673144042492,-0.2213897868990898,-2.715113568305969,0.1978615302861987,0.087570768,0.0698540175,0.1038856035,0.008448503940000001,-0.676117839,-1.5465386300000001,-0.376779687,0.152525994,0.15880121000000003,-1.4673871520000001,0.406976502,0.160578746
44.5,1.60961282,1.4327391799999998,1.7713730599999997,0.0930470025,-1.05602982,0.38371713400000007,-0.9391866729999998,0.99737329,0.5755264619999999,-0.6098973050000001,0.07920594950000001,-1.7388912250000002,0.22882643700000002,0.21546522,48.08285879999999,0.1003306481987238,-0.2967949002981186,-2.7200167417526244,0.19726130136913103,0.163405607,0.131586782,0.196315933,0.0176488728,-0.675999581,-1.72344847,-0.29113874900000003,0.20506543439999997,0.164793068,-1.6624187400000001,0.39140685799999997,0.21831038500000002
54.5,1.6097318399999998,1.4333110699999998,1.77097244,0.0955337752,-1.1417903,0.368148845,-0.9450275399999999,0.9984130779999998,0.585131718,-0.711925336,0.0849093759,-1.6854233630000004,0.22911433100000003,0.18026710800000004,58.73720352999999,0.07272744923830032,-0.340073835849762,-2.7341012954711914,0.19666377465863047,0.206000723,0.169770937,0.24381424899999998,0.0189698981,-0.6815327099999999,-1.79694992,-0.2423356183,0.20855913799999998,0.196380164,-1.5846211940000003,0.46171839200000003,0.184306099
64.5,1.61014999,1.43259846,1.7714729200000001,0.0961067654,-1.15682317,0.34649268699999997,-0.9446106329999999,0.996679065,0.593842165,-0.885468217,0.07698649989999999,-1.6095229449999997,0.22882645199999999,0.19417818999999997,48.7962364,0.08589441925287247,-0.3438330560922623,-2.718347191810608,0.1960685664142946,0.21267435500000004,0.18272011100000002,0.24442597,0.0156954024,-0.668735933,-1.45164853,-0.33086796,0.15981935899999997,0.213690754,-1.47936511,0.531461319,0.19766651500000001
74.5,1.61041944,1.4334678899999997,1.7708342299999997,0.09502785049999998,-1.1129317539999999,0.34564502999999996,-0.940736956,0.997281664,0.59582342,-0.875859116,0.07847752919999999,-1.5187402650000001,0.22868267400000003,0.18163832739999997,46.8739735,0.07458196356892585,-0.3686785280704498,-2.747689938545227,0.1954767623744696,0.235006173,0.201801596,0.268314876,0.0162395953,-0.683621133,-1.34183354,-0.302074301,0.17160016900000002,0.23764513599999998,-1.3789831870000002,0.42937467199999996,0.184310262
84.5,1.61147995,1.43375883,1.77061448,0.0951539914,-1.14998726,0.31034848400000004,-0.9364319569999999,0.9994023399999998,0.60518041,-1.094504367,0.0775538531,-1.7391431050000001,0.228394979,0.19793420499999997,57.5890259,0.08713506478816271,-0.3903725117444992,-2.7427378416061403,0.19488636992565428,0.258301707,0.23034505000000002,0.285584262,0.0119229496,-0.677477259,-1.7091994499999998,-0.384952223,0.160526223,0.256485148,-1.574694939,0.45731425200000003,0.19994390450000005
94.5,1.6119038500000002,1.43221524,1.7716719399999998,0.09609669030000001,-1.1234474700000001,0.33528123200000004,-0.9465778229999999,0.9984130779999999,0.5949178210000001,-0.9457612,0.0710351856,-1.84740234,0.22695544800000006,0.212289809,64.4592237,0.1013911796733737,-0.40260264873504636,-2.7543403625488283,0.19429803230882847,0.270154505,0.246822183,0.290285515,0.00911981276,-0.681466439,-1.80802971,-0.444328112,0.1375815585,0.269410382,-1.662528262,0.5341308130000001,0.21348672800000004
104.5,1.6130935499999999,1.4334420399999996,1.7709750400000002,0.0960505485,-1.130854403,0.33302771299999995,-0.9383101229999999,0.997703044,0.5951109139999999,-0.968012173,0.07800779699999999,-1.373922125,0.228538911,0.16994443799999998,41.657194600000004,0.06618027351796626,-0.4141521543264389,-2.759324645996094,0.193711308966885,0.28211430899999995,0.25708843400000003,0.308713393,0.0111516347,-0.6814080299999999,-1.87962195,-0.368438197,0.171225237,0.29075523700000006,-1.1595430899999999,0.527105755,0.17264334
114.5,1.6141465199999998,1.4332947399999998,1.7709740200000001,0.09454999759999999,-1.037676986,0.278862765,-0.956932297,0.9962098019999999,0.608825387,-1.1264552139999997,0.07590557610000001,-1.647982605,0.22839497900000003,0.1787525924,54.94694249999999,0.07275044787675142,-0.42579820454120637,-2.750188398361206,0.1931276111033727,0.29583152599999996,0.272412741,0.32731296899999995,0.01215267715,-0.672757375,-1.386971954,-0.30876393199999996,0.179762133,0.29971068700000003,-1.428057794,0.498966205,0.182184133
124.5,1.61563847,1.43323399,1.7708197499999998,0.09312240940000001,-1.0049953109999998,0.296024002,-0.9625587930000001,0.9977535699999999,0.601569685,-1.060659339,0.07979290439999999,-1.6106078350000002,0.22796322399999996,0.184179374,55.8753337,0.07813886925578117,-0.44814313650131227,-2.7670510053634643,0.19254670688397188,0.317183871,0.29038505000000003,0.35495278199999997,0.0148215021,-0.6799375910000001,-1.5915706639999998,-0.320857024,0.1749073874,0.318592868,-1.3886026829999998,0.566837365,0.18743399200000002
134.5,1.61660745,1.4329844499999997,1.7712140899999997,0.09226340830000002,-0.96464227,0.299692707,-0.9742448530000001,0.9978015580000001,0.5942155309999999,-1.021759295,0.083003573,-1.428664655,0.22753126999999998,0.15681661360000002,51.9185471,0.05693420842289924,-0.46371217668056486,-2.7783544778823854,0.19196653210908607,0.33241985399999996,0.307024841,0.36975448200000005,0.01348790295,-0.683720024,-1.49307718,-0.3346095699999999,0.170164401,0.332084582,-1.189827762,0.556738429,0.1599502981
144.5,1.6184231900000001,1.4324026599999997,1.77157254,0.091751412,-0.9930281539999999,0.258380717,-0.941575096,0.9948415469999998,0.6156318410000001,-1.21872085,0.0850805736,-1.7577045500000001,0.227387338,0.18804721760000004,67.3619734,0.07748741284012794,-0.4648336321115494,-2.7517940998077393,0.19138902430678964,0.337602272,0.31461878200000004,0.38031925600000005,0.014693072800000002,-0.6645791169999999,-1.3910700109999998,-0.258849275,0.198711374,0.344968275,-1.5349649349999999,0.596931412,0.19338094059999997
154.5,1.6196684199999996,1.43342224,1.77092465,0.09023842110000001,-0.9580616259999999,0.28492464999999995,-0.9510486939999998,0.9960861019999999,0.6058289729999999,-1.0810506659999999,0.0858212281,-1.609774825,0.22695518999999997,0.1698129305,57.88973450000001,0.06338660176843405,-0.48719488382339476,-2.771838164329529,0.19081550235012143,0.35861075800000003,0.3372985109999999,0.40345648800000006,0.015043352700000002,-0.673664739,-1.3410317100000002,-0.33785519500000005,0.1603078441,0.35845103300000003,-1.340035163,0.526560721,0.17131771599999998
164.5,1.6220943300000001,1.4331688599999999,1.7710638200000002,0.0912048875,-0.9594166190000001,0.26360069599999997,-0.955305646,0.9963507029999998,0.606162375,-1.17779741,0.082210193,-1.4824503850000001,0.22753103700000002,0.184925014,40.1581298,0.0789630550891161,-0.4916269898414612,-2.7778629779815676,0.19024322671634455,0.36331292200000004,0.342533042,0.41115017400000003,0.015657217699999997,-0.674268519,-1.35201502,-0.26140029705999995,0.182962975,0.365818627,-1.206354532,0.54085431,0.18800061399999998
174.5,1.6213018300000002,1.4331307999999998,1.7711335000000001,0.091574818,-0.9684126039999998,0.268793006,-0.96116223,0.9958972489999999,0.6038573850000001,-1.15694238,0.08063262709999999,-1.84907265,0.22681238400000003,0.189927833,67.31539169999999,0.07728435527533292,-0.49352761805057527,-2.7921385288238527,0.1896723448321694,0.364544841,0.342117743,0.40542249,0.0127010029,-0.679827234,-1.3407278349999998,-0.364236581,0.1479874656,0.37663121099999997,-1.550811388,0.589606309,0.191002458
184.5,1.6215436499999996,1.43402612,1.77062511,0.09267920789999999,-0.9771213,0.26156216499999996,-0.9667116480000001,0.9973321899999998,0.608431618,-1.157494617,0.07272437000000001,-1.74352503,0.22767535399999997,0.218296994,46.94492909999999,0.10200529210269452,-0.5096606105566025,-2.802177309989929,0.1891019801766751,0.380498764,0.359757802,0.42332957500000007,0.012643944499999999,-0.682820481,-1.310366915,-0.36592193900000003,0.152426004,0.379267805,-1.4550158340000001,0.559747715,0.21961769599999997
194.5,1.6222985099999998,1.4332632099999998,1.7710741900000002,0.09366135029999999,-0.9779350030000001,0.250411207,-0.9808038240000002,0.9961181760000001,0.6017348229999999,-1.15911234,0.0731084048,-1.83170489,0.227819221,0.207704717,55.73396660000001,0.09348506666719913,-0.5095827281475067,-2.8002416133880614,0.18853278535024748,0.381602544,0.36024034,0.421208299,0.012024554250000001,-0.6786179979999999,-1.43445768,-0.39871870299999995,0.1405594496,0.388817184,-1.5313311600000001,0.64833645,0.20970443300000002
204.5,1.62212392,1.4338392299999998,1.7707751100000002,0.0941932034,-0.943216131,0.233111408,-0.9887086790000001,0.99724959,0.616368566,-1.23050628,0.0793262374,-1.62992354,0.22825120100000001,0.17642264700000002,59.1352729,0.06789799220860004,-0.5272914826869964,-2.8009276390075684,0.18796588934218092,0.400187204,0.379186042,0.441019119,0.0122572107,-0.6760045110000001,-1.16045221,-0.379931986,0.14765717339999998,0.405359861,-1.3094809029999999,0.615770851,0.17809263999999997
214.5,1.62260371,1.43355155,1.7708794400000003,0.091787869,-0.9511611630000001,0.213789426,-0.9745894210000001,0.9957618220000001,0.618949951,-1.27593021,0.080886057,-1.7433575700000001,0.22750450499999997,0.17607020399999998,68.962783,0.06581655237823725,-0.534005880355835,-2.8090564012527466,0.1874011494880709,0.40693807699999995,0.38485707299999994,0.45130384900000003,0.014310538449999998,-0.6778473340000002,-1.52475185,-0.37289894599999995,0.1558016426,0.416064533,-1.407576402,0.660345919,0.177501186
224.5,1.62312503,1.4342909,1.7702119499999998,0.09306961249999998,-0.9504083170000002,0.22919955,-0.9732989959999999,0.99512067,0.6164205300000002,-1.2175464599999999,0.0727980525,-1.9779013200000002,0.22810728399999997,0.212415242,69.3274385,0.09621780700981616,-0.5389643907546997,-2.8066571235656737,0.18683860598037738,0.413107764,0.38807382999999995,0.461593748,0.015385578050000001,-0.673408612,-1.2815648130000001,-0.331088575,0.1643568274,0.41797087299999997,-1.6371544199999999,0.639209436,0.214227965
234.5,1.62366539,1.4342294199999999,1.77054348,0.092208277,-0.9062361350000001,0.201016728,-0.9848939880000002,0.9967137819999999,0.622553275,-1.30901657,0.0670377646,-1.84991133,0.22707949200000002,0.23808795299999996,48.313082200000004,0.12080900259315967,-0.5394929051399231,-2.817989158630371,0.18627849090728266,0.41331610799999996,0.386672144,0.45218007799999993,0.014608940599999998,-0.6771585740000001,-1.6188180460000001,-0.39789140199999995,0.16316485399999997,0.42212611399999994,-1.50748143,0.76586372,0.24032062599999993
244.5,1.62444844,1.4333031799999998,1.7710739800000002,0.0901293046,-0.832215184,0.2099982384,-0.9776315740000001,0.9952430829999999,0.619363194,-1.2400021350000001,0.07466745829999998,-1.7438184300000004,0.22623603200000003,0.19520359439999999,59.178865099999996,0.0834277018904686,-0.5567055106163025,-2.8101577520370484,0.18571990589388757,0.432326166,0.40293972499999997,0.48149351500000004,0.0172505036,-0.6695158510000001,-1.2798298940000001,-0.30326081299999996,0.1837097825,0.43608704299999995,-1.404443569,0.660984259,0.19941060100000002
254.5,1.62458456,1.4333910199999997,1.7708124900000002,0.0902730925,-0.8395114749999999,0.23832208799999996,-0.9659351300000001,0.9968533959999999,0.6159099180000001,-1.1852322050000001,0.0796667908,-1.867718515,0.22695519000000003,0.19669903800000002,74.78033319999999,0.08015189543366433,-0.5696701228618621,-2.817229700088501,0.18516361457731195,0.44543522699999993,0.410120913,0.49518033699999997,0.0181626922,-0.6707425169999999,-1.187190574,-0.238118638,0.1903887758,0.4507192120000001,-1.517661177,0.6424478440000001,0.199310952
264.5,1.6258235499999998,1.43460266,1.7703766399999998,0.09033242799999999,-0.751359986,0.21574178000000002,-0.9819737810000001,0.9954334819999999,0.6219085329999999,-1.2675731300000002,0.0749742856,-1.6151586000000002,0.22839468200000002,0.1904327309,48.969564299999995,0.08268298618495465,-0.573027777671814,-2.8379226446151735,0.18460895723372667,0.447451354,0.412362727,0.4940644470000001,0.0172352822,-0.68002442,-1.4311595929999998,-0.419096372,0.13206299650000003,0.4559572129999999,-1.2403609660000001,0.650708706,0.1915387405
274.5,1.6270367000000001,1.43626883,1.7688972299999999,0.0882994176,-0.7601280850000001,0.214649204,-0.9873632980000002,0.9948068299999999,0.6233007880000001,-1.2523959999999998,0.09153319610000002,-1.353365402,0.22796350600000004,0.1415757051,63.9269183,0.044899143278598785,-0.5981072604656219,-2.838260531425476,0.18405504715784923,0.473420863,0.435343631,0.525679735,0.0194404835,-0.677239376,-1.113086696,-0.21056332405,0.192211096,0.48161990499999996,-0.9766527689999999,0.6655816910000001,0.1458073896
284.5,1.62688187,1.43463528,1.7700435200000002,0.0896104383,-0.745937486,0.21264985099999997,-0.97365163,0.9975634299999999,0.617741926,-1.2509516,0.08007729059999999,-1.8206446919999997,0.227963491,0.19617190150000002,68.09815024999999,0.08576569873839616,-0.5976184725761413,-2.8485838651657103,0.18350239388837425,0.47273444199999987,0.42863358900000004,0.5321885630000001,0.020476259700000003,-0.6803545909999998,-1.510533793,-0.32478252399999996,0.1790205784,0.480348462,-1.4391929074,0.6673586150000002,0.199670048
294.5,1.62944269,1.4333435299999997,1.77101346,0.08833334099999998,-0.6768571529999999,0.19999314100000004,-0.987679856,0.9946931429999998,0.612607878,-1.235298257,0.07028453259999999,-1.8532884950000004,0.22594842399999998,0.219422236,50.4542396,0.10314966365695,-0.5995739877223969,-2.851456880569458,0.18295116274799153,0.47530072599999995,0.431471276,0.525121886,0.018406235099999998,-0.6790686549999998,-1.6752835799999999,-0.38741366899999996,0.14717681649999997,0.4800384469999999,-1.452607365,0.7097161510000001,0.22101101699999998
304.5,1.62893802,1.4338186999999998,1.77077536,0.0895035127,-0.6778496640000001,0.212081409,-0.9871980450000001,0.9952446289999999,0.6108462920000001,-1.21760997,0.06878624279999998,-1.850255285,0.22666826799999998,0.22402685300000003,50.32461369999999,0.10770783275365829,-0.6028914749622345,-2.862664556503296,0.18240124556346055,0.478331529,0.4380185310000001,0.51900963,0.0179486403,-0.682686224,-1.378235047,-0.34546123800000006,0.155782588,0.486821813,-1.450297148,0.659857637,0.225694494
314.5,1.6278952100000001,1.43221531,1.7716719300000001,0.09023108329999999,-0.6806645679999999,0.21750567699999998,-0.9865547429999999,0.994533049,0.616337913,-1.23841828,0.07715918629999999,-1.6563567849999998,0.225640177,0.187269187,54.5839607,0.07772984672337771,-0.6166030943393708,-2.8619629383087157,0.1818524513016718,0.493032563,0.45288747099999993,0.534722043,0.0189148797,-0.6793023629999999,-1.5292372650000001,-0.3426496525,0.15911652049999997,0.5028347070000001,-1.2438856440000001,0.7430378830000001,0.190280191
324.5,1.6285789000000002,1.4341904799999998,1.77062514,0.089627527,-0.6294245130000001,0.19058702249999998,-0.985982542,0.997157964,0.6138824209999999,-1.2267899199999996,0.07482222379999999,-1.5950282579999997,0.22853891100000007,0.18669998949999997,47.444244000000005,0.078822279907763,-0.6234598457813263,-2.862985610961914,0.18130620620111645,0.5006909909999999,0.45887584300000006,0.544640037,0.0193429176,-0.676937046,-1.478673335,-0.31528146255,0.17114080899999998,0.5086057939999999,-1.1596858311000002,0.7083934989999999,0.190053277
334.5,1.62912992,1.4338791899999999,1.7704640100000002,0.090506703,-0.665533077,0.1804413205,-0.9754719089999998,0.9955619349999999,0.621895052,-1.29002244,0.0722758368,-1.868499215,0.22707946800000003,0.21342242199999997,57.64464509999999,0.09492090716958046,-0.6215947687625885,-2.8618677854537964,0.18076202752413367,0.499843221,0.45945418300000007,0.5357459529999999,0.0171171834,-0.673340722,-1.40865197,-0.30726078800000006,0.17067220249999998,0.515784555,-1.4320149519999998,0.770481535,0.21525213199999998
344.5,1.62925822,1.4335649799999999,1.77083437,0.08908307099999999,-0.497788611,0.175549903,-0.9938962819999999,0.994066728,0.62560734,-1.274592,0.0724798824,-1.717302492,0.22738730599999996,0.193601061,53.853508199999986,0.08097716085612774,-0.6387376487255096,-2.8818177938461305,0.18021999795579208,0.515782162,0.475648411,0.552485585,0.0193253522,-0.6820491599999998,-1.553063694,-0.403194212,0.146559431,0.525683977,-1.2773607730000003,0.7679226069999999,0.19596916599999997
354.5,1.6290081600000001,1.43523088,1.76981495,0.0901653862,-0.675791864,0.174223411,-0.9783968919999999,0.9953267239999999,0.631569334,-1.32694045,0.0655329376,-1.8687943349999998,0.22681040900000005,0.24125757500000003,45.6065037,0.12089509181678296,-0.6428057730197907,-2.8906018495559693,0.1796784806066261,0.5198291970000001,0.47315458,0.561249845,0.02080420175,-0.6842197139999999,-1.78246366,-0.439795903,0.144104526,0.527558175,-1.4161105930000002,0.7600332990000002,0.242593212
364.5,1.6278421899999997,1.43488466,1.7697542599999998,0.0890319598,-0.686152844,0.165934544,-0.9825966289999999,0.9975793439999998,0.61866206,-1.30658163,0.07811051849999999,-1.74304427,0.22738763499999998,0.18076828100000003,65.68548990000001,0.07223348934203386,-0.6562253892421722,-2.8882100105285646,0.17913810651674095,0.5343975379999999,0.48798005999999994,0.579598128,0.0209529365,-0.6798760960000001,-1.52055393,-0.380906399,0.15582131,0.546772017,-1.2840939710000001,0.7464492299999999,0.18317796
374.5,1.63047294,1.4343334099999998,1.77038476,0.0879667744,-0.538777498,0.1594696134,-0.9813836980000001,0.994260841,0.619675593,-1.3163144,0.0704851805,-1.97773386,0.227531383,0.21518137500000006,64.9501024,0.0938787467777729,-0.6674477458000183,-2.8944981336593627,0.17859956365316737,0.545856953,0.498932972,0.58155725,0.0202863146,-0.6805937500000001,-1.246514986,-0.41200357800000004,0.1362759584,0.5497538,-1.5114901899999997,0.744630218,0.216805979
384.5,1.63139456,1.43406755,1.77062147,0.0864343478,-0.4765644553,0.142253301,-0.987786804,0.9932618019999999,0.62924019,-1.34392998,0.07244372940000002,-1.9782626799999998,0.22652308200000001,0.20515745300000005,60.74847020000001,0.08649626187980175,-0.6717424273490906,-2.90700900554657,0.17806261801053266,0.549748411,0.500819266,0.58907368,0.0205919065,-0.6849114199999999,-1.16410619,-0.3894361030000001,0.143172862,0.5589786780000001,-1.4903061599999998,0.7390199799999999,0.206650695
394.5,1.6330776400000002,1.43714902,1.7683825600000003,0.0867968815,-0.504616903,0.14239373800000005,-0.9827911859999998,0.9930973529999999,0.6211211139999999,-1.33313206,0.0733550754,-1.9781765400000002,0.226668099,0.22781058200000004,67.05441049999999,0.1077737893909216,-0.6787146747112274,-2.896203541755676,0.17752713120768035,0.5587189050000001,0.503825282,0.607916755,0.024537587200000002,-0.675723695,-1.3352358800000002,-0.346281614,0.161794782,0.567196302,-1.50431245,0.7758769470000001,0.229061754
404.5,1.63363901,1.4376640000000003,1.76832612,0.0870132721,-0.6029757720000001,0.1463564994,-0.9798469650000001,0.9963096029999999,0.626282435,-1.3412302400000002,0.0856292933,-1.5527454,0.22692904400000002,0.1677109186,56.63152727000001,0.06200971975922585,-0.7036285758018493,-2.9116041898727416,0.17699437313915553,0.582933901,0.525839055,0.633081811,0.024748609100000003,-0.681708103,-1.6172160500000001,-0.38289082,0.1511952705,0.5885473649999999,-1.0614674059999998,0.8473076519999999,0.171997729
414.5,1.6337341700000003,1.43500683,1.7695903999999998,0.08611404,-0.5053180460000001,0.1670089774,-0.9855890980000002,0.9949148749999999,0.62497037,-1.28436767,0.08384102199999999,-1.62001881,0.22621509900000003,0.1723130662,58.9333918,0.06394920013844967,-0.7078506112098694,-2.917082333564758,0.17646257117989642,0.587475229,0.5229740850000001,0.64266531,0.028963800799999995,-0.6819507969999999,-1.490293575,-0.4681790169999999,0.12133835109999999,0.5968978620000001,-1.121573063,0.8012536000000001,0.175740943
424.5,1.6348582600000001,1.43601762,1.76959776,0.0874825225,-0.4766945819999999,0.15029763859999998,-0.980298411,0.9933951780000001,0.6138071600000001,-1.27877648,0.07271524339999999,-1.868696765,0.22693581799999998,0.20821298640000002,55.8889536,0.0904171971604228,-0.7064919114112854,-2.9176285743713377,0.17593237207110024,0.586935457,0.530429997,0.637293157,0.0240040624,-0.6793521570000001,-1.2474471699999998,-0.441541208,0.1272004411,0.594276966,-1.3431491699999998,0.907605295,0.210312469
434.5,1.6346577800000002,1.4351251599999997,1.7699821699999998,0.0884729329,-0.4349836430000001,0.1517568446,-0.9845126949999999,0.9956392769999999,0.6178658610000001,-1.3073175899999998,0.06878859410000002,-1.877096795,0.22522751300000002,0.221557441,52.2587445,0.10128441974520683,-0.6980787932872772,-2.9172750234603884,0.17540425169863752,0.5794257389999999,0.5230428029999998,0.6341831929999999,0.026654086900000002,-0.676248186,-1.334930085,-0.37221923000000007,0.14700552260000002,0.5961099990000001,-1.3528406079999997,0.800942378,0.22350456199999996
444.5,1.632797,1.43562972,1.7695004200000004,0.08797785550000001,-0.4376588882,0.15045358199999997,-0.9874182109999999,0.9955743829999999,0.6194183870000001,-1.3178953400000002,0.07114281659999999,-1.4999421649999998,0.22753105400000004,0.1914316166,41.22111100000001,0.08492305129766464,-0.7156288683414459,-2.9247679233551027,0.1748780554197553,0.597084191,0.545245953,0.6508325210000001,0.024685804800000002,-0.67765958,-1.52030679,-0.285975217,0.199890965,0.605235415,-0.972921636,0.8606770020000001,0.195813039
454.5,1.6336997099999997,1.4354074,1.7697409100000001,0.08923858789999999,-0.503763253,0.1391068546,-0.9864884540000001,0.99298944,0.613478686,-1.32334928,0.07736057539999999,-1.75879969,0.226792224,0.18835692599999998,59.18609089999999,0.07553748060017824,-0.7328845739364624,-2.931486201286316,0.1743538550768801,0.6145289409999999,0.5469217219999999,0.6818297499999999,0.0332210726,-0.67861909,-1.216413523,-0.43867987399999997,0.12065820180000002,0.623368439,-1.21177136,0.8310639289999999,0.19035152000000002
464.5,1.6335988399999999,1.4368840299999999,1.76885473,0.08789924679999998,-0.48482980200000014,0.155748175,-0.9749911119999999,0.996070188,0.631579292,-1.36259716,0.0693326168,-1.868911695,0.22678480900000006,0.22519412600000002,61.10159530000001,0.10929277762770653,-0.7300098657608032,-2.940478253364563,0.17383111745508323,0.6116166860000001,0.542754519,0.678636679,0.030681197,-0.6808773239999999,-1.36930505,-0.451952745,0.1233154895,0.622324827,-1.327096775,0.845393584,0.227199231
474.5,1.6351630899999996,1.4341810599999998,1.7705042900000003,0.08565251439999999,-0.2960974233,0.128677507,-0.9859570400000001,0.9951023139999998,0.6121583499999999,-1.29594253,0.0740456198,-1.84896177,0.22796313800000007,0.198338729,66.8121314,0.08477940522134304,-0.7361168920993805,-2.937196946144104,0.17330970800582393,0.618903671,0.5565871259999999,0.6853482940000001,0.030128289399999997,-0.676121865,-1.4418372959999999,-0.340380514,0.1627062575,0.634738168,-1.2965144729999998,0.833375842,0.20204748600000003
484.5,1.6348737,1.43568529,1.7699597099999997,0.0860662889,-0.276315899,0.1303932072,-0.982871724,0.9923470010000001,0.6235133340000001,-1.31871528,0.0780717354,-1.7750362800000001,0.227242508,0.18511641439999998,69.32964899999999,0.0710830232128501,-0.7529941439628601,-2.9512532234191893,0.17278985939117172,0.635242517,0.563875657,0.705087946,0.0329713428,-0.681264706,-1.43601651,-0.366622294,0.1484485894,0.647319421,-1.19843885,0.871567553,0.188877513
494.5,1.63539389,1.4366622599999999,1.7688343100000001,0.0847932873,-0.21342981249999998,0.11545589949999999,-0.9833504169999999,0.994096796,0.614977648,-1.3142982499999998,0.06975084270000001,-1.7410629599999996,0.225344441,0.2092061294,50.9182493,0.09227917008101941,-0.7523743033409118,-2.952027368545532,0.17227114136039204,0.63539579,0.559113867,0.710213415,0.0341136006,-0.678830142,-1.5822031,-0.369436861,0.16453987399999997,0.648463708,-1.1634946669999997,0.888769596,0.2112136706
504.5,1.6348437100000002,1.43521706,1.76968651,0.0854431702,-0.25127350549,0.1446165646,-0.972556696,0.994872361,0.6204586399999998,-1.32397288,0.0765095793,-1.8489970099999997,0.226523396,0.19583785750000002,66.4955125,0.07983145974576474,-0.7629466116428375,-2.9522890567779543,0.17175427257905498,0.646784885,0.573810449,0.718420656,0.0323976612,-0.676116135,-1.608566504,-0.380110727,0.15951539499999998,0.662371684,-1.2757424929999999,0.8441860919999999,0.199189979
514.5,1.63535646,1.4360284,1.7695773900000002,0.0844204659,-0.1583269809,0.1261549096,-0.982159826,0.9948894300000001,0.6192893399999999,-1.32470923,0.0700184126,-1.8766515950000002,0.22405391999999996,0.195127439,62.083521299999994,0.07950113452970982,-0.7678192436695099,-2.9699496269226073,0.17123955695650256,0.650781808,0.576553856,0.7298551420000001,0.0347753552,-0.6832694170000001,-1.8134133600000002,-0.419157076,0.15411180500000002,0.6636006510000001,-1.281587038,0.9449599689999999,0.198429681
524.5,1.63655221,1.43576655,1.76954736,0.08513458999999998,-0.21923969429999998,0.112579607,-0.9890082500000001,0.988843262,0.6186108000000001,-1.3251668600000002,0.07492047449999999,-1.86244354,0.22577484600000003,0.202074057,56.13690210000001,0.08392857871949673,-0.7750500023365021,-2.972594213485718,0.17072540946618714,0.6585967759999999,0.583796072,0.720995953,0.031195505900000003,-0.6819036049999999,-1.4551754840000002,-0.41735557399999995,0.13916391700000003,0.6782662210000001,-1.2496094899999999,0.9167838690000002,0.20554514899999998
534.5,1.63753405,1.43421692,1.77101569,0.0842393965,-0.1023007972,0.12253941940000002,-0.9913850139999999,0.9940484079999997,0.6267924199999999,-1.34883336,0.0725647555,-1.8626186699999998,0.222851666,0.2111380085,61.9068038,0.09565561655908823,-0.7954134345054626,-2.9827818632125855,0.17021230538702795,0.678816443,0.601100526,0.7393303880000001,0.031030547399999997,-0.684800525,-1.8965377799999998,-0.430218685,0.15067890300000003,0.684379468,-1.2474632099999998,0.9212210009999999,0.215372587
544.5,1.63815105,1.43889793,1.7674740899999999,0.08323378599999999,-0.195445194,0.08981588339999999,-0.9858993939999999,0.9951248569999999,0.6328548970000001,-1.3902521699999997,0.0808302444,-1.5476604301,0.22621602200000002,0.18292861100000002,50.18564438,0.07599536143243313,-0.8075679659843444,-2.974443030357361,0.1697007628814404,0.6926051839999999,0.603744872,0.7642130090000001,0.0372733714,-0.677238366,-1.275664313,-0.328691757,0.157013873,0.700264331,-0.9389103239999999,0.8894013660000001,0.1875975521
554.5,1.63776294,1.4347276399999997,1.77018278,0.086038905,-0.35054567999999997,0.10954274690000002,-0.985407953,0.995021128,0.6261658239999999,-1.3733392299999998,0.07344861970000001,-1.97842517,0.226235902,0.228077464,65.5767566,0.10519026778638363,-0.8015972197055816,-2.9942195415496826,0.16919118719404674,0.685575941,0.595774252,0.7612139880000001,0.039614083300000005,-0.685531962,-1.333405145,-0.42508195200000004,0.1212855416,0.701806893,-1.35073942,0.9386209130000001,0.229954366
564.5,1.63671614,1.4345934200000001,1.7704154900000002,0.085184431,-0.1479247923,0.091463771,-0.985544412,0.994339779,0.6233153879999999,-1.36991782,0.0715210165,-1.61676796,0.224324413,0.20035271699999999,42.4839423,0.08744400478899479,-0.8151726007461548,-2.983153772354126,0.16868316245898746,0.7010308999999999,0.624268703,0.7683918250000001,0.0334473695,-0.6764620000000001,-1.1441970049999999,-0.27169454099999996,0.182132258,0.706313208,-0.9821800390000002,0.9203521779999999,0.20511952
574.5,1.63686555,1.43668108,1.7686884299999999,0.08526182389999998,-0.12646694149999999,0.10940080680000001,-0.981160444,0.995059726,0.62088088,-1.32396147,0.07405750140000002,-1.7045923879999996,0.22709994,0.19020612100000003,59.67899480000001,0.08014352926984429,-0.8218491494655609,-2.9863620042800902,0.16817766148198438,0.708222122,0.621515434,0.781772614,0.0397518865,-0.6754377630000001,-1.37429268,-0.39548324600000007,0.133863182,0.716176884,-1.0606862070000003,0.9597584209999999,0.19590506400000002
584.5,1.6368063400000001,1.4356562,1.76941287,0.0843368618,-0.12007950459700001,0.10682803029999999,-0.9830013320000001,0.9923756320000001,0.6171293419999999,-1.31716187,0.0657939359,-1.97832274,0.22695507999999998,0.23176542700000002,60.617833000000005,0.11552569642663002,-0.8214247763156891,-2.990943670272827,0.1676739621400233,0.708178521,0.6259647450000001,0.780384867,0.0365762454,-0.675191788,-1.6959591299999999,-0.286718081,0.18740310500000001,0.7171322250000001,-1.34591884,0.9594375100000002,0.23728587699999998
594.5,1.6375723599999996,1.4365525099999998,1.7691596,0.0841847929,-0.12408748169999999,0.10459790900000002,-0.995142064,0.991304081,0.629415915,-1.3678308299999997,0.0752052337,-1.7220857849999998,0.225657791,0.19270595999999998,63.015956,0.08390412572771311,-0.8383129060268402,-2.9995175123214723,0.16717202620478805,0.725074391,0.641072357,0.7928168349999999,0.0369261987,-0.677175907,-1.54550496,-0.42140432699999997,0.13036429600000002,0.735570319,-1.0652447757999999,0.9906829040000001,0.199315742
604.5,1.63777593,1.43649565,1.7693963,0.08527926439999998,-0.1588926308,0.0971098832,-0.9899113740000001,0.989619939,0.622964587,-1.35801041,0.0734685131,-1.6211226289999998,0.22537123800000006,0.192384516,46.7313994,0.081002336461097,-0.8531593978404999,-3.0164331674575804,0.1666709774459557,0.739153464,0.6404210659999999,0.8292068440000001,0.0456329177,-0.6838107720000001,-1.6293841260000002,-0.461227695,0.12886846189999998,0.741690607,-0.9612841980000001,0.9852291760000002,0.19814948039999997
614.5,1.63807638,1.4347621199999998,1.7704594400000002,0.08470012219999999,0.04464735659999999,0.08627537472999999,-0.9845076160000001,0.992388933,0.611318231,-1.3020863500000002,0.0690715972,-1.8688325949999995,0.22695581800000003,0.21070619399999999,59.915523199999996,0.09179282635450363,-0.8504756689071655,-3.0159256219863892,0.1661704323225121,0.737327442,0.653394632,0.806369679,0.0388118201,-0.6807074209999999,-1.542872985,-0.373446403,0.150780537,0.746666246,-1.1988645859999998,1.0002510550000001,0.216125561
624.5,1.63893873,1.4357122399999998,1.7698321499999998,0.08280714,0.1432864165,0.0983360335,-0.9811030800000001,0.994709906,0.625390769,-1.3666867800000002,0.0665397699,-1.8772127250000001,0.225372306,0.230971833,52.4107577,0.10688267573714257,-0.8582327246665955,-3.022730755805969,0.16567149858059518,0.7452631779999999,0.654868934,0.818489044,0.03870580579999999,-0.681680717,-1.564212893,-0.484792412,0.11570583510000002,0.751526767,-1.198675433,1.02602903,0.235428209
634.5,1.6391689800000002,1.43695144,1.76917844,0.08331791699999999,-0.011335122399999998,0.1082286218,-0.9892925650000001,0.9929572659999998,0.624771786,-1.3633645400000003,0.07736052500000001,-1.7254928949999997,0.22666550700000002,0.19055863750000002,61.5015897,0.07946518249809742,-0.8779312074184418,-3.0159449338912965,0.1651744690588647,0.766387402,0.67053895,0.8495388120000001,0.0436627396,-0.67510436,-1.52678496,-0.313653255,0.168889615,0.770240052,-1.0416451217999998,0.971211692,0.1978272125
644.5,1.63903065,1.4340200099999998,1.7709724999999998,0.0850571999,0.09760810161,0.0930957492,-0.9817089639999999,0.9950025709999999,0.6264166689999999,-1.3651631299999998,0.0730421088,-1.9776862599999998,0.22580259100000002,0.204029329,65.84987860000001,0.08400626182556152,-0.8786244928836823,-3.0332057237625123,0.16467942357912935,0.766297616,0.671907297,0.845617467,0.0432921281,-0.6818873909999998,-1.262247905,-0.32064075699999994,0.15233060599999998,0.7733044999999998,-1.29220982,0.971595057,0.21106151900000003
654.5,1.6399017099999997,1.43438173,1.7705107500000001,0.0836246149,0.08528280429999999,0.090197369,-0.983814204,0.9942539800000001,0.620967515,-1.32829056,0.07244052410000001,-1.8494108900000001,0.226209419,0.2118794855,61.96899780000001,0.09499777648597955,-0.8872426867485046,-3.0380346298217775,0.16418542856117746,0.7752734179999999,0.6690302739999999,0.8578818219999998,0.047612997000000004,-0.681762947,-1.384663194,-0.396436546,0.1324353525,0.782809373,-1.1454237118000001,1.036271809,0.2181731034
664.5,1.64080234,1.43773511,1.76823308,0.0822448356,0.12014884848,0.10664671190000001,-0.987155486,0.9926545619999999,0.61620337,-1.3356496399999997,0.07881074830000002,-1.6242004399999999,0.22796129000000004,0.197720139,51.6659482,0.08792815338820219,-0.8906572222709656,-3.0247602701187133,0.16369297874326647,0.780681992,0.6807495100000001,0.858623344,0.0434983479,-0.671635165,-1.28830247,-0.210939347,0.20002009999999998,0.79552343,-0.9011551117,0.9695030500000001,0.20504604359999998
674.5,1.64044181,1.4357836099999999,1.77003947,0.08340807519999999,0.090414675,0.0900778846,-0.9798975999999999,0.991821649,0.627310296,-1.37699946,0.0632807582,-1.774254668,0.22459789900000002,0.228607498,43.834217699999996,0.10930610448122025,-0.8948425650596619,-3.0309211730957033,0.16320331661669107,0.7850925340000001,0.684171104,0.871136345,0.0460685351,-0.6722708849999999,-1.3454301320000002,-0.32993463300000003,0.16623507939999999,0.788794545,-1.0511367920000003,1.05646944,0.234843593
684.5,1.6399421800000002,1.4351476699999999,1.7704725,0.08235186060000001,-0.05010100460000001,0.096719784,-0.9832130620000001,0.9951556229999998,0.624816882,-1.3678070900000001,0.0676139516,-1.9786848899999996,0.22666708800000004,0.232351794,59.09430290000002,0.11054746359586716,-0.8989026844501495,-3.0561894178390503,0.16271520427944086,0.787664868,0.6904519689999999,0.8727216739999999,0.043329022599999996,-0.6834297320000001,-1.36135337,-0.42249458800000006,0.12709967900000002,0.8011671290000001,-1.24581689,0.9950395879999998,0.23737266699999998
694.5,1.6392834,1.43702383,1.76853279,0.0832051222,-0.12822272124,0.11052125510000002,-0.987662086,0.9913918439999998,0.6236480560000001,-1.3488635099999997,0.0816620742,-1.7285702369999996,0.224009335,0.1676447714,71.9379238,0.05799485594034195,-0.9207123041152954,-3.0449078559875487,0.16222744463459723,0.811264889,0.6972465459999999,0.9150536199999999,0.0548281147,-0.674448421,-1.222214857,-0.35712758299999997,0.14553466639999998,0.82274719,-0.9802038450000001,1.006608016,0.176234183
704.5,1.6397301299999998,1.4368419399999999,1.76949225,0.0831153092,0.13720478900000002,0.08645621059999999,-0.990868764,0.9928633,0.62377206,-1.3519132900000002,0.061387728499999995,-1.97876758,0.225470206,0.244357968,51.588717599999995,0.11954938583076,-0.908930093050003,-3.061416745185852,0.16174166421767666,0.798791396,0.689172162,0.8911568009999999,0.0482398448,-0.680752115,-1.4294479949999999,-0.4227421860000001,0.1325172314,0.8111101450000001,-1.2343198599999998,1.052305256,0.250321366
714.5,1.64068268,1.43772379,1.76853965,0.08334318,0.05138125400000002,0.0665780518,-0.990317606,0.992718496,0.6209435489999999,-1.3524412800000003,0.0704627867,-1.64286146,0.225083983,0.20759680300000002,44.40664,0.09408819526433945,-0.9170828938484192,-3.0584144830703734,0.16125682029142258,0.8079848679999999,0.689406403,0.9093308530000002,0.049466696299999995,-0.676343211,-1.6504127359999998,-0.36072798999999994,0.150231741,0.827913698,-0.8978130545999999,1.0810517400000001,0.21586473900000006
724.5,1.6384529299999997,1.4365231699999998,1.7693474500000002,0.082554402,0.2206812325,0.08851252700000001,-0.9827152870000001,0.9966059959999999,0.622736705,-1.34266516,0.065286268,-1.9783223999999997,0.22519488399999998,0.21779714600000002,62.2134205,0.09478543028235435,-0.9256668150424957,-3.06541645526886,0.1607737913156175,0.816722647,0.700836258,0.9356505480000001,0.055465563499999995,-0.677421265,-1.317934663,-0.371276187,0.14398464299999997,0.8295233,-1.22456306,1.0260247,0.225281377
734.5,1.6410263599999997,1.4389847999999998,1.7681613299999999,0.0821927852,0.26507633890000004,0.06524473731,-0.9856029020000001,0.99457559,0.6225322139999999,-1.35776502,0.073414279,-1.608520845,0.22520847900000002,0.19228532359999997,49.0768539,0.07914999686181545,-0.9442973494529724,-3.0716630935668947,0.16029228207214158,0.8355731009999999,0.713350684,0.9310682940000001,0.05067384800000001,-0.6780850490000001,-1.47027755,-0.373033763,0.1469189716,0.8476050249999998,-0.8480243868,1.0349777699999998,0.20103814200000003
744.5,1.64053586,1.4353755299999997,1.77028155,0.084103387,0.1705553627,0.1053924481,-0.9879964309999998,0.99259056,0.621700619,-1.3295399099999998,0.0690035627,-1.7754755100000001,0.22519258700000006,0.20598991500000002,51.46969750000001,0.08679604902863503,-0.9478363215923309,-3.086664652824402,0.15981169503637915,0.8385688479999999,0.716596269,0.9604472369999998,0.059184618900000006,-0.6835202659999999,-1.7070979359999998,-0.36784104100000004,0.15607386439999998,0.851616469,-1.0053045200000001,1.0715533,0.214819294
754.5,1.6405402299999998,1.43632635,1.7694254999999999,0.08009626360000001,0.316036176,0.08904635749999998,-0.9866218559999999,0.9947658349999999,0.62657947,-1.3497921799999997,0.07473826850000001,-1.645848798,0.22463219800000003,0.187427549,50.4609469,0.07443196251988411,-0.9675904929637908,-3.093507480621338,0.15933192444892766,0.8584971990000001,0.728270076,0.9476005409999999,0.0515755795,-0.684488698,-1.8253057,-0.38574450099999996,0.15420185499999997,0.86701573,-0.8586390029999998,1.12379356,0.197933391
764.5,1.6403506200000002,1.43701626,1.76847634,0.08113208749999999,0.199357788,0.1005361638,-0.984782725,0.990810645,0.626475544,-1.34530327,0.0744581339,-1.623962,0.223777784,0.1928434235,53.969190600000005,0.07973703388124705,-0.9678838908672333,-3.0888028860092165,0.15885340537644613,0.859962823,0.732734447,0.958809201,0.055266613000000006,-0.6791754809999999,-1.208843974,-0.42965785199999995,0.1208774226,0.8738645460000001,-0.831914677,1.11448758,0.20304688299999998
774.5,1.64048659,1.43838179,1.7698603099999999,0.08200814250000002,0.2654846088,0.09798920070000001,-0.9887944900000001,0.9939962400000001,0.616498965,-1.31093442,0.0747455989,-1.8688601649999999,0.225456388,0.194189895,59.5103165,0.07432939242571593,-0.9718217015266418,-3.0974227666854857,0.15837658666157622,0.8639162180000002,0.727726565,0.972526953,0.0626632968,-0.681116942,-1.3366259999999999,-0.31958481,0.155442614,0.884349662,-1.0529145500000001,1.12106226,0.20394336000000002
784.5,1.64082842,1.43733469,1.76821041,0.08209814060000001,0.010600532999999992,0.0937028949,-0.982518709,0.994876548,0.6265425739999999,-1.37609633,0.08008852,-1.5466239889999998,0.226235134,0.18612007760000002,48.58016260000001,0.07310447096824646,-0.9958021521568299,-3.103744554519653,0.1579012246875266,0.8881127149999999,0.7413813380000001,1.000165006,0.06513416390000001,-0.6818025810000001,-1.67386539,-0.421680249,0.13693474700000002,0.8987868209999998,-0.72915581,1.1128881800000001,0.19691668599999998
794.5,1.64090097,1.43844635,1.7680123600000006,0.08093771720000001,0.2507310126,0.10092027960000001,-0.9898332959999999,0.9910994370000001,0.6198904040000001,-1.34019458,0.08092374640000001,-1.624562955,0.225620576,0.164689315,61.5439434,0.05434352019801736,-1.003485268354416,-3.1108973264694213,0.15742695174992333,0.8959394069999999,0.746102196,1.0177005239999999,0.06834546919999998,-0.6829387239999999,-1.4296374399999998,-0.401700842,0.13024218950000002,0.907976635,-0.795193965,1.1801651100000001,0.178400122
804.5,1.64085791,1.4375153499999997,1.76817424,0.0827022734,0.0994409212,0.08486502180000001,-0.9883082099999999,0.9932061799999998,0.620849639,-1.3506317,0.069859795,-1.7525368099999998,0.223740761,0.2125509385,55.56889209999999,0.09734150040894747,-0.9982125997543335,-3.1080173015594483,0.1569543572451561,0.8916645160000002,0.7310655290000001,1.0119600199999998,0.06782692010000001,-0.678646528,-1.296648835,-0.33080900699999993,0.151328105,0.905115876,-0.9385420334999999,1.1322105699999998,0.22363717299999997
814.5,1.6405652500000003,1.43546189,1.7703537099999997,0.080213646,0.26410795470000004,0.08711427220000001,-0.9812372079999999,0.9915407349999998,0.621513168,-1.35329887,0.06925289840000001,-1.77515611,0.222729006,0.19605405599999998,50.872659799999994,0.0798417653888464,-1.001846468448639,-3.1229697942733763,0.15648326028259574,0.894779909,0.7388284850000001,1.001668057,0.061843982000000006,-0.6839933009999999,-1.382631153,-0.39939676699999993,0.127062617,0.9126877390000001,-0.9403976704,1.12417486,0.209215222
824.5,1.64237633,1.43573618,1.7698932000000003,0.0799808319,0.3196373776,0.10086496500000001,-0.9902234919999999,0.9932129360000002,0.62014228,-1.3243783199999999,0.0753496131,-1.7430938849999997,0.22578027,0.19915929500000001,56.505857400000004,0.08463815115392208,-1.0147409737110138,-3.1222578287124634,0.1560136416308562,0.9084836299999999,0.732253429,1.037589219,0.07323047969999999,-0.680878592,-1.815265787,-0.364705038,0.1569478265,0.9291810870000001,-0.9113586760000001,1.16047287,0.212919174
834.5,1.6392069,1.4370672699999998,1.7691870499999998,0.08075446459999999,0.28140062050000003,0.108862329,-0.9856586960000001,0.9942576909999999,0.618872222,-1.33184033,0.07377916740000001,-1.7274918549999998,0.22522720300000004,0.18461172399999998,58.144203299999994,0.07258827704936266,-1.019223576784134,-3.1321826457977293,0.15554530843875308,0.9128762079999999,0.7457902630000001,1.0435871799999998,0.07144283249999998,-0.683500781,-1.3827711299999998,-0.39223995,0.12456572020000001,0.932984188,-0.8904736410000001,1.17140555,0.20033432399999995
844.5,1.6400834800000001,1.4387652000000002,1.7678778300000002,0.08131868709999998,0.270575266302,0.06751070340000001,-0.9768289000000001,0.9936070850000001,0.610979431,-1.3345132300000002,0.0708815755,-1.8754542429999996,0.22666190300000003,0.204490792,60.466608799999996,0.08818924035876989,-1.0304895162582397,-3.1326153755187987,0.1550780727711946,0.924846913,0.762071698,1.049985516,0.0694327967,-0.68101575,-1.279792217,-0.39894221900000004,0.1264799096,0.938873016,-1.0198268770000003,1.15012982,0.21754514500000002
854.5,1.64059745,1.4358735999999999,1.7694419,0.0817418029,0.29997742269999994,0.08818687379999998,-0.9867881520000001,0.9915834499999999,0.620757311,-1.350534,0.0692048443,-1.7724931659999996,0.22505694700000003,0.20608160499999997,55.765897200000005,0.09052369147539138,-1.0299954295158387,-3.1384818077087404,0.15461230082642335,0.924601749,0.753640869,1.05000806,0.06981198590000001,-0.681452535,-1.3364776800000002,-0.38287404699999994,0.1392454975,0.946034339,-0.9280842180000001,1.15141385,0.22077650399999998
864.5,1.6410557799999999,1.4387490299999999,1.76800116,0.07915793550000001,0.32443901249999996,0.07867641483,-0.9785707839999999,0.9943459959999998,0.62512357,-1.38096865,0.0728161074,-1.97863742,0.224251316,0.211666875,67.67832920000001,0.08858696036040783,-1.05011088848114,-3.1415698766708373,0.1541484118206531,0.9451971539999999,0.7589119940000001,1.0817235699999999,0.0740795906,-0.6803977349999999,-1.339469074,-0.397811016,0.12810146,0.960467547,-1.1150356900000002,1.17839498,0.225633274
874.5,1.6395622800000003,1.4383908600000002,1.7679304500000002,0.0822181112,0.13881936,0.09820965410000002,-0.9868886439999999,0.9937110709999999,0.6208650089999999,-1.3401512299999998,0.07275233299999999,-1.6462256830000002,0.22580315100000004,0.194904236,51.2409725,0.08202819358557463,-1.062885820865631,-3.1452821016311647,0.15368639082806668,0.9583970159999999,0.7850581139999999,1.0859017300000002,0.07323475510000002,-0.679683843,-1.9540151900000002,-0.373694133,0.15528425740000001,0.965981678,-0.7722951507,1.1987005199999998,0.210763503
884.5,1.64161188,1.4373427199999997,1.76927275,0.07943083209999999,0.381819467,0.0781811164,-0.9851243179999999,0.9903702079999999,0.6231810470000001,-1.35312294,0.0727062684,-1.6167561,0.222162726,0.1950774735,46.577545199999996,0.0837458185851574,-1.073969841003418,-3.1515176773071287,0.15322554802149574,0.9696957850000001,0.777876778,1.10280987,0.0768236742,-0.680321753,-1.5497176000000001,-0.42383182899999994,0.13471581470000002,0.9774089599999998,-0.75559308,1.19874058,0.2142884354
894.5,1.64180293,1.43711984,1.76856941,0.0797319976,0.41612448620000003,0.09281637039999999,-0.9756992669999999,0.9943847329999999,0.6220684320000001,-1.3496302199999999,0.0720592861,-1.8368320969999998,0.22753167999999996,0.213152932,52.412277100000004,0.09089120700955391,-1.082930064201355,-3.1534446477890015,0.15276617776858786,0.9792228919999999,0.755495627,1.10488888,0.0763249212,-0.6786604519999999,-1.4256878399999997,-0.4572326190000001,0.11393776039999999,0.9858940019999999,-0.9709417870000001,1.20735696,0.22918623600000002
904.5,1.6411968799999996,1.4353873,1.77036558,0.08034884760000001,0.384478046,0.0768212124,-0.982131182,0.9932944240000001,0.6129435530000001,-1.33124181,0.071190062,-1.74381378,0.223166486,0.201868005,50.3456597,0.08058968745172024,-1.0887008309364319,-3.173470449447632,0.15230791922579376,0.98409099,0.74386682,1.1332229900000002,0.08373766760000001,-0.686624828,-1.46429283,-0.428120662,0.1226211014,0.991893403,-0.8825554055,1.18838429,0.219951312
914.5,1.6409138300000001,1.43544648,1.77001363,0.07942779320000001,0.493455947,0.09414951660000001,-0.9857143880000001,0.9910328110000002,0.629751354,-1.37568951,0.07802497649999998,-1.97808573,0.22508390399999997,0.184391581,75.92270649999999,0.06303108520805836,-1.1016903162002563,-3.163928484916687,0.15185075222418462,0.9985736359999999,0.7820220549999999,1.14378897,0.08667774539999998,-0.678867948,-1.359326405,-0.39927481299999995,0.13670187800000003,1.0065020759999999,-1.0802432,1.2157472,0.203434078
924.5,1.6406873899999996,1.43930823,1.7672594199999998,0.08154788099999999,0.22212669059999998,0.0808011323,-0.982390651,0.98942833,0.6255848850000001,-1.35853258,0.0737537187,-1.877214645,0.226090742,0.20884031299999997,60.65386980000001,0.08488493151962757,-1.1081551551818847,-3.182083821296692,0.1513948841792578,1.004294728,0.77609075,1.15273836,0.08704030580000001,-0.685816252,-1.60118923,-0.454990755,0.11455243740000001,1.010129145,-0.9827154053999999,1.2165687899999997,0.22637353500000001
934.5,1.6416510299999998,1.44264386,1.7670646900000002,0.0808267936,0.14905781580000002,0.0864288263,-0.9823735819999999,0.9937465910000001,0.617364771,-1.33930511,0.075271113,-1.607763448,0.22475603599999996,0.19556110300000001,47.3641883,0.08083407059311867,-1.1110434412956238,-3.1771807432174684,0.15094005002789954,1.0082918939999999,0.767243801,1.1640698200000001,0.0924030049,-0.6805392429999999,-1.3603117,-0.36255048500000003,0.137284514,1.02274313,-0.6910626070000001,1.2234744700000002,0.216694661
944.5,1.64121993,1.43784656,1.7685510200000003,0.080367442,0.38827599560000003,0.05529935235,-0.980638087,0.99365416,0.6204010019999999,-1.3493269099999998,0.059505584599999994,-1.749865469,0.22419282100000001,0.23791460599999997,40.256940500000006,0.118053169362247,-1.0989617705345154,-3.1839019775390627,0.1504871608994545,0.9963863849999999,0.6955332890000001,1.16366989,0.09321988789999999,-0.6814201099999999,-1.559503295,-0.38534784499999997,0.143712447,1.012649503,-0.8196420176000002,1.240249,0.25622400700000003
954.5,1.64110907,1.4367921,1.7690728400000002,0.07963886439999998,0.36500786640000005,0.0749551085,-0.98467699,0.994076594,0.6275303900000001,-1.37383545,0.0725067962,-1.6579372779999997,0.22537192599999994,0.18880658460000002,54.131348849999995,0.07447010595351458,-1.1299705028533935,-3.1894440174102785,0.15003561465292523,1.027663524,0.7474267799999998,1.17746242,0.09407367950000001,-0.681679788,-1.400353134,-0.39731444000000005,0.13678294929999996,1.0353153000000002,-0.7139396168400001,1.27253295,0.212778054
964.5,1.64093357,1.43752813,1.7686720700000003,0.0797336461,0.388807035,0.09805881329999999,-0.9824422390000003,0.9940818219999998,0.622358036,-1.3449957300000002,0.0764625821,-1.6409012529999998,0.223748047,0.17421935500000002,60.616788899999996,0.0647816339507699,-1.1387289762496948,-3.1916714668273927,0.14958536912723938,1.036951531,0.760073471,1.1943565499999997,0.0961453028,-0.680191899,-1.416367064,-0.40269948,0.14299407700000005,1.04538819,-0.7178835171,1.2658596100000001,0.199472088
974.5,1.6410246899999996,1.436181,1.7689391300000001,0.08003582499999999,0.36350038,0.0775809952,-0.9832213020000001,0.9928643239999999,0.61694662,-1.3303809999999998,0.0706250271,-1.7736067679999998,0.224214131,0.204473139,58.0041514,0.08882302828133107,-1.1186976790428163,-3.1949738264083862,0.14913671973049814,1.0173618599999998,0.7148422689999998,1.16549797,0.092999359,-0.6792759179999999,-1.3450631560000001,-0.34849912299999997,0.148319211,1.04943435,-0.8525119281,1.30257266,0.22975752100000002
984.5,1.6422195099999999,1.43708444,1.76880516,0.07904466839999999,0.5479086333000001,0.0872706518,-0.9888944819999999,0.993239829,0.619902189,-1.31606719,0.0769255824,-1.7410031700000002,0.225084096,0.17751208359999998,57.9866794,0.061752808094024655,-1.149100136756897,-3.206104278564453,0.14868960876763954,1.0475934400000002,0.757818943,1.22025291,0.1012850055,-0.682469746,-1.49260906,-0.38360449300000005,0.1354271453,1.06530513,-0.7874769580000001,1.2807026199999998,0.20388139599999996
994.5,1.6414589800000001,1.4382030799999999,1.7680931299999998,0.07783711930000001,0.49457874199999996,0.07200897269999999,-0.986428962,0.9939900439999999,0.6269288270000001,-1.36468377,0.0726223637,-1.7074069639999998,0.22330759699999997,0.19618181650000002,52.730698399999994,0.08385884780436755,-1.1474111557006836,-3.215149760246277,0.1482434903665431,1.0458990339999998,0.761356747,1.2173150400000001,0.0978888219,-0.6845601530000001,-1.75267933,-0.389685479,0.1379395165,1.0668725000000001,-0.7531663290000001,1.30085878,0.221645922
1004.5,1.6405987899999999,1.4357563899999997,1.77010678,0.0793658959,0.5411445610000001,0.05405583629999999,-0.985507822,0.9905714509999999,0.6270467140000001,-1.3620017299999998,0.0743321804,-1.7480573369999999,0.225030829,0.18672795859999997,67.9532045,0.0769368965178728,-1.1555166959762573,-3.2170782804489138,0.1477984100232584,1.0545523300000001,0.748459013,1.22027821,0.098764137,-0.6829185869999999,-1.4692614099999999,-0.322670412,0.15246618000000003,1.0762292999999998,-0.8170375609999999,1.29862674,0.21421384100000002
1014.5,1.6422537400000004,1.43753199,1.7685506,0.07765424460000002,0.601089838,0.07868453950000001,-0.9868486439999998,0.9949376019999999,0.6269281760000001,-1.3579482200000002,0.06818331749999999,-1.6196957450000002,0.22430460599999996,0.216549228,45.666475000000005,0.09708328247070312,-1.1686325788497924,-3.1990296840667725,0.14735505737911586,1.069749,0.735935325,1.23842557,0.10432361189999999,-0.6708525329999999,-1.174628025,-0.29148241299999994,0.16032654600000001,1.0819873800000002,-0.688928201,1.2930697599999998,0.24336265499999996
1024.5,1.64212548,1.4391782,1.7672306299999998,0.07948575699999999,0.4683010177000001,0.0921577844,-0.98065125,0.9929927110000001,0.618303587,-1.32250918,0.07499775289999999,-1.735728652,0.226667125,0.19677425,55.5121855,0.0786372802220285,-1.1834469437599182,-3.230176591873169,0.14691404518438256,1.08285673,0.752703761,1.26118995,0.1070634592,-0.684482102,-1.7595668299999996,-0.379298006,0.1471044636,1.0938551,-0.7548471579999999,1.30939588,0.22470809600000002
1034.5,1.64171622,1.43799564,1.7682361400000002,0.07860907330000001,0.5974994623,0.08811810490000001,-0.9874063,0.9909563009999998,0.6227186600000001,-1.34209713,0.0722172983,-1.7255745089999999,0.224867636,0.203665385,56.280742,0.08817006982862949,-1.190416443347931,-3.227740430831909,0.1464735946287881,1.0906993399999998,0.7131304340000001,1.2682350500000001,0.11097949879999999,-0.680580794,-1.4603430700000002,-0.397004412,0.12761197549999997,1.10002804,-0.7508150330000001,1.32521722,0.23362964799999997
1044.5,1.6419054399999997,1.44029087,1.76697561,0.0789565233,0.35411131,0.06447156577999999,-0.9894093939999999,0.992146004,0.626439508,-1.3906223,0.0690479058,-1.9787256899999999,0.224460845,0.222815334,58.98928420000001,0.09688228592276574,-1.1907737255096436,-3.231905627250671,0.14603440194606532,1.09142259,0.7536968940000001,1.27220579,0.11085972159999999,-0.6801224300000001,-1.31424992,-0.4017416849999999,0.12529655509999998,1.1046322300000002,-0.998101939,1.34040552,0.25036868000000007
1054.5,1.6423879,1.43848192,1.76803342,0.0783821186,0.5911120950000001,0.07109416354999999,-0.993771024,0.993449658,0.6209112830000001,-1.32078634,0.07916099839999999,-1.7524400199999999,0.224216529,0.177769975,73.4584586,0.06482542771846056,-1.214934766292572,-3.2378844022750854,0.14559659069171033,1.11581059,0.7500332409999999,1.3015415499999998,0.1129454556,-0.68060808,-1.179382771,-0.414431215,0.1314127225,1.1225435300000002,-0.7569572654,1.35838174,0.21174134200000005
1064.5,1.64186543,1.4371444000000002,1.76886264,0.079811369,0.567726407,0.09895056059999999,-0.986252926,0.99263712,0.623222013,-1.33923724,0.0707344875,-1.9787893399999998,0.226235582,0.22214051899999995,68.16672439999999,0.1013969786465168,-1.2102767467498778,-3.2466548204422,0.14516001711041712,1.1111702700000001,0.700322865,1.30615957,0.11975831640000001,-0.6825360459999998,-1.5753303040000002,-0.408387065,0.152459514,1.12107624,-1.001156991,1.3531521300000002,0.2528172329999999
1074.5,1.64242311,1.43489392,1.77028207,0.0788631845,0.64667133,0.06404887465,-0.9857750340000001,0.9947050779999997,0.633367225,-1.38329091,0.07045921100000001,-1.877171515,0.222464907,0.218031166,59.034404800000004,0.09218643791973591,-1.2077548503875732,-3.2378767013549803,0.1447248813378597,1.1099812099999997,0.7219417260000001,1.3032856599999998,0.1189778476,-0.675380805,-1.243073733,-0.395644843,0.13266920259999998,1.12793055,-0.9468002550000001,1.3888569,0.251306865
1084.5,1.64157856,1.4357233299999999,1.76944388,0.07920462810000001,0.41445877719999996,0.0726201088,-0.9861054940000002,0.9939815689999998,0.6136439149999999,-1.3140259000000003,0.067902714,-1.9785902999999998,0.22212905300000002,0.228389216,62.298700399999994,0.10043572932481766,-1.2142497777938843,-3.2474563121795654,0.14429160861009696,1.11642914,0.681826813,1.31292366,0.12037786000000002,-0.677734507,-1.3987596800000002,-0.4121623389999999,0.12308648809999997,1.1326011699999998,-1.0389981670000001,1.39419638,0.26032512299999994
1094.5,1.64102843,1.43774409,1.768077,0.07948455460000001,0.6216044672,0.08101138860000001,-0.98465127,0.9909357530000001,0.6323248299999998,-1.3819659800000001,0.07518898180000001,-1.73670449,0.22652231299999998,0.1947995535,56.77804489999998,0.08337991889566183,-1.2256688594818115,-3.2686782121658324,0.1438593623213213,1.12693928,0.7420799560000001,1.3111433399999997,0.1205904544,-0.686085941,-1.8323646199999999,-0.44260380199999994,0.132639818,1.14616021,-0.7275162890000001,1.39297037,0.23142292500000003
1104.5,1.64302952,1.4361741500000003,1.7698308400000002,0.0799193654,0.589404255,0.06978377737,-0.991445394,0.990711733,0.6212069499999999,-1.3300880999999998,0.0693795713,-1.759296041,0.224939307,0.20555221799999995,49.0051025,0.0853261448442936,-1.222858762741089,-3.257739806175232,0.14342758681912757,1.12560753,0.681157876,1.3288920800000001,0.126036755,-0.677843729,-1.315261734,-0.312935342,0.153715594,1.15112131,-0.7752962586,1.4017623300000002,0.24208012
1114.5,1.64269748,1.43903605,1.7673011399999996,0.07853584329999999,0.49659527299999995,0.072165077,-0.991210774,0.991097009,0.620703875,-1.3708574900000001,0.0762638672,-1.6647997239999999,0.22508281200000005,0.1910439464,53.0919254,0.0793517593294382,-1.218867301940918,-3.2699447154998778,0.14299772001149505,1.12138118,0.740966188,1.3111631799999999,0.12186898809999999,-0.681527816,-1.250443695,-0.313162911,0.15232201499999998,1.16668387,-0.6707714655999999,1.4233019300000003,0.230508916
1124.5,1.64202911,1.43617851,1.77001968,0.07951727410000001,0.7933435419999999,0.0757399262,-0.9898820560000001,0.9956280979999999,0.616919003,-1.3273690400000002,0.06648547540000001,-1.7379252149999995,0.223930107,0.20565129200000004,53.3485992,0.08695251680910587,-1.2167113900184632,-3.2714282274246216,0.1425690332017449,1.11977852,0.6851553899999999,1.33669443,0.1319889455,-0.679697604,-1.2557560589999999,-0.344192596,0.14576953760000003,1.16147922,-0.732643079,1.40295863,0.24691900700000002
1134.5,1.6424714900000001,1.43676709,1.7698089,0.0797918746,0.465958326,0.08022277210000002,-0.989683988,0.992726817,0.6285450920000001,-1.36157714,0.0737889704,-1.8694652059999999,0.22572902700000003,0.19571658499999997,62.947333400000005,0.07406655680388212,-1.2472068190574646,-3.283469390869141,0.1421417595196392,1.1500547700000001,0.696020639,1.35180957,0.13047609400000001,-0.6832847120000001,-1.2412271049999999,-0.43588343799999996,0.126420921,1.1778325100000002,-0.8707469595999999,1.42723543,0.23600144799999997
1144.5,1.64227473,1.4374492900000002,1.7684495799999997,0.0766658511,0.6778011929999999,0.08999667789999999,-0.9884049919999999,0.992421532,0.62526063,-1.3370775799999999,0.06784263339999999,-1.9788507299999996,0.22421488800000003,0.22042643199999995,63.009298,0.09148834273219109,-1.264606237411499,-3.284142827987671,0.14171531736916254,1.16806339,0.6890494439999999,1.3796057300000002,0.132968607,-0.681041525,-1.50262608,-0.4130365929999999,0.13421740399999998,1.18258228,-0.9671716829999999,1.46856816,0.25921786599999996
1154.5,1.6410747300000001,1.43528481,1.77055659,0.0793774945,0.6215926039999999,0.08091033700000001,-0.990819696,0.991535729,0.627269837,-1.36516657,0.07275440359999999,-1.611795609,0.22416103300000004,0.19130419400000004,47.8071051,0.07311124205589295,-1.2753597140312194,-3.298590970039368,0.1412901293925414,1.17842815,0.7030149560000001,1.3984001300000002,0.137873426,-0.685843239,-1.6405788000000001,-0.411209883,0.13673327600000001,1.19057589,-0.6636515116,1.44883673,0.23961865799999998
1164.5,1.6426412099999996,1.43941721,1.7669425100000002,0.0785599666,0.6041297160000001,0.0661650473,-0.9908520980000001,0.992137584,0.626752996,-1.3588306700000001,0.06895055990000001,-1.646334193,0.22537083600000002,0.21460594200000002,44.5866998,0.09752354100346565,-1.2797845125198364,-3.296043872833252,0.14086549380619814,1.18368991,0.6959563950000001,1.39502035,0.13950897599999998,-0.681960003,-1.14357682,-0.328586159,0.148703607,1.19729247,-0.631508559,1.48973997,0.258898222
1174.5,1.64275199,1.4385999200000001,1.7681594,0.0781635568,0.659410625,0.0597109678,-0.989832198,0.9937192680000001,0.6209344649999999,-1.32602391,0.0686101906,-1.6497979779999998,0.221456898,0.20768567,47.5013619,0.09012137092649937,-1.270173680782318,-3.3065621137619017,0.14044250400382996,1.17397836,0.683479615,1.3786256499999996,0.1394227064,-0.684737971,-1.47465164,-0.371822645,0.139125306,1.20478554,-0.6553680797999999,1.4666927399999998,0.25509531799999996
1184.5,1.6431517000000002,1.4407730500000002,1.76836044,0.0767029565,0.7493935232,0.05090840408999999,-0.9907144139999999,0.9927700119999999,0.6265674439999999,-1.3603671299999998,0.07111021199999999,-1.9782910699999998,0.221698576,0.21013101500000003,70.896391,0.08838481716811657,-1.2989527583122253,-3.31483850479126,0.14002079872501372,1.20281798,0.692501592,1.42201776,0.143187248,-0.686370245,-2.07620789,-0.439006361,0.14719392739999998,1.21679764,-0.9715620030000001,1.4630925,0.25714693400000005
1194.5,1.6425454199999998,1.44133253,1.76615714,0.077970586,0.6316054879,0.0681443881,-0.988344118,0.99673293,0.6306019220000001,-1.36978177,0.06853898280000001,-1.8757851329999997,0.22228172799999996,0.21890190400000004,53.9011675,0.0913185678422451,-1.2970720291137696,-3.3135159254074096,0.1396001073183572,1.20167989,0.702448871,1.43109504,0.14736476299999995,-0.683120651,-1.2847832029999997,-0.46130343500000004,0.1228095766,1.2190332,-0.8346114159999999,1.4707166900000002,0.265462414
1204.5,1.64141169,1.43704394,1.76891028,0.0785263875,0.6077639819,0.0824274254,-0.9893570439999999,0.994125077,0.627280297,-1.33556103,0.06689123259999999,-1.8772031550000001,0.22344668999999998,0.22719334500000002,54.569449999999996,0.10162883996963501,-1.2905346393585204,-3.2967339038848875,0.13918120607218562,1.1969701799999999,0.6196043990000001,1.4340136300000002,0.15497739400000002,-0.672045288,-1.213894306,-0.306784621,0.161661412,1.2242438500000001,-0.8922185519999999,1.5191653500000002,0.278101146
1214.5,1.64322184,1.43773344,1.7689385199999996,0.0803124429,0.39470712799999996,0.0555450487,-0.9899262249999999,0.9907578749999999,0.6246779199999999,-1.3449645700000001,0.0732898192,-1.836412817,0.22436125999999995,0.193159858,59.42292990000001,0.07039778800681233,-1.3060564875602723,-3.3173678636550905,0.13876472992302957,1.21167412,0.6661252149999999,1.45025007,0.15655856899999998,-0.67995602,-1.4380978,-0.288979972,0.163852937,1.2351593499999998,-0.856489464,1.4980068900000003,0.249304111
1224.5,1.64298323,1.4373197000000002,1.76935874,0.079050933,0.598981682,0.0690236421,-0.9928044549999999,0.9922573290000001,0.6269288239999999,-1.3514621500000001,0.0720120746,-1.8538908149999997,0.224046087,0.208206098,59.5424082,0.07792039811611176,-1.315326702594757,-3.323847770690918,0.13834934700618465,1.2211262900000002,0.612399919,1.46497827,0.163121046,-0.680685023,-1.4586013120000003,-0.33699382499999997,0.14755588,1.24396843,-0.8564454189999999,1.51562108,0.262714972
1234.5,1.6427673300000003,1.4432163100000002,1.7653842000000002,0.076307824,0.6202335075000001,0.0734282448,-0.985875764,0.9928391379999999,0.6231981200000001,-1.36739335,0.06813436980000001,-1.8757176429999998,0.21891194499999997,0.214581022,57.42325000000001,0.08327241577208042,-1.3306495189666747,-3.3135584592819214,0.13793514270273322,1.2377988800000002,0.6476028680000001,1.4802977900000003,0.15818735099999998,-0.6729458389999998,-1.104372581,-0.32056798900000005,0.145940994,1.24856831,-0.8754557720000001,1.52997168,0.268121544
1244.5,1.6430867599999999,1.44147954,1.7677758500000003,0.077784235,0.5788191440000001,0.0708213026,-0.9907814439999999,0.992661376,0.626067862,-1.34843764,0.0767147624,-1.875558333,0.22300640499999996,0.18887990800000004,72.1864755,0.0654347337782383,-1.3467379927635192,-3.342528462409973,0.1375224582507138,1.2525034300000002,0.6394947500000001,1.4938286699999999,0.16390881399999999,-0.6850241180000001,-1.5259653400000004,-0.378462615,0.13295188900000002,1.26639975,-0.827292907,1.5510830400000002,0.24741415100000003
1254.5,1.6428746999999997,1.4348719099999996,1.77015554,0.07852988740000003,0.8446454079999999,0.07602614160000001,-0.9868312540000002,0.9933076200000001,0.613481541,-1.3271757899999999,0.0613010834,-1.774057028,0.22432183700000002,0.22591444899999993,44.2156515,0.09267558604478836,-1.3206183671951295,-3.3359766244888305,0.13711013701853264,1.2274677999999999,0.5303627169999999,1.48471301,0.17474640500000002,-0.6791798949999999,-1.3082272640000001,-0.39453892700000004,0.12426571860000002,1.2533893,-0.8690906905,1.5835792,0.28854184699999996
1264.5,1.64306932,1.43750913,1.7687375200000002,0.0766138639,0.7667809270000001,0.04907045770000001,-0.9910651569999999,0.9894774610000001,0.6227121240000001,-1.34485255,0.0777574419,-1.594758315,0.22030401,0.1750021864,56.00502300000001,0.060146042704582216,-1.3673389434814454,-3.350003242492676,0.13669914317420312,1.2738503099999998,0.613325942,1.50859034,0.16315339,-0.683695384,-1.57854347,-0.400130239,0.134526773,1.2820856399999998,-0.6062451849999999,1.5439730200000004,0.239860326
1274.5,1.6433054300000003,1.43892186,1.76785289,0.0781258536,0.589902516,0.06446978185999999,-0.98796623,0.9891374709999999,0.6176353179999999,-1.3283314700000002,0.06898880939999999,-1.8758447329999997,0.22255762199999998,0.22069339100000002,56.0912311,0.09159382320940494,-1.355330193042755,-3.3526607751846313,0.13628886846926452,1.26228551,0.5501215009999999,1.5217919400000002,0.18034371499999996,-0.682492082,-1.4863826740000001,-0.37105482900000003,0.14225210540000002,1.2807964699999999,-0.895485477,1.5669975300000003,0.28185931099999995
1284.5,1.6429530699999997,1.43933813,1.76724356,0.077345165,0.743994624,0.058172569313,-0.981803302,0.9929475089999998,0.624004996,-1.3662455599999999,0.07317782510000001,-1.7447744049999998,0.22605921199999995,0.19758285199999998,51.32519570000001,0.07627358287572861,-1.367561411857605,-3.3626744508743287,0.13587996573241776,1.2744595100000002,0.5861168320000001,1.53165605,0.1781932,-0.684973246,-1.3355868,-0.319902136,0.156054478,1.29029116,-0.7180770250000001,1.57264632,0.26367501499999996
1294.5,1.6438732699999998,1.4405440500000002,1.7673613799999999,0.07655129490000001,0.8054971670000001,0.07556921209999999,-0.9856192509999999,0.9915277029999998,0.6126774989999999,-1.29573831,0.0797223331,-1.413132041,0.22176600200000002,0.167727233,43.7355897,0.05618190169334412,-1.3870559692382813,-3.359139251708984,0.13547205838927062,1.2948160300000002,0.645944978,1.5302794,0.174215041,-0.6806715499999999,-1.4181146890000003,-0.262803816,0.171149753,1.31031086,-0.338340663,1.57609294,0.242308185
1304.5,1.6439006200000001,1.43796034,1.76811413,0.0772540304,0.661004964,0.0715900893,-0.98304334,0.992499273,0.626595811,-1.36092164,0.0768894765,-1.63307328,0.225369141,0.191933513,53.2610308,0.07493913285434246,-1.392712688446045,-3.3648228883743285,0.13506593045265394,1.30070788,0.608728166,1.5611100900000001,0.18260672,-0.680985974,-1.71447572,-0.368227735,0.1463575894,1.3146259000000002,-0.5843325420000001,1.6066869999999998,0.262892081
1314.5,1.6430902600000004,1.43528389,1.77028113,0.0770790235,0.7921186330000001,0.078843946,-0.986423014,0.9879017409999999,0.6234973930000001,-1.3261520100000002,0.0707666545,-1.853578105,0.221741221,0.20827169900000003,58.52162119999999,0.08130582794547081,-1.3875392079353333,-3.3730705261230467,0.13466097633057988,1.29559461,0.504882838,1.5439404700000001,0.18345721600000003,-0.682583918,-1.4005054,-0.46482820699999994,0.1096645426,1.31234984,-0.922870172,1.61142893,0.28452539200000004
1324.5,1.6437285499999998,1.4375415900000001,1.76838297,0.07611250459999999,1.0542893110000002,0.04528337953,-0.989310039,0.9945211979999999,0.624096086,-1.36673599,0.0680305036,-1.97860604,0.22390708099999998,0.21960259299999998,62.514378199999996,0.09124902561306954,-1.3861154437065124,-3.3797749519348144,0.13425690820272665,1.29433585,0.534077817,1.5744315999999998,0.19477741599999998,-0.68340641,-1.32654365,-0.4083673480000001,0.12188471000000003,1.31819287,-0.9703524710000002,1.62487331,0.291301309
1334.5,1.64447486,1.43558349,1.77063998,0.07686701400000001,1.017690129,0.072628251,-0.985060427,0.99110732,0.611673334,-1.3356224800000003,0.06850368440000001,-1.86948582,0.22192752599999999,0.2119457664,58.42971630000001,0.08723534792661666,-1.3916709184646607,-3.3746890306472777,0.13385407056192705,1.30084216,0.486206857,1.57520127,0.19646818600000002,-0.6783612700000001,-1.3888174420000001,-0.271725366,0.172373002,1.32344313,-0.7843417890000001,1.6118459799999996,0.289105367
1344.5,1.64264096,1.44052126,1.7670853499999999,0.0771748092,0.8121684950000001,0.0717169906,-0.9893627200000001,0.995555452,0.622409281,-1.3360487699999999,0.0744570815,-1.7665313329999996,0.21966373900000002,0.192463165,63.006700400000014,0.07253482639789581,-1.3890934586524963,-3.3845077991485595,0.1334529365070497,1.2982197700000002,0.587694985,1.57287848,0.19292666600000002,-0.6807360579999999,-1.2952931699999999,-0.306299959,0.15908577200000001,1.3358298000000002,-0.708152528,1.6214777099999995,0.27317128500000004
1354.5,1.64324662,1.43917412,1.7674754199999998,0.07845032669999999,0.7513030220000001,0.0547891476,-0.9905080959999999,0.9958472859999998,0.608869224,-1.3239089500000003,0.06998009159999999,-1.9783831899999995,0.22318249000000004,0.196341716,69.11048190000001,0.07053581476211548,-1.394538950920105,-3.3916877031326296,0.13305296710954242,1.3037970999999997,0.564005665,1.5919445399999999,0.195769688,-0.6817937760000001,-1.2520821899999999,-0.37183623200000004,0.1286652466,1.33366124,-0.966920511,1.6934388400000002,0.278809719
1364.5,1.64395749,1.43739142,1.7689729299999999,0.07631147279999999,0.835409153,0.04965081904,-0.9913200449999999,0.988504335,0.6240577869999999,-1.3791710599999998,0.0681880383,-1.9782159699999997,0.226091979,0.21505565799999998,61.918149099999994,0.07862585671246052,-1.428800070285797,-3.405140590667725,0.13265382002956566,1.33777778,0.492174121,1.6230325300000001,0.20362678299999998,-0.6859548270000001,-1.6147422160000002,-0.416778814,0.1276436915,1.34628817,-1.088920962,1.6522991999999999,0.29988324599999994
1374.5,1.6440116599999999,1.43815914,1.7682468699999998,0.07621678209999999,0.9841630850000002,0.07664632670000002,-0.985757185,0.9920042880000001,0.6205929789999999,-1.3432947300000002,0.0717563469,-1.8756935829999999,0.22551495300000002,0.21523988100000002,60.02864960000001,0.0859821829944849,-1.431049680709839,-3.3968227386474608,0.13225557138389837,1.3411761500000001,0.49116544700000003,1.61699584,0.203087669,-0.6793367609999998,-1.45426185,-0.37958883,0.1363242009,1.35810491,-0.866984514,1.6670308500000002,0.29745377100000003
1384.5,1.6430473700000001,1.4401911200000002,1.76583033,0.0766778409,0.953019959,0.04561713166,-0.987378086,0.993381037,0.6205732530000001,-1.3694810399999997,0.07597551189999999,-1.750868895,0.223208357,0.17583655,68.2241339,0.05595320109277964,-1.4418818712234498,-3.4035614728927612,0.13185911160555241,1.3521675,0.5489887760000001,1.6400363800000002,0.20219074200000003,-0.6801736879999999,-1.317789956,-0.34741730400000004,0.137349851,1.36548255,-0.7244571409999999,1.67659361,0.26524096500000005
1394.5,1.64348646,1.44024938,1.76685363,0.0754409557,0.7380441110000001,0.0673306081,-0.988743213,0.9938292100000001,0.622778901,-1.3574110799999999,0.0721582953,-1.8757934929999998,0.21830171699999998,0.20272356149999998,62.2640483,0.07529192380607128,-1.4438731908798217,-3.4066588640213014,0.13146410054153918,1.3545539,0.46226744399999997,1.6421658999999997,0.20775074800000004,-0.679214697,-1.51352316,-0.36480303999999997,0.1358240054,1.3740965600000001,-0.8012838879999998,1.6710216299999998,0.291111303
1404.5,1.6439268499999997,1.4403017900000001,1.7675238999999998,0.07596915109999999,1.016434912,0.0622424589,-0.987213698,0.989890395,0.61496774,-1.3361344699999997,0.06949712959999998,-1.86257132,0.22433740999999996,0.21361003099999998,57.4898309,0.08526727929711342,-1.4513985514640808,-3.417574715614319,0.13107021224809207,1.3619670999999998,0.46576851700000005,1.6575637300000001,0.2223618,-0.682108842,-1.584622785,-0.343059994,0.14239285900000004,1.37953844,-0.868436981,1.7220473899999997,0.305608008
1414.5,1.64340759,1.43900426,1.7682117099999999,0.0756118206,0.9880763910000001,0.0646342666,-0.983549652,0.9933558299999999,0.620931381,-1.3449019,0.0658657097,-1.8696322759999997,0.220718666,0.22256630300000002,60.4458428,0.0978107463568449,-1.4456025958061218,-3.414500880241394,0.1306773355568494,1.3569607500000003,0.41068736499999997,1.65277072,0.221122385,-0.6781173010000001,-1.321115405,-0.235537647,0.17751407500000002,1.37927634,-0.8882844990000001,1.7093078299999998,0.316290167
1424.5,1.6443215599999998,1.43942723,1.767467,0.0754917852,0.940964851,0.0423131592,-0.9883498750000002,0.9924429739999999,0.6159843690000001,-1.3377813200000002,0.07184748090000001,-1.614679807,0.22033675600000002,0.200604328,47.5474657,0.09908285662531853,-1.4268361806869507,-3.422392559051514,0.1302860071408956,1.33827753,0.45018561900000015,1.63639853,0.21330104999999996,-0.6795186689999999,-1.2633556000000001,-0.208138847,0.18415459299999998,1.39506929,-0.6507535769999999,1.7512414,0.298684348
1434.5,1.64425973,1.4372341599999998,1.7691206000000002,0.0757372292,1.081539279,0.0641335538,-0.989538668,0.993096686,0.618828179,-1.3357601899999998,0.0732834894,-1.626822735,0.223143586,0.19653850949999999,51.676564400000004,0.08021043054759502,-1.4389567375183105,-3.4227723360061644,0.12989619426030222,1.35096025,0.40114868699999995,1.6682132200000002,0.222175163,-0.677236179,-1.1815684350000002,-0.272699286,0.15714714899999999,1.3996690299999996,-0.6276459260000001,1.7134003899999999,0.298459424
1444.5,1.64354351,1.43753623,1.76812895,0.07593490309999999,0.955326411,0.0765007959,-0.9888126249999999,0.9929683429999999,0.6084812879999999,-1.29860625,0.0763037694,-1.7269708719999997,0.222251742,0.179636617,59.288498399999995,0.060989585146307944,-1.4824120998382568,-3.4412320613861085,0.12950722677764,1.39382691,0.421181713,1.6892904799999997,0.22026625800000002,-0.6838099200000001,-1.5277346699999999,-0.334520661,0.148863374,1.4094904400000003,-0.7647131780000002,1.72025858,0.288447557
1454.5,1.6443996100000002,1.4406468899999998,1.76645475,0.0762238916,0.624426388,0.0639116998,-0.9895686899999999,0.9930180529999999,0.6149357729999999,-1.3248419000000002,0.0697752555,-1.875688563,0.22026206900000003,0.21711034,55.70994840000001,0.0907362112775445,-1.4685487389564513,-3.4368823051452635,0.12911894933177795,1.3808226,0.449976373,1.69387841,0.220894565,-0.679214749,-1.3694919799999998,-0.333927824,0.148017931,1.40678898,-0.855287903,1.76749136,0.314370649
1464.5,1.6428674899999998,1.4380493900000002,1.7681414,0.07912759859999999,0.85334817,0.051240256299999995,-0.9928135389999999,0.9912811190000002,0.622195953,-1.3379283100000001,0.07031558149999999,-1.875541433,0.22753175099999998,0.210749263,61.56881870000001,0.08448324017226697,-1.4793327093124389,-3.450307250022888,0.12873210575008576,1.3913430199999999,0.41001457299999994,1.72198263,0.23991035400000005,-0.6833049010000001,-1.266288509,-0.281649314,0.153511454,1.4077174300000002,-0.797397495,1.75273882,0.31488461100000004
1474.5,1.643573,1.43832235,1.76831726,0.07777518950000001,0.927391836,0.05349448889999999,-0.987900857,0.9909223920000001,0.6111944579999999,-1.3268795999999998,0.067673703,-1.8253616780000002,0.22463119700000003,0.227566518,50.406245999999996,0.10296580558642746,-1.4812928080558776,-3.4417519092559816,0.1283461041420737,1.3944174999999999,0.402233295,1.7095855199999999,0.243041205,-0.6766762649999999,-1.52191048,-0.260016334,0.166804221,1.4161852999999998,-0.9210650360000001,1.76682915,0.338921931
1484.5,1.6436870900000002,1.4386430300000002,1.7680962100000002,0.0765795264,1.028066044,0.047927489299999994,-0.988617605,0.9915389800000002,0.611995962,-1.28902187,0.07156736760000001,-1.97870325,0.22254598899999997,0.20686441100000003,70.5433262,0.07546758949756623,-1.4970247983932494,-3.45551438331604,0.12796181608098262,1.40986617,0.41651770400000004,1.7425153400000002,0.240259396,-0.680924238,-1.1971403829999998,-0.260220982,0.158205092,1.4267626800000002,-0.995043066,1.76352947,0.31576682300000003
1494.5,1.64264784,1.4387010900000001,1.7681764400000002,0.07604077540000001,0.906021809,0.08648489168000002,-0.987999372,0.9936093109999999,0.613942302,-1.30957759,0.0681318886,-1.9786779900000002,0.22204635899999997,0.21398518000000002,66.1522962,0.07868331633508205,-1.5018709421157836,-3.450483798980713,0.12757871167355744,1.4155977100000001,0.345395474,1.7390387,0.24511342900000002,-0.6760319129999999,-1.180358499,-0.207489216,0.17769362400000005,1.4305308799999998,-1.046323277,1.7742278300000003,0.325110293
1504.5,1.64348661,1.4378204399999999,1.7680113299999998,0.076884645,0.862143301,0.06339797859999999,-0.984851512,0.9895416929999999,0.61056868,-1.3232058899999999,0.07454760590000001,-1.8690613150000002,0.22418694700000003,0.19251444900000003,67.59422710000001,0.06744171120226383,-1.5176934599876404,-3.4601667881011964,0.1271972792755032,1.43139189,0.340566184,1.7586648099999997,0.243566581,-0.6782900809999999,-1.401281095,-0.254104474,0.162123491,1.44458701,-0.884646757,1.7970715999999995,0.30882877200000003
1514.5,1.64423223,1.43877962,1.76870805,0.07655913069999999,1.161391807,0.0711166481,-0.9885457070000001,0.9920114879999998,0.616415234,-1.3208291600000002,0.0670542819,-1.97842547,0.22080805199999998,0.222660425,60.83817260000001,0.08585660755634308,-1.5162600517272948,-3.476921558380127,0.12681633825067212,1.4294945399999999,0.287207736,1.7753142299999998,0.25931833800000004,-0.6839731530000001,-1.5591055099999998,-0.342624151,0.13965754900000002,1.44410728,-0.9659979649999999,1.81384326,0.34204598799999997
1524.5,1.64324089,1.44062744,1.7663836199999998,0.0754655444,0.866311866,0.0789846109,-0.989558233,0.991137134,0.6115207380000001,-1.3082228,0.0755612594,-1.705094145,0.2211279,0.183774791,66.4930349,0.07072030436247587,-1.5260420322418213,-3.4746617555618284,0.12643587990541197,1.43998438,0.375773945,1.76325182,0.23811702,-0.680433742,-1.2063298249999999,-0.324426412,0.13375388950000003,1.4612484399999999,-0.651232167,1.81643109,0.304513941
1534.5,1.6446195700000001,1.4412463899999997,1.7655741199999997,0.07347305779999999,1.07522758,0.0764706313,-0.9875806089999999,0.9945014129999998,0.6164109449999999,-1.32925231,0.06731072959999998,-1.877105555,0.21945809700000002,0.215863169,58.8077094,0.0893796656280756,-1.5309865117073058,-3.4683651685714723,0.12605733302933914,1.4458786800000003,0.352039908,1.7901141500000002,0.250153089,-0.6749544339999999,-1.38721864,-0.257022822,0.163486097,1.4645663999999998,-0.9561314200000002,1.8173216499999998,0.33790499299999993
1544.5,1.64320495,1.4418662800000002,1.7672504100000002,0.07585009340000001,0.9902163521999998,0.06874445009999999,-0.9852957160000001,0.9910119869999999,0.617975879,-1.32817794,0.0671125549,-1.869584936,0.220190673,0.214298406,55.5952955,0.08480833247303962,-1.527917730808258,-3.490230441093445,0.12567998873703326,1.4420418400000001,0.312920149,1.79561855,0.263666347,-0.683081561,-1.45762393,-0.285947418,0.147599922,1.4642981000000002,-0.8197183129999999,1.8885326799999997,0.34106302800000005
1554.5,1.64394758,1.4413952300000001,1.7664352600000002,0.0761805853,0.889764493,0.051462330099999995,-0.990480772,0.987041574,0.620336381,-1.35275947,0.07094900339999999,-1.7602153919999999,0.219342185,0.20688643050000005,54.029940199999984,0.07957796417176724,-1.5406157970428467,-3.487378168106079,0.1253034624636993,1.4554750099999998,0.32480988729999993,1.7997621599999998,0.26228803700000003,-0.6792739990000001,-1.445931981,-0.284562814,0.15140261000000002,1.4747360099999998,-0.7595139009999999,1.83532391,0.338171871
1564.5,1.6446250599999999,1.44161893,1.7662426400000002,0.0749112248,0.834220195,0.05278750834999999,-0.987171579,0.991328728,0.617728831,-1.3465422500000002,0.0652988954,-1.9785628099999997,0.22261289900000003,0.23363525699999999,56.987494600000005,0.10050412639975548,-1.5354209184646606,-3.494210457801819,0.12492812804812832,1.4504273900000002,0.297077056,1.8026211799999998,0.267983686,-0.680136745,-1.266660747,-0.21608130900000005,0.17131207,1.4768131599999998,-1.0680805480000002,1.85612385,0.360798121
1574.5,1.6442582000000001,1.44089799,1.7657249700000002,0.0757627454,0.9923839950000002,0.052903070239999996,-0.985583124,0.992251617,0.622366165,-1.34908874,0.0781369381,-1.8622694799999997,0.22059192200000002,0.18577550800000003,71.32768239999999,0.07210908997803926,-1.5551950335502625,-3.4834168672561647,0.12455432358943079,1.4714031799999998,0.3402416868000001,1.8121681600000001,0.26222921499999996,-0.672535467,-1.14728911,-0.22034472300000002,0.17230038900000003,1.49706737,-0.8586307796,1.86178543,0.320825857
1584.5,1.64407446,1.4378598400000002,1.76859835,0.0765551907,0.9285603016999999,0.0880139489,-0.988772588,0.991231692,0.618265848,-1.33756919,0.0618968261,-1.806957127,0.221346664,0.24568172700000002,40.14461403,0.114440843090415,-1.5355724811553955,-3.510939598083496,0.12418161989152723,1.45068909,0.12019213193,1.83527365,0.29620155400000003,-0.683332488,-1.67135344,-0.39709237899999994,0.12447296299999999,1.4850338500000002,-0.99154324,1.8822288999999999,0.38649279299999995
1594.5,1.6439548800000001,1.4376878199999998,1.7684281099999999,0.0755240464,1.085751263,0.0719719308,-0.990111458,0.9952554249999999,0.6120115079999999,-1.2982006799999999,0.074098341,-1.640492693,0.220104358,0.176881055,60.62948349999999,0.06440429352223873,-1.5406076788902283,-3.505073642730713,0.12380940817775106,1.4566256899999999,0.24470457540000004,1.83967612,0.27988797200000004,-0.678106113,-1.4794311900000001,-0.20314263000000002,0.183426356,1.50369839,-0.7133119462,1.8902696800000005,0.32711783199999994
1604.5,1.64376759,1.4368353299999999,1.7693154400000002,0.0745384608,1.038090988,0.07098798310000001,-0.989162644,0.992381046,0.619673307,-1.3235746800000001,0.06123461339999999,-1.97878965,0.21879230699999996,0.24970580999999997,56.6221814,0.11783393621444702,-1.5432973146438598,-3.505657458305359,0.12343923851518057,1.45983165,0.15000196500000001,1.83150805,0.281797752,-0.6759745739999999,-1.66365484,-0.21844921,0.185417263,1.5011500500000001,-1.0734785639999997,1.8970061100000002,0.38696644999999996
1614.5,1.64403309,1.43912884,1.7680400299999999,0.07523509990000002,1.0849832830000001,0.0662064633,-0.9905041909999998,0.9929015220000001,0.62457573,-1.3353760200000002,0.0753028143,-1.86247747,0.22273661500000003,0.19018739999999998,74.86735490000001,0.08402536660432816,-1.5464553952217102,-3.5165292024612427,0.1230699906851888,1.4628936300000002,0.21340518100000003,1.8309851999999995,0.280959914,-0.6787731320000001,-1.57606992,-0.37625924299999997,0.1252986526,1.51963206,-0.829595844,1.90803501,0.339497345
1624.5,1.64238474,1.44263579,1.7649187999999996,0.074255912,0.892779487,0.0907894537,-0.9893620139999999,0.9912346299999999,0.6072082599999999,-1.28014652,0.0737506909,-1.5804426089999999,0.22248658600000004,0.18110662489999999,58.443328799999996,0.07517749555408955,-1.5628973126411438,-3.5254515647888183,0.1227014552374899,1.47935794,0.31080432300000005,1.84733408,0.27057661299999997,-0.680627242,-1.25052173,-0.332419348,0.13166967859999998,1.5257295999999998,-0.7173691523000001,1.90953014,0.331076534
1634.5,1.64379041,1.44005482,1.76619971,0.0747520168,0.905177302,0.0747831918,-0.9862267200000001,0.992649241,0.6126381710000001,-1.3247131699999999,0.0702843091,-1.7540679689999998,0.22046443700000004,0.21634630500000002,52.43749269999999,0.09630040004849434,-1.5813910365104675,-3.52147319316864,0.12233416084390503,1.49862793,0.23471995169999998,1.8882566099999998,0.29479648299999994,-0.67633242,-1.4894407660000002,-0.27674618800000006,0.159912047,1.53213003,-0.9205131770000001,1.9104777800000001,0.368138328
1644.5,1.6441691299999999,1.43666243,1.76869275,0.0750190875,0.9433699800000002,0.05642520520000001,-0.990179543,0.9903874229999999,0.616273299,-1.32735473,0.0657417523,-1.753965604,0.22149678,0.22598919899999997,44.324309,0.10316087082028388,-1.5708663940429688,-3.5375637292861937,0.12196811897401097,1.4877093,0.11656475620000002,1.88529335,0.29826557,-0.681592751,-1.2496316840000001,-0.27129587800000005,0.14678248,1.53051819,-0.969927762,1.9274634100000003,0.381587587
1654.5,1.6431988599999996,1.43736692,1.7686960000000003,0.075666299,1.1077303889999999,0.06934589509999997,-0.9875487569999999,0.991706929,0.619632093,-1.3557955299999997,0.06607989430000001,-1.9787359599999998,0.22306173199999998,0.22650687900000005,57.02707740000001,0.08809228464961052,-1.5913416743278503,-3.5366085290908815,0.12160276608056135,1.50877982,0.0812865591,1.91056238,0.304399206,-0.678745555,-1.2571420039999999,-0.20350722100000002,0.17119940300000003,1.53332614,-1.043635681,1.9484574599999998,0.378524481
1664.5,1.6433829399999997,1.43948541,1.76677478,0.0756511296,0.979582591,0.0697836863,-0.9902820049999999,0.9929052039999998,0.6162864739999999,-1.31188908,0.07126238309999999,-1.9782795599999996,0.221534781,0.20556628999999998,69.69117690000002,0.08279234617948532,-1.5858232498168945,-3.5481032133102417,0.12123847823913898,1.5031373500000003,0.1766429129,1.90678989,0.307266715,-0.6818070960000001,-1.609156816,-0.22420127199999995,0.171489024,1.54700887,-1.006956899,1.96960172,0.36842646
1674.5,1.6441333100000002,1.43975813,1.76653259,0.0744601163,1.150355594,0.06143368035,-0.9836239179999999,0.9904751059999999,0.62072003,-1.3568953799999999,0.0721332356,-1.750303078,0.21991267799999997,0.19969960699999997,56.88648930000001,0.07807500455528497,-1.5973399996757507,-3.544810175895691,0.12087502491021711,1.5153786200000003,0.14685508399999997,1.92028007,0.309524379,-0.6778606290000002,-1.2127175810000002,-0.24013734000000003,0.156902484,1.5593155899999998,-0.7967334389999999,1.9864254899999998,0.36745235099999995
1684.5,1.64386181,1.44059455,1.76757451,0.07457635739999999,0.9510119470000001,0.053496394400000015,-0.98813575,0.9914531390000001,0.620930478,-1.3421963700000001,0.07438775919999999,-1.8519965299999999,0.221277701,0.1939609034,70.8732482,0.07737921252846718,-1.617194128036499,-3.540922927856445,0.12051337397431974,1.53598703,0.200969379,1.92360663,0.308463206,-0.673643714,-1.39599001,-0.29180927399999995,0.1456911254,1.5700230099999997,-0.9770630130000001,1.9773200800000001,0.3681524499999999
1694.5,1.6442850100000002,1.43840546,1.7686466300000003,0.0746731661,0.950568,0.07894088269999999,-0.988983828,0.9955571649999999,0.615406746,-1.3501640099999999,0.07811895760000001,-1.3411388039999999,0.221415462,0.1637977076,42.024726699999995,0.054248988442122933,-1.6345657348632812,-3.5535067081451417,0.12015310510765387,1.5531712199999999,0.1429655709,1.9429449499999998,0.30750623899999996,-0.6772197099999999,-1.487336429,-0.26256121400000004,0.14793230300000001,1.57608668,-0.573668174,1.9881818500000001,0.351143552
1704.5,1.64355919,1.43585524,1.76979686,0.07578711820000002,1.02888688,0.07766552813000001,-0.9889094439999999,0.9929326530000001,0.615763219,-1.30970089,0.0739160304,-1.8751829459999996,0.22290077299999997,0.20754223,61.2412779,0.08119819648563861,-1.6213274359703065,-3.5676498413085938,0.11979363441964644,1.5396612900000002,0.012862219099999992,1.9585005299999998,0.31891855599999996,-0.681517582,-1.6380658800000003,-0.26575732100000005,0.149752718,1.5742409000000002,-1.150537297,2.0183677099999997,0.38017588199999997
1714.5,1.64355109,1.44264376,1.7657383199999999,0.07536987049999999,0.7242699024,0.0866212298,-0.9860560170000001,0.9932252149999998,0.6244602029999999,-1.3531417600000002,0.07112163839999999,-1.97874169,0.21864896700000003,0.206665555,67.5612219,0.07877044752240181,-1.6302027463912965,-3.5640059232711794,0.11943486889159918,1.5492695199999997,0.15895020240000002,1.96665001,0.312620431,-0.677429345,-1.4874832259999997,-0.25804525799999994,0.148602762,1.57480018,-0.9766288959999999,2.0005547800000003,0.37637551199999997
1724.5,1.6439130999999996,1.4457484999999999,1.76518387,0.07222788399999999,1.177358812,0.0572761348,-0.9888914110000002,0.9951715179999999,0.60994806,-1.30557089,0.0683180689,-1.97876318,0.22434233700000003,0.22488703000000002,64.5907819,0.0901755452156067,-1.6315782189369201,-3.573314332962036,0.11907726151643556,1.5506477399999998,0.1513789547,1.9797741600000003,0.31855375999999996,-0.6794403959999998,-1.3673244260000001,-0.268906749,0.1377195116,1.58878301,-1.0218441430000003,2.0172791,0.392537956
1734.5,1.6437222500000002,1.44037881,1.7660603900000003,0.07380118569999998,1.12595471,0.05625622480000001,-0.9882720239999999,0.9889013239999999,0.624065123,-1.35873498,0.06939260890000001,-1.8636299539999999,0.22433968499999998,0.20798798000000004,62.463323200000005,0.07858366481959819,-1.6417405366897584,-3.571925950050354,0.11872086532593054,1.56141049,0.11842898660000001,1.98731694,0.332030436,-0.6764252719999999,-1.4130664099999997,-0.18816618799999998,0.170417864,1.59477784,-0.933879733,2.0180091300000003,0.389939096
1744.5,1.6430682300000001,1.43873512,1.76743934,0.0753222904,0.8470236059999999,0.0820698967,-0.982208555,0.993331296,0.6138657660000001,-1.31086693,0.069844149,-1.8770643449999997,0.22211015500000003,0.21252034800000003,55.4754275,0.07727660536766053,-1.653733241558075,-3.5809687852859495,0.11836584208864447,1.57342157,0.0382965936,1.99847128,0.33092946100000004,-0.678306741,-1.557914908,-0.19238452899999997,0.16904787000000002,1.5941661100000002,-1.153826712,2.0261617000000003,0.39878191300000004
1754.5,1.6432971200000002,1.44299166,1.7641104200000002,0.0731761289,1.0661212810000003,0.06617302956,-0.9908357149999999,0.991500697,0.621957653,-1.35464721,0.0670789577,-1.8625401999999998,0.219903259,0.21967791499999997,55.692546600000014,0.08669481594115495,-1.660918164253235,-3.5995528221130373,0.1180113181077997,1.58009669,0.12815302860000002,2.0231236600000004,0.324292891,-0.684653209,-1.3392367059999999,-0.265490258,0.1329782505,1.59836426,-1.0084005360000001,2.04507539,0.396430219
1764.5,1.64401063,1.44022797,1.7666959599999998,0.0736131614,0.9720236339999999,0.05597169155,-0.9857132319999999,0.9918455140000001,0.618992186,-1.3430792999999999,0.06815547879999999,-1.9786468499999998,0.22001892499999998,0.218386953,66.16151899999998,0.08261718153953553,-1.655125045776367,-3.603956151008606,0.11765736139006315,1.57458355,0.004742645999999989,2.02725645,0.33393597,-0.684342222,-1.64431283,-0.33436543799999996,0.13064151200000002,1.606758,-1.197957643,2.04128969,0.40504252099999993
1774.5,1.64485219,1.44044815,1.7662958100000001,0.0720523051,1.076859961,0.059142420099999995,-0.9876480550000002,0.9930886700000002,0.6214269170000001,-1.34305897,0.06991249269999998,-1.6180236149999998,0.21972412000000002,0.20449753539999999,43.1300475,0.07995613943785429,-1.6658514976501464,-3.603640007972717,0.11730408889153794,1.5858452699999999,-0.04293499130000002,2.03209788,0.33855808900000006,-0.681834461,-1.75802966,-0.19479650299999998,0.17487106659999999,1.62008806,-0.922436742,2.0608433600000002,0.39869067900000005
1784.5,1.6433815200000002,1.44155428,1.7661747100000003,0.074056853,1.0015848359999997,0.0512832571,-0.9905117010000002,0.9934604260000001,0.611584638,-1.32438814,0.0696508578,-1.7736250209999997,0.220637095,0.206139466,57.641338899999994,0.08330383189022542,-1.6719479322433473,-3.6134857892990113,0.11695177240004875,1.59192006,-0.0035658050000000026,2.0356825200000004,0.34135763699999994,-0.684067894,-2.0649911,-0.21173007500000002,0.182430303,1.61662952,-0.9624708944,2.07345572,0.402389658
1794.5,1.6439437900000002,1.4384493099999998,1.7681377899999997,0.07408896300000001,1.111940565,0.07373212665000001,-0.982846558,0.9955183400000001,0.6157954259999998,-1.3335334800000003,0.07401052109999999,-1.8694441360000003,0.22073437999999998,0.20380676600000003,64.76896550000001,0.07281535156071187,-1.6896543741226195,-3.603796672821045,0.11660085110631371,1.6106676599999996,-0.1173508531,2.05317157,0.34997990700000003,-0.677202159,-1.6097273299999997,-0.24273048800000002,0.1537111586,1.6302424500000001,-1.022921292,2.0798084900000005,0.40783897500000005
1804.5,1.6437059800000005,1.4404934900000002,1.76631754,0.07453813499999999,1.0205943549999998,0.05673422985,-0.9874327310000002,0.9958289779999999,0.621743158,-1.3561817600000001,0.07244197959999998,-1.9787076,0.222544508,0.21527881999999998,64.2342757,0.07979994118213654,-1.6717345595359803,-3.610624980926514,0.11625171016739007,1.59288813,-0.097453243074,2.05235782,0.361858228,-0.678035228,-1.4975721399999997,-0.211878396,0.1560674516,1.6292597199999999,-1.150349407,2.0923675,0.41443819500000006
1814.5,1.6443531400000002,1.4398118,1.7673375400000002,0.0737870414,1.3405206240000003,0.0730367995,-0.9830975039999998,0.9921892480000001,0.6092031720000001,-1.2965556700000003,0.0680705954,-1.8757100429999998,0.223011435,0.21554482559999996,58.51999920000001,0.0836817741394043,-1.6753152370452882,-3.6121079683303834,0.11590393876894134,1.5968953200000002,-0.09001039639999998,2.07523384,0.36917069,-0.676390315,-1.418231766,-0.185405122,0.16005973399999998,1.62964505,-0.920258428,2.1143412899999996,0.42415156400000004
1824.5,1.6441605900000003,1.4428030400000003,1.76529278,0.07382032449999999,0.8498235799,0.05647772412,-0.9867514409999998,0.9922009199999999,0.6158915679999999,-1.3278073,0.0714199763,-1.7664542829999998,0.221405442,0.21228804,51.1339317,0.09249136932194232,-1.6738716244697571,-3.6281843423843383,0.1155570649444186,1.59509407,-0.04863116528,2.05598493,0.36218189,-0.6815134170000001,-1.5103712899999997,-0.21901439400000006,0.15648796,1.6469962200000001,-0.956266447,2.10278748,0.41919437099999995
1834.5,1.6444907999999998,1.44137511,1.7656265000000002,0.0725935139,1.1015571720000001,0.061696237,-0.9879228529999999,0.9920856429999999,0.615946047,-1.33329565,0.07747943090000001,-1.620075847,0.21979955700000003,0.176869966,54.74673059999999,0.07110053300857544,-1.6971491575241089,-3.621976923942566,0.11521114484392814,1.61920816,-0.0172302885,2.04695667,0.32897912100000004,-0.6763050620000001,-1.4289925,-0.1754987114,0.162727125,1.6606234,-0.754072316,2.1103427999999997,0.388272814
1844.5,1.6446775500000002,1.4431617500000002,1.7664939699999997,0.0740710634,1.0368669270000002,0.05216749817000001,-0.9895005309999998,0.9925857459999998,0.617249253,-1.34405112,0.0679079562,-1.8768711050000004,0.22051708900000003,0.22435220500000003,55.9918311,0.0965434268116951,-1.6805264353752136,-3.6370831966400146,0.11486633970585544,1.60228278,-0.11215280511999999,2.0663810500000004,0.36678435000000004,-0.680966215,-1.3007082300000001,-0.275434731,0.1282183032,1.6479352299999999,-1.21562575,2.1339111200000005,0.44398816300000005
1854.5,1.64416085,1.4397756400000001,1.7677872000000001,0.07492578849999999,0.9927332343999999,0.0733522586,-0.992392759,0.991848582,0.616224682,-1.28979759,0.0722134058,-1.8524745200000001,0.222722598,0.21119253199999996,61.397560999999996,0.07932042200118303,-1.6908478498458863,-3.6365286111831665,0.1145221856633234,1.61313428,-0.18297253160000002,2.0935718000000003,0.380819618,-0.6783833130000001,-1.40879852,-0.23719030699999996,0.1330910955,1.65648933,-1.271517854,2.14976593,0.438663283
1864.5,1.64365786,1.44444399,1.7654584,0.0739473222,0.8817752130000001,0.0815974196,-0.9825472829999999,0.9946878010000001,0.616178827,-1.3166495599999999,0.06914019539999999,-1.9787563600000002,0.221480473,0.22114396600000003,67.18582380000001,0.09178640283644199,-1.7068430542945863,-3.63493435382843,0.1141793963728757,1.6297111999999998,-0.13646270929999998,2.1306711799999993,0.383322751,-0.675328594,-1.279097776,-0.1178013795,0.16809949700000004,1.66004061,-1.0241143439999998,2.14480668,0.4365518669999999
1874.5,1.64350865,1.4446248,1.76375031,0.07340567810000001,0.834397897,0.0629138297,-0.988008526,0.992262416,0.620389587,-1.3625170899999999,0.0710471615,-1.730366549,0.221989861,0.2008058696,49.9315631,0.08097077831625939,-1.708209717273712,-3.64873206615448,0.1138379441851181,1.6308485799999999,-0.0587977516,2.1277022400000005,0.378265823,-0.679369096,-1.5365403489999998,-0.134895348,0.171324943,1.6752300000000002,-0.8164697077999999,2.16010722,0.426936895
1884.5,1.64338635,1.44210227,1.76439661,0.0746460149,0.8614997900000001,0.0792933011,-0.986135058,0.990870717,0.610624957,-1.31980092,0.06555990779999998,-1.768306162,0.223638557,0.21941425600000003,46.02484389999999,0.10985261797904969,-1.6690131664276122,-3.651699161529541,0.11349715995697474,1.5919909399999999,-0.2246363203,2.1044563,0.3828135709999999,-0.6784205,-1.48461608,-0.0716846468,0.191905136,1.66224652,-0.9806091283,2.18721026,0.446699166
1894.5,1.6437781999999999,1.43900131,1.7675564400000003,0.07383381850000001,1.0684318940000002,0.058218775859999995,-0.986323638,0.992264402,0.6072167860000001,-1.31881608,0.0706055372,-1.8771361850000001,0.22267831500000002,0.21266377099999997,61.36872470000001,0.11604394018650055,-1.6818567395210267,-3.6383261919021606,0.11315762279020052,1.6060208500000002,-0.25507617600000004,2.10461625,0.38444873100000004,-0.66997426,-1.7707983400000002,-0.31346843100000005,0.14635752100000002,1.6842100899999999,-1.1934034,2.1625568599999996,0.44869678300000004
1904.5,1.64408705,1.4391953399999997,1.7671809,0.074736121,1.031410249,0.0533968462,-0.9872268309999999,0.993500319,0.6110239040000002,-1.30292229,0.0701246079,-1.9785338999999997,0.22418305700000002,0.218738192,62.87918090000001,0.09738662540912628,-1.7242120623588562,-3.637697958946228,0.11282030027119638,1.6488944700000001,-0.31503124375,2.1523349100000004,0.403529524,-0.66739564,-1.44753934,-0.0454324601,0.22056278599999998,1.68761549,-1.42821079,2.18818023,0.46341000700000007
1914.5,1.6435237299999996,1.44477406,1.7660089700000001,0.0738615262,0.9549792989999999,0.06175493450999999,-0.987266511,0.989564461,0.6109596620000001,-1.32140893,0.0701306765,-1.9787282099999999,0.22236538700000003,0.20702719900000002,72.82115590000001,0.07984923534095287,-1.7434170365333557,-3.6644481658935546,0.11248421656284797,1.66720189,-0.2492526207,2.1800772900000003,0.390358211,-0.6773644830000001,-1.35619977,-0.25519833599999997,0.13518757300000003,1.6957435300000003,-1.0494564610000001,2.1898684,0.446174446
1924.5,1.6444962699999999,1.4462745,1.7658505999999998,0.07193478689999999,0.9176414600000001,0.06927116870000001,-0.9888602099999998,0.9924708699999998,0.6087841789999999,-1.31954683,0.07616959170000001,-1.7553218959999999,0.218200576,0.18229373699999998,60.952441,0.06944353915750981,-1.7471397161483764,-3.6702070236206055,0.112148075430853,1.6711132899999999,-0.2500016392,2.15790559,0.396305345,-0.677705623,-1.6388748649999996,-0.30528685999999994,0.1354289816,1.72341445,-0.9899362679999999,2.19030101,0.43735374999999993
1934.5,1.64399579,1.4403635399999999,1.7673114400000003,0.0733097026,1.0470956840000003,0.0821737581,-0.9887108660000001,0.9909858999999999,0.616868571,-1.3166155500000003,0.0716556506,-1.7237961809999998,0.218425994,0.20732047459999997,51.90245689999999,0.09033501408994198,-1.7443873286247253,-3.67802631855011,0.11181249368707105,1.6684461499999999,-0.356153028,2.1702994,0.40161270499999996,-0.6789792320000001,-1.5237845840000002,-0.22497187999999996,0.15369503499999998,1.7124394200000002,-1.092969188,2.2066997200000005,0.45753896899999996
1944.5,1.64358352,1.4373230300000002,1.76830854,0.07381478699999999,1.1511803440000001,0.0666509653,-0.9861925669999998,0.9930557030000001,0.616017053,-1.32967763,0.0682694294,-1.97858869,0.22341642599999995,0.21486546399999998,67.13212879999999,0.08705034554004669,-1.765753400325775,-3.6726652860641478,0.1114779369319722,1.69056767,-0.505173657,2.20553905,0.41404887100000004,-0.674241924,-1.30332742,-0.1582635255,0.160130114,1.7165673599999998,-1.3049978899999999,2.2382126199999997,0.4728699839999999
