JvanZyl1/RocketTrajectoryOptimisation/data/agent_saves/PyTorchSAC/LandingBurnPureThrottle/1_A_3/agent_saves/sac_pytorch_learning_stats_reduced.csv
step,state_mean,state_min,state_max,state_std,state_kurtosis,action_mean,action_min,action_max,action_std,action_kurtosis,reward_mean,reward_min,reward_max,reward_std,reward_kurtosis,critic_loss,actor_loss,alpha_loss,alpha_value,q_value_mean,q_value_min,q_value_max,q_value_std,log_prob_mean,log_prob_min,log_prob_max,log_prob_std,target_q_mean,target_q_min,target_q_max,target_q_std
4954.5,1.6463850100000001,1.5114573800000002,1.7598981000000002,0.06720703110000001,-1.0535421350000003,0.0369133025,-0.978704961,0.979394256,0.585695482,-1.2755921799999999,0.032757930350000006,-5.97882549,0.20876501900000002,0.5602098879999999,122.16197459999998,0.6316018640995026,-2.1495065569877623,-3.5326624870300294,0.12176300490259237,2.06697213,-16.224343299999997,4.707778289999999,4.56537289,-0.6777623629999999,-1.6222065369999998,-0.46591899200000003,0.1294568029,2.06775911,-19.9178545,4.764453720000001,4.6647495900000004
4964.5,1.64484935,1.51189031,1.7596237000000001,0.0657448526,-0.983743245,0.034416490499999994,-0.982036102,0.9841800939999998,0.5912961290000001,-1.2859949499999999,0.049164243399999995,-4.409234635,0.20618697900000002,0.4151770906,96.5144315,0.4052422046661377,-2.4571518778800963,-3.535811972618103,0.12164130608349626,2.37461447,-15.8499284,4.728167480000001,4.1861672599999995,-0.678462279,-1.82261798,-0.462342868,0.1393296832,2.41019018,-17.4304417,4.764861040000001,4.20233655
4974.5,1.6451851999999998,1.51045046,1.7599243299999998,0.06677589660000002,-1.0141986590000003,0.046427735229999996,-0.97465508,0.9841233440000001,0.579666667,-1.2522512800000003,0.046077593099999994,-4.968418556,0.20824818499999997,0.43737334399999994,122.79186469999999,0.4364155322313309,-2.305239200592041,-3.5542488574981688,0.12151963939290782,2.22181823,-16.409105200000003,4.73712764,4.4632672300000005,-0.6864127470000001,-1.7649161899999999,-0.462345934,0.13771945019999998,2.25877052,-19.457163700000002,4.7834498100000005,4.49194651
4984.5,1.6454499199999997,1.50995337,1.76011295,0.0665453802,-0.981827794,0.036402258289999996,-0.980135143,0.9772585659999999,0.5795526339999999,-1.28013669,0.041394414479999996,-4.953514459999999,0.206272822,0.46403397250000006,108.66719909999999,0.4636618509888649,-2.2910884022712708,-3.540185570716858,0.12139792670499734,2.208658,-16.7183598,4.7414857800000005,4.48223395,-0.67894179,-1.7263224200000002,-0.46668719200000003,0.13368004900000002,2.23923629,-19.8787681,4.78764505,4.530796069999999
4994.5,1.6460159699999999,1.5102244800000002,1.76035544,0.06569408489999999,-0.95935262,0.03184699097,-0.9814306460000001,0.9812519030000001,0.5862116310000001,-1.2849753700000002,0.029944911856600004,-5.47847314,0.20775705799999997,0.545091591,110.47397610000003,0.5647517532110214,-2.27270565032959,-3.546141266822815,0.12127639664332504,2.19011195,-17.0972875,4.779632049999999,4.5869371999999995,-0.6809681409999999,-1.7075250999999998,-0.46739945400000005,0.13212781499999998,2.22667604,-19.2926046,4.811944700000001,4.61798516
5004.5,1.64547165,1.50875077,1.76012333,0.0663065248,-0.973036806,0.05050312345,-0.9825015300000001,0.980688167,0.5768080930000001,-1.23953459,0.0208857617946,-5.46747873,0.20738485999999998,0.5977880289999999,82.5757652,0.7032011538743973,-2.2872114181518555,-3.549500918388367,0.1211549967980863,2.20460427,-17.4492696,4.76395086,4.63476646,-0.681762293,-1.7379332699999999,-0.464503716,0.131672855,2.21306121,-20.504199,4.80231104,4.71256221
5014.5,1.6459425600000004,1.51169828,1.7597437400000004,0.06584039979999999,-1.019017771,0.0370136602,-0.9828041869999999,0.987450234,0.583296949,-1.27102922,0.053538387599999994,-4.961917520000001,0.20766971500000003,0.423279759,129.5183083,0.3948020376265049,-2.412220668792725,-3.550198864936829,0.12103368415017879,2.3297526600000005,-16.2342107,4.76991754,4.30601182,-0.681295044,-1.6284770300000002,-0.46547979,0.12812031559999998,2.3705881,-18.890135100000002,4.803004979999999,4.317234470000001
5024.5,1.6462100400000002,1.51045248,1.7610298100000001,0.0660907955,-0.9852558489999999,0.043235554899999994,-0.9773546149999998,0.982873201,0.579419438,-1.27334331,0.037335931899999994,-5.471919290000001,0.20789057100000002,0.521652722,108.89403599999999,0.46049297153949736,-2.289543402194977,-3.550069499015808,0.12091255901389411,2.20726199,-17.6535422,4.7902209,4.52063639,-0.680436168,-1.5836612200000002,-0.47156284,0.1256805785,2.2326277,-20.4830368,4.82024446,4.58343982
5034.5,1.64557614,1.5096765800000003,1.7603023100000001,0.0656182316,-0.9619256159999999,0.03649207325,-0.979436546,0.980072123,0.573951774,-1.2587700599999998,0.03935526448,-4.950052390000001,0.20878799100000003,0.4928885825,96.57185949999999,0.5353043988347054,-2.3450375318527223,-3.555032515525818,0.12079151993498236,2.26265077,-17.059113,4.8106112,4.519174989999999,-0.6819889659999999,-1.8721368400000002,-0.471504103,0.13532226399999997,2.28762812,-18.9740532,4.810781739999999,4.552110569999999
5044.5,1.6459988799999998,1.51096034,1.7605627299999997,0.06568424210000001,-0.9963029429999999,0.04938546373,-0.9789306489999999,0.9817245620000001,0.5810946749999999,-1.25155155,0.041922748100000004,-5.470603564,0.207718669,0.513218768,108.36192100000001,0.5228603631258011,-2.3876385927200316,-3.5437877655029295,0.12067067613192947,2.30607237,-17.2812102,4.81320039,4.4822850800000005,-0.6758741450000001,-1.4329920699999998,-0.468088306,0.1186933675,2.32671814,-21.055133899999998,4.84272661,4.53407938
5054.5,1.64593602,1.5108954000000003,1.75995967,0.066438093,-0.9919106799999998,0.0540037766,-0.98589424,0.979257986,0.5803636249999998,-1.23360196,0.04689033831,-4.881368732,0.20840852599999998,0.45786666800000003,100.33418719999999,0.4820322722196579,-2.2361729979515075,-3.5420906066894533,0.12055015527824205,2.1548802700000005,-16.677866600000005,4.81093237,4.618606880000001,-0.674280665,-1.3752200160000003,-0.46756630999999993,0.11780331810000003,2.19909495,-19.236333100000003,4.8471030399999995,4.65248961
5064.5,1.6457541599999999,1.5130386599999999,1.7604399000000002,0.065577604,-0.9809354410000001,0.04739476353999999,-0.979069026,0.9845351429999999,0.5795452550000001,-1.23431218,0.0225542498,-4.970431639999999,0.208670087,0.59130712,65.5956194,0.6765216715633869,-2.3306893944740295,-3.5578338384628294,0.12042983201727017,2.2486773299999996,-17.6591543,4.81394427,4.579727999999999,-0.68092802,-1.9475466299999997,-0.47348700799999993,0.13314232110000002,2.30363937,-20.6568426,4.87272049,4.63193779
5074.5,1.6459761499999999,1.51158911,1.75879161,0.06609437440000002,-1.0576047640000001,0.0596396835,-0.977987149,0.981552032,0.580115565,-1.23189292,0.039735978500000005,-5.464643044000001,0.20879977300000002,0.529118845,108.36270239999999,0.5976390704512596,-2.31431782245636,-3.556786394119263,0.1203094052331279,2.23254228,-16.7075585,4.847911160000001,4.5135441,-0.6796405209999999,-1.4287311,-0.466928219,0.11473674360000001,2.23992227,-20.478076199999997,4.86374353,4.58429044
5084.5,1.6461555300000004,1.51263727,1.75883791,0.0671045965,-1.0706721150000003,0.0405891789,-0.9708206020000001,0.9819661180000001,0.583224105,-1.28432684,0.052748183299999994,-5.4782161899999995,0.208002946,0.4471374389999999,155.5585281,0.4445017009973526,-2.2470432996749876,-3.568134307861328,0.12018902316282923,2.1648014600000005,-16.2103593,4.83609634,4.59088846,-0.684202725,-1.72970602,-0.452461993,0.13831679530000002,2.20063241,-19.052504199999998,4.89773634,4.6061641700000004
5094.5,1.64677827,1.5096292500000001,1.7606488500000002,0.0662871866,-1.039585384,0.049110679,-0.972125024,0.9798577210000001,0.5730422479999999,-1.23902646,0.0465608698,-5.978809839999999,0.20800415199999994,0.5142097870000001,135.15935059999998,0.4632528305053711,-2.218046748638153,-3.5594347953796386,0.12006867924708545,2.1364756099999997,-17.5754382,4.851538840000001,4.62553972,-0.6793025140000001,-1.56463599,-0.444893848,0.129157286,2.1551880600000004,-20.514241200000004,4.87540498,4.67978936
5104.5,1.64529973,1.50824573,1.7606436699999999,0.06614483940000002,-0.984703523,0.0666460394,-0.9834104079999999,0.9824548189999998,0.581004446,-1.26785207,0.043858118300000005,-4.97533824,0.208641728,0.4745584730000001,108.7271755,0.4425895482301712,-2.3128964424133303,-3.57292001247406,0.11994849312208185,2.2307393400000004,-18.166135500000003,4.86173852,4.64894715,-0.684868391,-1.67110331,-0.44182335300000003,0.138303515,2.25158037,-20.431769199999998,4.89991391,4.68659933
5114.5,1.64491936,1.5101582400000002,1.76000263,0.0677244566,-1.046388532,0.0508066633,-0.983882953,0.981775606,0.5796170070000001,-1.2476537099999998,0.030856641399999996,-5.468649046,0.2077655,0.5434519109999999,103.5994115,0.5757468268275261,-2.088025689125061,-3.5572226285934447,0.11982839150843438,2.00693294,-18.180289799999997,4.87091957,4.94562275,-0.6766737749999999,-1.3744773699999997,-0.43791272500000006,0.12251399920000003,2.0455655200000002,-22.1822207,4.883961080000001,4.977983780000001
5124.5,1.64615932,1.5114641199999999,1.7599798899999999,0.0658126486,-0.9950927359999999,0.041199659846000006,-0.9842510689999999,0.9778857769999998,0.586803713,-1.2726881899999998,0.03702669585,-5.445227365,0.20774554600000003,0.518482723,106.90764669999999,0.5143041737377644,-2.1523070454597475,-3.561479187011719,0.11970857050698573,2.07114971,-17.699057,4.868985889999999,4.862213639999999,-0.6778893340000001,-1.444541766,-0.43480355700000006,0.129507981,2.1114871699999997,-21.783042400000003,4.91226565,4.90877751
5134.5,1.64673613,1.51101073,1.76055615,0.06672679649999999,-1.006431463,0.029913670100000005,-0.9773786080000001,0.984697286,0.58716517,-1.26883445,0.03293156998,-4.968713286,0.20837337799999997,0.536634579,80.26014980000001,0.5666797488927842,-2.0929909229278563,-3.5763610363006593,0.11958892717738194,2.01117147,-17.587047050000002,4.89908696,4.969900569999999,-0.684105875,-1.5493850750000002,-0.43516728900000007,0.1336852356,2.0364083600000003,-20.7182209,4.927021219999999,5.025063340000001
5144.5,1.6455051099999998,1.51224612,1.7594174400000004,0.066765958,-1.034856396,0.0454014531,-0.98213086,0.9804365440000001,0.5856583129999999,-1.27203867,0.03404281818299999,-5.47843341,0.20670093500000003,0.527461696,113.3423521,0.512294003367424,-2.1739378213882445,-3.574195623397827,0.11946916801438652,2.09241653,-17.8114956,4.92268297,4.901294890000001,-0.6822938709999999,-1.680641894,-0.435402415,0.137890277,2.1326494200000004,-20.701128699999995,4.931068830000001,4.93023796
5154.5,1.6462336800000004,1.51212731,1.75986497,0.06557969150000001,-1.0044146639999998,0.03192226533,-0.9815357349999999,0.9865750080000002,0.581680224,-1.2513050199999998,0.0487183382,-4.93324185,0.20733137799999998,0.46349325100000005,103.46155189999999,0.5007663063704968,-2.3179909229278564,-3.5709606647491454,0.11934951515288336,2.2368277100000005,-17.4003036,4.907950680000001,4.64077986,-0.679978524,-1.5170836300000001,-0.42812476200000005,0.13657622639999997,2.28320051,-20.215261899999998,4.94103577,4.68379854
5164.5,1.6457853800000002,1.5098979099999998,1.7595482399999998,0.06708566710000001,-1.001816699,0.0462457794,-0.9774960619999999,0.975468108,0.5875261,-1.2953699899999997,0.0362560386,-5.97898787,0.20792917699999997,0.5394872850000001,137.3439189,0.68071348965168,-2.144293987751007,-3.5861830711364746,0.11923004226168639,2.06245292,-18.0786399,4.8996739300000005,4.890383139999999,-0.686345038,-1.63471475,-0.417410614,0.13979603000000002,2.08594273,-20.5409886,4.929302,4.92789876
5174.5,1.6470684000000002,1.51327634,1.7601547099999997,0.0658920659,-1.030143874,0.022446822515,-0.9841936409999998,0.9821512540000003,0.581024317,-1.27036892,0.03677046513,-5.477504433,0.207864624,0.5324733429999999,115.16296889999998,0.6646254271268844,-2.226249670982361,-3.578271007537842,0.11911052571308067,2.1450281700000002,-17.836826600000002,4.93461656,4.792309959999999,-0.6818317190000001,-1.3095653800000002,-0.411629237,0.1287982505,2.1314392300000002,-20.921098999999998,4.945221900000001,4.88930924
5184.5,1.6459160499999999,1.51256822,1.75922777,0.06547661,-1.010964015,0.0334180934,-0.9806069020000001,0.9754956279999998,0.5825793239999999,-1.2851574,0.03191981596,-5.477546623,0.207911972,0.5526662050000001,101.97637599999999,0.6923895657062531,-2.1525657892227175,-3.578522515296936,0.11899119010093132,2.0715057700000004,-18.039950099999995,4.89110705,4.92370208,-0.6811582389999999,-1.4746064100000003,-0.40888272500000006,0.136935754,2.11166885,-20.868781500000004,4.94233811,4.9659794
5194.5,1.6460111999999998,1.5127874200000002,1.75976544,0.06699317540000001,-1.05531683,0.0551041771,-0.9824767939999999,0.9845235499999999,0.578912655,-1.23392766,0.01422004895,-5.431188955,0.20739430299999997,0.6320735165,71.63059600000001,0.856598025560379,-2.035172963142395,-3.573634076118469,0.1188720281126994,1.9545608599999997,-18.0049109,4.894308949999999,5.02765712,-0.6780722119999999,-1.235942157,-0.408466958,0.1298518694,2.0175009699999995,-21.765998099999997,4.94951299,5.09202613
5204.5,1.6465891400000001,1.5122973400000002,1.7594710499999997,0.0656655374,-1.037766129,0.050345193860000005,-0.9824444939999999,0.97633075,0.595510675,-1.3349668700000001,0.060229252,-4.434606662999999,0.20747791399999999,0.37808219839999996,116.234339,0.4293997198343277,-2.34135422706604,-3.5706207513809205,0.11875327503229545,2.26108459,-17.640574800000003,4.92226346,4.59086257,-0.675869457,-1.3176823500000003,-0.407356025,0.13468341500000003,2.2964382799999994,-18.9290167,4.95196756,4.601639950000001
5214.5,1.64650927,1.51040495,1.7593330999999999,0.0661423454,-0.974036995,0.028750818600000005,-0.975694116,0.979619492,0.5831089590000001,-1.2770459199999997,0.044591370000000005,-5.4732011,0.207153104,0.471036302,130.7180132,0.3851974353194237,-2.1562221527099608,-3.5890836000442503,0.11863461272331213,2.07509812,-17.997100500000002,4.9427318200000006,4.938727169999999,-0.6837455050000001,-1.307531636,-0.408701385,0.130393806,2.08645745,-20.8666378,4.97690849,4.99479638
5224.5,1.6461474900000002,1.5137419600000002,1.7601766600000002,0.066837678,-1.067349235,0.041611180600000006,-0.9805855970000001,0.980053352,0.5788325409999999,-1.24927367,0.019681460199999997,-5.466233900000001,0.20738650600000003,0.585889884,92.0196584,0.614615686237812,-2.099431574344635,-3.5778738498687743,0.11851593947773868,2.0191053500000002,-18.0299816,4.96803586,5.053650859999999,-0.6776990129999999,-1.28344979,-0.41079393699999994,0.12854807900000004,2.06569216,-21.429214899999998,5.00269778,5.0781246499999995
5234.5,1.64639769,1.5100736300000002,1.7609699400000003,0.0660153235,-0.982023735,0.0444561653,-0.9809954699999999,0.9905590700000001,0.58348717,-1.27300666,0.0160600084,-5.97876365,0.207808458,0.651567693,88.8020271,0.6916589796543121,-2.1340034008026123,-3.5877694606781008,0.11839742383524494,2.0533015800000003,-20.0293974,4.9669788200000005,5.11220571,-0.6815501530000001,-1.45931431,-0.405080857,0.13782021299999997,2.07489366,-23.229276399999996,4.99886437,5.18174011
5244.5,1.6468304200000001,1.51364238,1.7592341899999997,0.06591879440000001,-1.0159643219999999,0.056798534100000006,-0.9778507729999999,0.9739112289999999,0.5772402409999999,-1.2322829499999997,0.045500103400000005,-5.44299429,0.207657009,0.472556407,132.3441487,0.6338243514299393,-2.132296991348267,-3.580662202835083,0.11827902795257213,2.0521629599999995,-17.6097055,4.97229091,5.053618360000001,-0.6774322549999999,-1.305567025,-0.400261342,0.138076217,2.05889511,-20.8496576,5.01424085,5.10107204
5254.5,1.64515366,1.51237316,1.7599013500000003,0.0658570755,-1.0204666150000001,0.0337789427,-0.9813580569999999,0.9766133219999998,0.582454838,-1.25682398,0.041750639490000005,-4.9458333660000005,0.206353262,0.46985506799999993,110.03043920000002,0.49836624711751937,-2.3669057369232176,-3.5948179721832276,0.1181608600293625,2.28616174,-18.423072799999996,4.97490817,4.75404936,-0.683274465,-1.48842683,-0.40520816000000004,0.137759432,2.3386650499999995,-21.172084,5.0015548999999995,4.782772079999999
5264.5,1.6457395900000003,1.51306815,1.7607536,0.066191785,-1.0098399299999998,0.0149363029,-0.9820850670000001,0.9856002619999998,0.588050297,-1.29334251,0.021912789100000003,-5.97820922,0.20662122899999996,0.613027183,104.11682119999998,0.6242651134729386,-2.2232213020324707,-3.6019133567810058,0.11804250058614507,2.14225883,-19.1474314,4.98294574,5.05099935,-0.6858075379999999,-2.0315832,-0.42096504,0.14939818,2.1794049699999998,-23.8077536,5.0099817600000005,5.1263390499999995
5274.5,1.6449703300000003,1.5123262200000003,1.75941136,0.065996843,-0.9823995160000001,0.025990983330000002,-0.9821700840000002,0.9800115010000001,0.5798752109999998,-1.2712364900000002,0.050745932699999996,-4.467131189999999,0.207666627,0.415933896,99.1106813,0.42774677127599714,-2.3206754684448243,-3.599957513809204,0.11792409208280903,2.23999534,-18.048504700000002,4.956274380000001,4.82802537,-0.684101302,-1.6587450999999998,-0.43176314800000004,0.1358579762,2.2850054799999997,-20.9073454,5.0350665800000005,4.84565726
5284.5,1.64605691,1.5129549,1.76019061,0.0662180706,-1.025399645,0.0473532939,-0.9763179150000001,0.9832475219999999,0.572955598,-1.2269802699999999,0.0242422737,-5.97859805,0.20667108399999998,0.569944467,136.5203712,0.7489510864019394,-2.2226472020149233,-3.592698335647583,0.11780590550607326,2.1425408599999995,-18.767548599999998,5.00460045,5.00679656,-0.6799170469999998,-1.4729783200000002,-0.433577,0.1273136606,2.16420037,-22.4014349,5.049569679999999,5.092115820000001
5294.5,1.6455818000000004,1.5133229699999997,1.75890116,0.0655540311,-0.998533013,0.047272795199999995,-0.9825611519999999,0.9883338949999999,0.5870158249999999,-1.26657836,0.047895411,-5.466135469999999,0.20677599499999996,0.46748245299999985,132.96926630000002,0.690543133020401,-2.3774281978607177,-3.5960034132003784,0.1176879815316493,2.2973127,-18.342469200000004,4.99955381,4.764304440000001,-0.6806755740000001,-1.7869962000000001,-0.4282043219999999,0.15174088700000002,2.28869259,-20.972108600000002,5.02415926,4.835895549999999
5304.5,1.6468616099999998,1.5110002000000002,1.76098553,0.06583357170000001,-0.994707111,0.0370240399,-0.977564399,0.9840980289999999,0.5826868070000001,-1.2594432699999998,0.0475347568,-5.97836269,0.20826400400000003,0.495352075,150.6538011,0.48726665377616885,-2.094452714920044,-3.5973038196563722,0.11757022088660145,2.01443848,-19.974520700000003,4.99412303,5.172744810000001,-0.680496904,-1.61416684,-0.43060700800000007,0.1346833441,2.0786744,-22.850720000000003,5.05145389,5.178344809999999
5314.5,1.64665091,1.51198404,1.7599951399999998,0.0663848829,-0.9976573479999999,0.022905642100000005,-0.978228935,0.9788130690000001,0.5820111399999999,-1.27172203,0.049244003780000004,-3.9067785029999995,0.2074262,0.41438873049999997,71.2036573,0.481634346395731,-2.1643991708755492,-3.6101147413253782,0.1174525626312396,2.08385473,-18.4656527,5.01908244,5.0614064,-0.685692955,-2.2585878700000004,-0.43268903400000003,0.16508842299999998,2.1217281800000003,-20.5320841,5.06456632,5.07377621
5324.5,1.6459885499999998,1.5130732300000003,1.7593269,0.0659188264,-1.0595927,0.03602144082,-0.9788108199999999,0.9773680410000001,0.5765288500000001,-1.2576882299999999,0.0576326028,-4.37298273,0.206473366,0.396049389,93.5080825,0.33751182034611704,-2.3221203207969667,-3.602824258804321,0.11733489898438713,2.24214829,-18.0851385,5.016154439999999,4.78502567,-0.6815018899999999,-1.76080774,-0.4305575869999999,0.146418546,2.24265298,-20.920476100000002,5.087397640000001,4.85598626
5334.5,1.6463620200000002,1.51329556,1.7599445000000002,0.0664931935,-1.061412215,0.033354434819999994,-0.9798600760000001,0.9749746980000001,0.5765690219999999,-1.25515745,0.0454823429,-4.355190982000001,0.20592066999999997,0.45046805940000006,77.42942070000001,0.49203864485025406,-2.248192536830902,-3.6103447914123534,0.11721738759882708,2.16798162,-18.571904099999998,5.03303625,4.936601219999998,-0.6842240439999999,-1.58677827,-0.42878615700000006,0.13539638199999998,2.2074477200000002,-20.4420761,5.06809144,4.94847599
5344.5,1.64708604,1.5095745200000001,1.7601579,0.06668482969999999,-0.995037863,0.02535673799,-0.9761111739999999,0.9865328940000001,0.587229285,-1.28063309,0.034992197,-5.97866754,0.20776887,0.562934665,116.94128150000002,0.77530597448349,-2.0298046588897707,-3.602577066421509,0.1170999727214133,1.9501903200000001,-19.5705673,5.0624585699999995,5.33473156,-0.679815198,-1.6169916800000004,-0.42822937899999997,0.13370503699999997,1.9844976699999997,-23.053715500000003,5.10128858,5.375443219999999
5354.5,1.64628059,1.51056283,1.7597765199999997,0.06719511380000001,-1.050356859,0.018698989978,-0.9780511969999999,0.986797842,0.583740556,-1.2764030100000001,0.04006851961,-5.97856148,0.207533005,0.531840182,139.1460574,0.5842709988355637,-2.086601722240448,-3.610084629058838,0.11698279934511976,2.00674957,-19.130204399999997,5.04728067,5.140099910000001,-0.6825300280000001,-1.74139044,-0.43307241099999993,0.1386056618,2.0327910299999994,-22.182871099999996,5.08212877,5.19725227
5364.5,1.64637755,1.5097358,1.7589126400000001,0.06590522600000001,-0.998265314,0.043376209900000004,-0.9794048780000001,0.9776754559999998,0.571312369,-1.21305814,0.03961987674,-4.953485813,0.20795957999999998,0.5112162010000001,88.6982054,0.5350540474057197,-2.1360334873199465,-3.616928219795227,0.11686566480271317,2.0559803899999998,-19.9665003,5.058077760000001,5.18040191,-0.6849330599999999,-1.69564922,-0.438076566,0.14588737599999999,2.08270222,-22.1407748,5.089864609999999,5.20859038
5374.5,1.64497019,1.50947767,1.76060807,0.0668168995,-0.974014739,0.06238469859999999,-0.978164353,0.980961945,0.583903895,-1.2716679700000002,0.061250742200000007,-3.8883043649999998,0.20771354,0.318203749,114.2699492,0.23572159186005592,-2.2552228808403014,-3.60871160030365,0.1167485452283247,2.17578828,-19.489342,5.05757588,5.09902097,-0.680321265,-2.0703834999999997,-0.448607769,0.14514487599999998,2.19672639,-21.221454400000002,5.10781492,5.11194414
5384.5,1.6466807400000003,1.51092862,1.75990957,0.0661929303,-1.0055531400000002,0.045308529099999995,-0.97586195,0.981915627,0.579121733,-1.22788579,0.05314693499999999,-3.9157137,0.207628612,0.397070877,75.92626080000001,0.391212572157383,-2.1598490953445433,-3.598125457763672,0.11663178646373522,2.0811602500000004,-19.6242632,5.089662800000001,5.13664357,-0.674610764,-1.38919712,-0.453309897,0.11554809480000001,2.1207572399999997,-21.972309900000003,5.11575117,5.16793555
5394.5,1.64551111,1.5132785800000002,1.75950804,0.0649018934,-0.9830431250000002,0.0474338911,-0.979762835,0.9785779810000002,0.5851129799999999,-1.2770024100000001,0.041298685999999994,-4.95399111,0.20685593599999996,0.49980873700000006,91.5660123,0.6094017744064331,-2.3604329586029054,-3.6086947679519654,0.11651531235911819,2.28134015,-19.2932652,5.09114609,4.9678255,-0.6787499330000001,-1.65263627,-0.45109726099999997,0.1329694156,2.2942484700000003,-22.0139773,5.10724014,5.00228702
5404.5,1.6463940799999999,1.5101969000000002,1.7601920999999998,0.06640188949999999,-0.9702789589999998,0.0664234482,-0.9835251780000002,0.9874948809999999,0.585201498,-1.2282179,0.0538455341,-5.4718091300000005,0.208057856,0.421086997,163.7110227,0.41774142235517503,-2.1680650115013123,-3.6142245054244997,0.11639894795443229,2.08884303,-19.9455149,5.08213736,5.2274334200000006,-0.6805403790000001,-1.8919571599999998,-0.450342345,0.14460913299999997,2.1192684699999997,-22.626575699999997,5.115427129999999,5.24823351
5414.5,1.6456283299999999,1.5110101800000002,1.7598877099999999,0.06710989950000001,-1.028645255,0.04230942316,-0.982642141,0.9854154559999999,0.5842146180000001,-1.2754202099999998,0.023083221650000006,-5.478151540000001,0.20740403400000001,0.5755835499999999,95.06478059999999,0.6736012637615204,-1.9751451373100282,-3.6082037687301636,0.11628260169984635,1.89641832,-20.092545500000003,5.087765320000001,5.51385277,-0.6769618909999999,-1.5785359570000002,-0.45253182699999994,0.13057925450000002,1.9258274099999997,-23.216591299999997,5.123098189999999,5.573660340000002
5424.5,1.6454255899999999,1.50977121,1.7597697799999998,0.06637728940000001,-0.9861892040000001,0.0475672307,-0.9743807710000002,0.978473915,0.582232322,-1.24994843,0.0427903375,-5.978634660000001,0.20936133000000004,0.4943355490000001,152.8410957,0.4775602638721466,-2.115405964851379,-3.6249971866607664,0.11616635011597229,2.03594202,-19.909883999999998,5.10166459,5.337033760000001,-0.683984206,-1.99180594,-0.455960752,0.15116923300000001,2.06758551,-22.011041799999997,5.125526590000001,5.33706928
5434.5,1.6469238400000001,1.5119886299999998,1.76057068,0.0653919319,-0.9919263500000002,0.029588422989999995,-0.9784339270000002,0.9764704080000002,0.576214401,-1.2385745300000002,0.0322165233,-5.47834416,0.207129247,0.5588837799999998,92.6324618,0.5704776287078858,-2.1267175555229185,-3.625175452232361,0.11605005762783585,2.0474144300000003,-20.302473199999998,5.12080733,5.3005061300000005,-0.6832838090000001,-1.9175971600000001,-0.45614972,0.142943824,2.05931283,-23.803345200000003,5.14471454,5.37792674
5444.5,1.6464296600000001,1.5111047600000003,1.7605145700000002,0.06569778090000002,-0.9825497270000001,0.023518017600000003,-0.98040492,0.9818748709999999,0.5863406800000001,-1.26622562,0.030990327099999992,-4.464288696,0.206706813,0.508702385,69.28457510000001,0.6638431251049042,-2.125934326648712,-3.6289746046066282,0.11593385506561142,2.04659702,-19.8671077,5.12854652,5.33046916,-0.684263964,-1.8255151299999999,-0.453952585,0.1367367674,2.06637085,-23.0910685,5.16314925,5.40145129
5454.5,1.6466055499999999,1.5106233800000002,1.76014992,0.0663087523,-1.0113423359999998,0.0497901215,-0.9781060659999999,0.980128076,0.582827847,-1.2611768199999998,0.025107207399999998,-5.97848426,0.20813837500000001,0.613996403,104.04369890000001,0.6183636486530304,-2.0370460391044616,-3.6276849508285522,0.11581773594010525,1.9579481599999997,-20.7697015,5.13573729,5.477329070000001,-0.6828826619999999,-1.62271183,-0.451702128,0.1290230826,1.99155844,-24.6802264,5.165898019999999,5.536890120000001
5464.5,1.64700445,1.51256003,1.75966254,0.06524796349999999,-1.014536316,0.044018459634,-0.975957921,0.9851049190000001,0.5865307769999999,-1.26734179,0.053295044599999994,-5.456702750000001,0.206323623,0.4548903405,136.07475570000003,0.43397012203931806,-2.197938418388367,-3.619131922721863,0.11570178404298907,2.1194690900000004,-19.5626787,5.1171313099999995,5.157683580000001,-0.6781351059999998,-1.4109942659999999,-0.45077457500000007,0.11896369199999998,2.14396816,-22.9362968,5.154500569999999,5.19674697
5474.5,1.6462677200000002,1.51281475,1.75947168,0.06562850519999999,-0.991988446,0.0531214002,-0.977746252,0.9819951100000001,0.5755456649999999,-1.2092145300000001,0.0358540213,-5.474491260000001,0.208079952,0.5494900946,90.9798859,0.5413876682519912,-2.1952882289886473,-3.620215058326721,0.11558612350267343,2.11692926,-19.725049399999996,5.14860584,5.266103939999999,-0.6778590149999999,-1.6160819800000001,-0.455248652,0.1324,2.14800181,-23.6024648,5.186163839999999,5.330865600000001
5484.5,1.6460092699999997,1.5114020400000003,1.75988404,0.0657699274,-1.0003185110000001,0.042581421868,-0.979506357,0.981781739,0.577742818,-1.2585161899999997,0.04129439946,-4.436456697999999,0.208140072,0.46830605849999996,76.5812366,0.4567954260855913,-2.196230614185333,-3.6168287992477417,0.11547068838999439,2.1182207199999996,-20.186748900000005,5.15365916,5.244760009999999,-0.67551367,-1.5057622000000002,-0.46016138799999995,0.1243249894,2.1340846200000003,-22.5790989,5.179394149999999,5.278151450000001
5494.5,1.64622892,1.5123220600000002,1.75953722,0.0670149748,-1.0734737500000002,0.04296488935,-0.974686606,0.980482097,0.583816581,-1.25463413,0.03819090543999999,-5.457635946000001,0.20722679500000002,0.531137129,114.37583519999998,0.5013614550232888,-2.03726612329483,-3.6385982990264893,0.11535534782493906,1.9582607500000002,-19.828056099999998,5.161541789999999,5.390724120000001,-0.6848186039999999,-1.6802900900000002,-0.459346819,0.1378811321,1.9842388999999998,-22.754545999999998,5.184377969999999,5.43289813
5504.5,1.6447059499999999,1.5097855,1.76043146,0.06710564240000001,-0.9870014619999999,0.06401936870000001,-0.9845391370000002,0.9825007529999998,0.585372307,-1.27316957,0.030832605699999998,-5.97862797,0.20786170799999998,0.561629756,132.1069592,0.5834721758961677,-2.1302417516708374,-3.642647647857666,0.11523987273746743,2.05118954,-20.927914700000002,5.14222039,5.43556519,-0.6859117909999999,-2.0922088800000003,-0.4584569930000001,0.1616761705,2.09316323,-23.310988599999998,5.16367711,5.45338598
5514.5,1.6469676899999999,1.51145975,1.7593352599999998,0.06576496759999999,-1.005540544,0.040610721600000003,-0.978920031,0.9835870229999999,0.581313746,-1.24252569,0.0442689398,-5.47810653,0.20731697300000002,0.486102743,136.2372109,0.4611938089132309,-2.0058712363243103,-3.625998282432556,0.11512445407929414,1.9278748899999996,-20.138510399999994,5.15355773,5.494104899999999,-0.6774281709999999,-1.6584469800000001,-0.45910963899999996,0.1307829746,1.9462741099999998,-23.5144282,5.19798204,5.55592003
5524.5,1.64685573,1.5091104200000003,1.7608022,0.06606303599999999,-0.9856584660000001,0.0428816402,-0.982609115,0.9813713219999999,0.583071265,-1.26100257,0.0449574929,-4.941359369999999,0.20709026500000002,0.4696043154999999,108.72863869999999,0.5512327961623669,-2.036147212982178,-3.626516032218933,0.11500937231428372,1.9582905699999995,-21.4948465,5.17607164,5.487877320000001,-0.6768917830000001,-1.7330319800000002,-0.464769984,0.14029866000000002,1.97501602,-24.269474600000002,5.1980584,5.55239803
5534.5,1.64589815,1.51037556,1.7597249600000002,0.06615054420000001,-0.996598232,0.045573313399999996,-0.9716893570000001,0.9839415170000001,0.580111256,-1.2759109800000001,0.039723122099999994,-5.9786126799999995,0.20636467600000002,0.5219433170000001,137.65309899999997,0.6058111518621445,-2.045167422294617,-3.6332650184631348,0.11489449422644622,1.9671191799999999,-20.288215800000003,5.19608525,5.479325670000001,-0.679236253,-1.5994111,-0.46083213900000003,0.12777427959999998,1.99819109,-23.7390148,5.22227947,5.53555087
5544.5,1.64539737,1.51207767,1.75905463,0.065311207,-1.003023427,0.04040817607,-0.9785046339999999,0.9835813150000001,0.578233591,-1.2430434199999998,0.0518882893,-4.456251417999999,0.20679242599999997,0.41235753500000005,96.8156645,0.485852487385273,-2.25667564868927,-3.625789737701416,0.11477978842642092,2.1791908300000005,-20.248578799999997,5.178590680000001,5.25382624,-0.6750077449999999,-1.47888374,-0.45246205100000003,0.12742337259999997,2.20065174,-22.905656,5.200212079999999,5.306984150000001
5554.5,1.6457384800000003,1.5096533600000002,1.7598078400000001,0.0666302666,-1.029920741,0.044332350199999995,-0.9839180109999999,0.9823606970000001,0.584495223,-1.26120622,0.062007509399999994,-4.929341576000001,0.207363124,0.38649500000000003,141.1361067,0.4468987867236137,-2.1356839299201966,-3.6407923698425293,0.11466514984581519,2.05757028,-21.602371800000004,5.18091449,5.35420062,-0.681163545,-1.816663485,-0.4471753970000001,0.14898599749999997,2.09085383,-23.0731554,5.21914049,5.372170349999999
5564.5,1.6456968,1.51284142,1.75984445,0.0652867914,-0.9740756850000001,0.04908647052,-0.9745650640000001,0.983105284,0.5804349129999999,-1.2526298,0.03733310663000001,-5.456122504000001,0.207380673,0.517164245,114.9865575,0.5694898717105389,-2.2358089447021485,-3.653178858757019,0.11455042724011666,2.1572073299999994,-20.273105800000003,5.1999238,5.3496777,-0.6861041030000001,-2.39238413,-0.445186116,0.17469070600000003,2.20693603,-23.6581045,5.2538383699999995,5.379617959999999
5574.5,1.6455607700000001,1.5103071200000002,1.7597406899999999,0.0659529705,-1.0054609860000003,0.04578294344,-0.9780203049999999,0.9830869009999998,0.5854963,-1.27340996,0.042250903299999996,-5.47698766,0.20708923300000004,0.4947589089999999,120.40960489999998,0.5194492638111115,-2.0845048308372496,-3.639509892463684,0.11443573408891532,2.00679303,-21.496631100000002,5.2129157500000005,5.60186503,-0.679018283,-1.5412004400000001,-0.438355386,0.12962104800000002,2.0503607999999995,-24.237602899999995,5.236922359999999,5.598577390000001
5584.5,1.64585334,1.51152508,1.75925743,0.0666728501,-1.0008003699999999,0.04145723935000001,-0.9807480419999999,0.9794443240000001,0.582612417,-1.2624116600000002,0.025820728199999997,-4.964696863,0.20816572,0.538977306,86.6882633,0.7197894252836704,-1.9137108325958252,-3.646124744415283,0.11432125734371265,1.8358165400000002,-21.702112,5.185937370000001,5.82288178,-0.681293943,-1.6888899299999998,-0.43631186499999997,0.140001357,1.8715221899999996,-24.161373400000002,5.24332707,5.865304540000001
5594.5,1.64570127,1.51059224,1.76018452,0.0664811225,-1.0243402600000002,0.0513670262,-0.980186535,0.9875692839999999,0.5731496929999998,-1.1909610599999998,0.03218113081,-4.94047122,0.20758557,0.5363327689999999,74.4586588,0.6421417005360126,-2.0240136981010437,-3.644733715057373,0.1142069505885448,1.94635938,-21.254847900000005,5.21909062,5.682539149999999,-0.679876699,-1.54769783,-0.440042794,0.1274801816,1.9583673700000002,-24.193467200000004,5.2512712200000005,5.7510626899999995
5604.5,1.64630465,1.51136588,1.7605057799999997,0.06560376300000001,-0.9841766759999999,0.0376778544,-0.980687552,0.981649895,0.57926968,-1.23594352,0.0268229558,-5.401288085,0.20797134799999997,0.5777025590000001,87.45757927,0.6799244016408921,-2.04731342792511,-3.6381597757339477,0.11409280894603162,1.97017053,-21.4548188,5.24255939,5.6680809,-0.6760746440000001,-1.5875857400000002,-0.446217928,0.129534584,2.00539945,-24.537105099999998,5.27050135,5.72829435
5614.5,1.6454968600000002,1.51155471,1.75980858,0.0670227299,-1.0347928899999999,0.0322330268,-0.9830372300000001,0.9772164499999999,0.58227361,-1.25416183,0.02723397474,-5.97879215,0.20716462399999996,0.582415695,115.75006799999998,0.8903202056884766,-1.9889029383659362,-3.6477429628372193,0.11397888090683306,1.9114219400000003,-21.279328999999997,5.22013516,5.648366769999999,-0.6797161800000001,-1.8152031000000002,-0.4541184179999999,0.1368615056,1.94738878,-23.7692386,5.25444982,5.704080970000001
5624.5,1.64571006,1.5110239799999998,1.7607642400000003,0.0664992191,-1.03050387,0.0479032558,-0.9728174659999999,0.9839611130000001,0.580805421,-1.2493905,0.044753614920000004,-5.47687598,0.20854397900000002,0.47884341900000005,131.4209952,0.7393433928489686,-2.0370624899864196,-3.656503510475159,0.11386495791920825,1.9592877800000004,-22.761017599999995,5.23413315,5.68263252,-0.6829755310000001,-1.74816891,-0.462650383,0.1304736584,1.9650070199999998,-25.1660786,5.27841909,5.7573472
5634.5,1.6461784700000002,1.5136330400000002,1.7598165400000003,0.0666216681,-1.0614778360000001,0.0507025393,-0.9763230390000001,0.975296728,0.576270941,-1.26353999,0.04197953220000001,-4.469366727000001,0.20595140299999998,0.45101890399999994,88.95487510000001,0.6181850753724575,-1.9757334113121032,-3.6548574924468995,0.11375096095708212,1.89821053,-21.5007925,5.21607247,5.6642891299999985,-0.6814436270000002,-1.6603387399999996,-0.46136360100000007,0.12971185059999998,1.94192635,-23.883777400000003,5.27863103,5.67881055
5644.5,1.6458683100000002,1.51323763,1.75938926,0.0669424364,-1.083969328,0.0505496233,-0.9793113,0.978153506,0.579346323,-1.2137551800000002,0.04385969895,-4.411704855000001,0.207007203,0.44976904200000006,80.4623605,0.6179259531199932,-1.9371312737464905,-3.6503382205963133,0.11363717177566765,1.8600103799999996,-20.9547335,5.226917960000001,5.78191479,-0.6785908290000001,-1.61985495,-0.452537677,0.12662233839999998,1.8849475000000002,-24.059858600000002,5.276361390000001,5.83047887
5654.5,1.6452720299999999,1.50916635,1.7602894599999999,0.0661614359,-0.974593072,0.0427904457,-0.983877211,0.9810276100000002,0.572731364,-1.2135292899999999,0.024037718999999996,-5.462836257000001,0.20685472899999996,0.587462341,88.1789029,0.5884233638644218,-2.06240918636322,-3.648224949836731,0.11352363401670422,1.9855632200000002,-21.9729556,5.2635207600000005,5.712948160000001,-0.676848134,-1.4543291459999999,-0.445844855,0.12092133859999998,2.02554664,-24.9068884,5.290225810000001,5.782930640000001
5664.5,1.64561294,1.51297991,1.7601378300000001,0.06571080800000001,-0.9718638080000002,0.06334423894999999,-0.9773564560000001,0.980526626,0.5883947239999999,-1.2850030599999998,0.032826970250000004,-5.9785449,0.20730538599999998,0.558456733,122.31331380000002,0.5756776571273804,-2.141064476966858,-3.6560182571411133,0.11341024290238558,2.06397633,-21.244227400000003,5.26616472,5.7233415800000005,-0.6796589900000001,-1.4810936630000002,-0.43529792599999995,0.132567772,2.0690858899999998,-25.5670992,5.301271940000001,5.77575154
5674.5,1.64560219,1.51282186,1.75941256,0.06588372830000001,-1.0461641799999999,0.0355469249,-0.9842150570000001,0.9777556440000001,0.581729419,-1.2861453,0.05266736060000001,-5.443817390000001,0.208719521,0.463932691,136.179358,0.5141608253121376,-2.13239780664444,-3.6609500885009765,0.11329696456884424,2.05521788,-20.536698100000002,5.26580101,5.47201478,-0.681151822,-1.73062294,-0.433984349,0.1368559351,2.0919441699999997,-23.914728299999997,5.296613890000001,5.4951218399999995
5684.5,1.6460878399999999,1.5101123299999997,1.76017565,0.0651856326,-0.958754783,0.0690881257,-0.9773083330000001,0.977974787,0.583645649,-1.2692827000000002,0.0366640411,-4.446255276,0.20736837000000002,0.4825217813999999,83.9045203,0.565208450704813,-2.0377519130706787,-3.6600062608718873,0.11318369406356817,1.9607852299999997,-22.8354654,5.268447369999999,5.780521599999999,-0.6799474320000001,-1.566881674,-0.43726558400000004,0.13165426200000002,1.9926229199999999,-24.4298346,5.31476828,5.79375024
5694.5,1.6461510799999999,1.51002853,1.75961903,0.06533661669999999,-0.99618746,0.0445448901,-0.9829929889999999,0.9848157519999999,0.5812884679999999,-1.2435818900000002,0.02777732833,-5.97853243,0.206852589,0.599525533,101.1133337,0.5724635154008866,-2.0370924830436707,-3.665114903450012,0.11307050020089764,1.9600249600000001,-22.1819754,5.269119139999999,5.81503061,-0.6815202370000001,-1.71119039,-0.44110885800000005,0.1338257794,1.9921780400000002,-25.083010899999998,5.314168999999999,5.861698220000001
5704.5,1.64567459,1.5095005899999998,1.7600673100000002,0.06607282750000001,-0.9779574900000002,0.041696452970000006,-0.9753700000000001,0.978571047,0.5824287050000001,-1.24203523,0.043311009600000006,-5.4686460199999996,0.208030243,0.48226498399999995,126.80236199999999,0.5120348751544952,-1.9925159335136413,-3.662288045883179,0.11295739417615909,1.91575915,-22.7307095,5.28211033,5.810423729999999,-0.679452035,-1.74632663,-0.44878469899999995,0.13695696,1.9522314599999997,-25.4481446,5.32431767,5.834474729999999
5714.5,1.6451689699999998,1.51282378,1.7586993700000004,0.0665027947,-1.01289968,0.0667259667,-0.978403567,0.9805252059999999,0.583685336,-1.22897375,0.037706885849999996,-4.909632189999999,0.20801334300000002,0.479111012,99.4170861,0.49915533810853957,-1.9246984601020813,-3.655422830581665,0.1128445473414175,1.8484605100000002,-21.6998052,5.289581699999999,5.91810977,-0.6755351879999999,-1.5674363800000002,-0.458428108,0.12738983940000004,1.8740154199999999,-23.508272499999997,5.33465963,5.9605244399999995
5724.5,1.64637006,1.5106497700000001,1.75998916,0.0668437835,-1.025152577,0.0315241371,-0.980220626,0.983705731,0.5858338489999999,-1.2938463999999998,0.01757681574,-5.472547167,0.206983646,0.606814473,90.42395379999999,0.6616467356681823,-1.7978816151618957,-3.671382522583008,0.11273187465282133,1.72098196,-23.017670999999996,5.319118929999999,6.12467219,-0.6820803959999999,-1.6302511,-0.45531814,0.135928667,1.7426566600000002,-25.620732399999998,5.359117540000001,6.1751856599999995
5734.5,1.6462976399999998,1.51424431,1.75940715,0.06669939109999998,-1.054610578,0.026918930119999997,-0.981362652,0.979610693,0.5731185980000001,-1.22742583,0.0433879114,-5.464960214,0.20893113400000002,0.502622468,118.89978939999999,0.5001423463225365,-1.8881500601768493,-3.6724363565444946,0.11261910791834664,1.81135937,-21.502838199999996,5.318816320000001,5.97236737,-0.68179302,-1.6670999599999998,-0.44753573100000005,0.13474609840000001,1.8484582499999997,-25.2187827,5.367229629999999,5.999913370000001
5744.5,1.64668907,1.5147159100000003,1.75908825,0.06539778709999998,-1.0356846249999998,0.037061210920000004,-0.984542365,0.9820067609999998,0.587125051,-1.2672137300000001,0.039856074469999996,-4.930623456,0.20666792899999997,0.5207376,75.4234234,0.5258241295814514,-1.978226637840271,-3.6887765884399415,0.11250631164219324,1.90075812,-20.4429072,5.324550529999999,5.8323909899999995,-0.6885013320000001,-2.197910490000001,-0.44401718399999995,0.167716388,1.93143317,-24.0176121,5.34928712,5.88508186
5754.5,1.64546617,1.51145975,1.7597502299999999,0.06638923379999999,-1.0291159330000001,0.024942210649999998,-0.9813081669999999,0.9842147609999999,0.5785990799999999,-1.25038936,0.04282947468,-4.94688698,0.207331098,0.4660434929999999,116.91144379999999,0.5176754608750344,-2.052194094657898,-3.6668822288513185,0.1123935513864361,1.9760163199999998,-22.0536897,5.333322900000001,5.83505416,-0.6777091009999999,-1.7240925400000002,-0.437542092,0.13734517300000001,1.9812740100000004,-25.500230699999996,5.3575533900000005,5.87606401
5764.5,1.64622454,1.5085452000000001,1.7604139,0.0656243247,-0.9513578410000001,0.058313803899999996,-0.9784196269999998,0.9801649749999999,0.588219384,-1.30259525,0.015266983840000001,-5.97872604,0.208185895,0.644339658,84.53403619999999,0.8197071731090546,-1.8423772692680358,-3.6735569715499876,0.11228114136854073,1.7660192399999999,-23.0795411,5.3234742,6.1988673400000005,-0.679993587,-1.48854901,-0.4318895960000001,0.13171233050000003,1.8113968699999998,-26.9623329,5.3703505400000004,6.28675411
5774.5,1.6448846,1.5138247200000001,1.7590622300000003,0.066119399,-1.01638939,0.053668891331,-0.9753592450000002,0.9807129980000001,0.5839219580000001,-1.26919608,0.0388207948,-4.953886509999999,0.20749161800000002,0.487525935,92.60368739999998,0.481277990154922,-1.9912987351417542,-3.676467776298523,0.11216885438585789,1.9149537900000002,-22.225596599999996,5.359247659999999,5.98513116,-0.680556217,-1.54393266,-0.42611530000000003,0.1363967636,1.9576117199999998,-25.137037,5.395426809999999,5.99420665
5784.5,1.6456050999999998,1.51262876,1.7582153499999997,0.0655288733,-1.0382796890000001,0.0380277335,-0.97618939,0.9822165340000002,0.583274788,-1.2900806299999998,0.0411778863,-5.97844737,0.20722820400000003,0.510305567,143.60272119999996,0.503896564245224,-2.0120619177818297,-3.685956597328186,0.1120566572123329,1.9353936399999996,-22.3720091,5.34045736,5.953136519999999,-0.68412304,-1.90657329,-0.42590820799999995,0.150844255,1.9435807999999999,-25.530762799999998,5.37265762,5.99650573
5794.5,1.64606389,1.5091525300000002,1.7593004799999998,0.0651728471,-0.9548512929999999,0.043071767999999996,-0.9741299720000001,0.9807041570000001,0.589801072,-1.28527463,0.050773777,-4.970013149999999,0.20804757900000004,0.44060612299999996,117.7667743,0.5165794730186463,-2.103542745113373,-3.667292356491089,0.11194451557947915,2.02799159,-22.2959145,5.3401849299999995,5.881690519999999,-0.674829549,-1.48878077,-0.43147020499999994,0.13175911759999998,2.0448206799999995,-24.266539900000005,5.3830274,5.92000865
5804.5,1.64621078,1.51393972,1.7594170900000001,0.0651517496,-0.9986001999999999,0.04612228625,-0.9804339820000001,0.979910681,0.5728797140000002,-1.2224119400000002,0.0418474516,-5.459537989999999,0.206338248,0.5039742279999999,116.851733,0.5805447638034821,-2.0306798934936525,-3.6698479413986207,0.11183277976868519,1.95515933,-22.5236907,5.35347155,5.91985462,-0.675231898,-1.4591133000000003,-0.433247683,0.128723921,2.0156872800000003,-25.153002800000003,5.385562439999999,5.93129031
5814.5,1.64525928,1.5121845200000001,1.75932964,0.0657523885,-0.9668070780000001,0.06474769820000001,-0.9831794460000001,0.9826208150000001,0.5863647229999999,-1.29024933,0.0429118149,-4.942427409999999,0.20867611300000002,0.4721771520000001,108.14585690000001,0.495834269374609,-2.1505314707756042,-3.682147574424744,0.1117212160215483,2.0745443800000003,-22.0511176,5.36824662,5.87847682,-0.680080917,-1.88154408,-0.4330496769999999,0.15148809400000002,2.08401331,-25.538673600000003,5.40797144,5.93812883
5824.5,1.64681261,1.5089428100000002,1.7606732399999998,0.06651200410000001,-0.9613675540000001,0.0448198574,-0.9770522610000001,0.9815870099999999,0.5872779200000001,-1.2812259400000001,0.0330587917,-5.47809498,0.20724652,0.5339671109999999,103.92532760000002,0.5578569889068603,-1.7993340134620666,-3.682288956642151,0.11160961617269664,1.7235010499999999,-23.986607100000004,5.372474660000001,6.32756794,-0.6793798419999999,-1.75828287,-0.4296243540000001,0.14430784000000002,1.75212033,-26.6261713,5.405923039999999,6.38101087
5834.5,1.6459974800000001,1.5139900600000002,1.7593292199999997,0.0664680486,-1.0827791700000002,0.030515497402,-0.983972384,0.9792881809999999,0.5719735690000001,-1.23292876,0.03976756256000001,-4.966737392999999,0.20668543,0.4914837960000001,100.00641110000001,0.5692351698875427,-1.9227632880210876,-3.6928442478179933,0.11149804999630938,1.8465549200000002,-22.382735,5.39256239,6.004607249999999,-0.683426128,-1.66310566,-0.42294025500000004,0.14029646160000003,1.8474420999999999,-25.357445300000002,5.40044166,6.0475075
5844.5,1.6464469300000002,1.51328123,1.76011771,0.06699931899999999,-1.08310652,0.048846685599999995,-0.9828248119999999,0.977981168,0.577406457,-1.23118799,0.03321754785,-5.978440320000001,0.20723565800000002,0.571799954,115.84688609999998,0.7875129073858261,-1.7744107842445374,-3.686719870567322,0.11138651582306835,1.69867514,-23.221126799999997,5.385163880000001,6.18656079,-0.679867442,-1.537916164,-0.415639351,0.135849726,1.7452168700000001,-26.038467500000003,5.4256847100000005,6.22234554
5854.5,1.64627047,1.5134558200000001,1.75915362,0.0657536926,-0.9966059259999998,0.02587782955,-0.9826382,0.980328457,0.584865993,-1.2767892299999999,0.047383527,-4.975405009999999,0.20744635899999997,0.45670167200000006,105.1236091,0.48359190449118616,-1.9877843976020813,-3.699645686149597,0.11127507693738388,1.9115545699999998,-22.186474599999997,5.39204593,6.04662513,-0.684989007,-1.6386199300000002,-0.402715742,0.14184753599999997,1.9361144,-24.930793799999996,5.42573603,6.065678740000001
5864.5,1.6452623600000003,1.51302082,1.7588363999999999,0.0665483805,-1.059325826,0.0221504103,-0.973852651,0.9820269290000001,0.58651152,-1.27692941,0.042139711499999996,-5.462094906,0.2076885,0.4928984089999999,123.43449989999999,0.44446302503347396,-1.8159908533096314,-3.6931744813919067,0.11116361543465487,1.7402502599999998,-23.385229000000002,5.40081539,6.212044730000001,-0.6812745259999999,-1.5925300399999998,-0.39211636699999997,0.14406190800000002,1.7842507399999998,-27.122990299999998,5.45620341,6.22871879
5874.5,1.64575253,1.5094973900000002,1.7606908300000002,0.0663234239,-0.9703289529999999,0.0759986413,-0.9784976430000001,0.985620405,0.589922645,-1.2598940500000002,0.025219783309999994,-5.978842470000001,0.208938391,0.6023344259999999,108.6835734,0.630512860417366,-1.8530309319496154,-3.693121147155762,0.11105238123686903,1.7774541,-24.306232899999998,5.405607720000001,6.31753179,-0.6804837389999999,-1.502686683,-0.38508838700000003,0.1489414336,1.8242068,-27.324391400000003,5.42968576,6.341336929999999
5884.5,1.6450837100000002,1.51192358,1.76031619,0.06662331260000001,-1.0216756969999998,0.053689810000000004,-0.9782781440000001,0.98227557,0.5809627749999999,-1.2519476399999998,0.03109332985,-5.457628086000001,0.20685534800000002,0.5480372764000001,103.38119160000001,0.5952616266906261,-2.023778295516968,-3.689315676689148,0.11094133335609149,1.948553704,-23.8756822,5.41964104,6.097159979999999,-0.677988685,-1.28737352,-0.38809999300000003,0.138746203,1.94852542,-27.123461299999995,5.436659050000001,6.17778098
5894.5,1.6459656200000001,1.5101708,1.7599095300000003,0.0657314694,-1.021670461,0.027269208569999998,-0.9738473429999999,0.9866104450000002,0.585465303,-1.2695524599999999,0.031554192560000006,-5.42171644,0.20575961299999998,0.531988362,108.50166529999998,0.7479529045522213,-1.960189163684845,-3.6982375621795653,0.11083043812730727,1.8846748560000002,-24.056326699999993,5.405736750000001,6.110047,-0.6812816780000001,-1.689368,-0.396686865,0.146084813,1.9312623899999999,-27.484651000000003,5.43453454,6.15453466
5904.5,1.6450899499999998,1.5115931400000002,1.7598741900000001,0.0659451659,-1.009046404,0.049359235370000004,-0.9789509489999999,0.9822553729999999,0.586590183,-1.27024862,0.051877640589999996,-4.334558444000001,0.20756569800000002,0.41152080599999996,93.6521248,0.4763908512890339,-2.0475730538368224,-3.695728039741516,0.11071961733785732,1.972344854,-24.018724100000004,5.4266093699999995,5.929622289999999,-0.679377511,-1.4714591750000001,-0.396771274,0.1385935959,2.01671303,-25.865533300000003,5.46301648,5.925752260000001
5914.5,1.6462533699999997,1.5135845399999999,1.7598007599999999,0.0662760109,-1.015199035,0.048201608199999996,-0.9864616929999999,0.9765851339999999,0.5788270819999999,-1.2492115199999998,0.03928400889999999,-5.97875908,0.208144155,0.5171094039999999,146.0505497,0.5796094924211502,-1.8466551661491395,-3.690982794761658,0.1106089997830499,1.7718253700000002,-23.0208199,5.4338717,6.33872277,-0.676458933,-1.255822156,-0.397358585,0.13476729140000002,1.8092884299999998,-26.019699000000003,5.46817853,6.358935749999999
5924.5,1.64634759,1.5130637900000001,1.7586240699999998,0.06566379600000001,-1.0224978999999998,0.03624386256999999,-0.9805817659999999,0.9815341890000001,0.5786378570000001,-1.2709251900000003,0.03609628071500001,-5.45684698,0.20837939300000002,0.542655813,97.2876978,0.6875810533761978,-1.9283519387245178,-3.7114305973052977,0.11049847207531335,1.8526548499999997,-23.776941299999997,5.425033480000001,6.216765520000001,-0.684982067,-1.44834895,-0.405547701,0.1366116734,1.8888535400000002,-26.152418599999997,5.45989219,6.247100619999999
5934.5,1.6452300400000002,1.5099206200000002,1.75950381,0.06562234339999999,-0.9764448870000001,0.03868293617,-0.980909692,0.978620547,0.5769441649999999,-1.23903158,0.024172651669999996,-4.934863706,0.20735284099999998,0.5414555959999999,77.816115,0.6011310271918774,-1.9871370792388916,-3.698757553100586,0.11038795503025527,1.9122353100000002,-23.818287500000004,5.448770130000001,6.2804151599999996,-0.6784650799999999,-1.3772674459999998,-0.408775844,0.13157816500000002,1.92050957,-27.241281799999996,5.477613709999999,6.35814897
5944.5,1.6458227600000002,1.5118876200000002,1.7588098000000003,0.06616839320000001,-0.9869536739999999,0.040228855699999996,-0.97502972,0.9743731099999999,0.5760903259999999,-1.26928578,0.03440952027000001,-5.472462437000001,0.207744448,0.5270898589999999,108.70129890000001,0.5901386305689812,-1.9102756977081299,-3.700159430503845,0.110277631490585,1.83546246,-23.3057491,5.45285257,6.3485016299999995,-0.67834002,-1.3787003699999998,-0.4075181929999999,0.1344121839,1.8703164499999996,-26.716223300000003,5.502589369999999,6.37589979
5954.5,1.6467923799999997,1.51085025,1.7593037599999999,0.0662026545,-1.03111699,0.03535436975,-0.9741037369999999,0.9848317840000002,0.584506775,-1.26356178,0.0334255456,-4.912426963000001,0.20777189699999998,0.5315778536,73.31834390000002,0.6436754450201988,-1.7428194403648376,-3.705829548835754,0.11016742650281235,1.6678814800000001,-23.686972699999995,5.4642066499999995,6.45475768,-0.6801502370000001,-1.47509443,-0.41120465900000003,0.138993796,1.70050738,-26.061073899999997,5.49604755,6.47809369
5964.5,1.64505936,1.5106330900000002,1.75916748,0.0667451559,-0.9798542509999997,0.05133667704,-0.9724073360000001,0.9810731789999998,0.577979471,-1.2501686300000001,0.05061075319999999,-4.946570812999999,0.20779375599999997,0.4164965240000001,135.562588,0.45174803733825686,-1.9661613583564759,-3.7116198778152465,0.11005728293319775,1.8910934099999999,-23.3202943,5.45728254,6.215998669999999,-0.6820123620000001,-1.5231992,-0.41986222399999995,0.1367445155,1.92984446,-25.403206100000002,5.490366170000001,6.226599670000001
5974.5,1.6464080700000001,1.51027991,1.7597438799999998,0.06494045529999999,-0.948112103,0.03251859060000001,-0.9821877780000001,0.9847069750000002,0.588934588,-1.28428915,0.0340391738,-3.862742748,0.206759344,0.4646863600000001,61.3504104,0.6753396242856979,-1.9274858713150025,-3.713056707382202,0.10994718371141947,1.8525052000000002,-25.463779300000002,5.460833790000001,6.36114662,-0.681901023,-1.9014574899999999,-0.425943603,0.147750278,1.8661678600000002,-27.245935899999996,5.48740689,6.4224966100000005
5984.5,1.64701506,1.51512993,1.7601316400000002,0.065559455,-1.0396865500000003,0.0526885104,-0.9790446239999999,0.9791627720000001,0.583804986,-1.27657493,0.04954300473999999,-5.468509060000001,0.206644461,0.470080297,142.8308027,0.4725542992353439,-1.9524991393089295,-3.715019774436951,0.10983721320960571,1.8775798250000002,-24.442402300000005,5.487572299999999,6.20397421,-0.682026944,-2.03971376,-0.436563957,0.15023360159999996,1.8898730430000001,-26.660393,5.5266788,6.26418644
5994.5,1.6457242200000004,1.51220031,1.7601063599999995,0.0654239623,-0.9791883169999999,0.05218587408000001,-0.9767194229999999,0.9821839649999999,0.584226049,-1.2560901899999999,0.045407165099999994,-5.47711969,0.207677062,0.4895208030000001,127.43266200000001,0.46213172674179076,-2.06268767118454,-3.711614179611206,0.10972731727075931,1.98809588,-24.2934113,5.47854304,6.118861910000001,-0.6797242579999999,-1.4570693399999999,-0.44623934099999996,0.12370078140000003,2.04406693,-27.3613873,5.52333613,6.125251179999999
6004.5,1.64747888,1.51511745,1.7599445099999997,0.06564349,-1.03609659,0.054176468639999996,-0.9696408059999999,0.9831127239999999,0.5745688610000002,-1.24800259,0.023469496639999997,-5.46632228,0.207898784,0.5903036150000001,85.65222120000001,0.6581759661436081,-1.6280829548835754,-3.718442702293396,0.10961755626584875,1.55331052,-24.4669924,5.50892466,6.7492151300000005,-0.6820527319999999,-1.88356607,-0.4495189559999999,0.136471171,1.58848374,-26.812169400000005,5.524208010000001,6.77203503
6014.5,1.6465953599999998,1.5110057099999998,1.75962506,0.0670841683,-1.067350923,0.031284209029999996,-0.977082972,0.9815139030000001,0.5867941400000001,-1.27462425,0.033737425919999994,-5.47728835,0.206574769,0.524843861,114.6194621,0.7004508435726166,-1.6212973833084106,-3.71679368019104,0.10950787470132875,1.546764685,-24.2078552,5.479164460000001,6.63631877,-0.680546144,-1.4541075700000001,-0.447813465,0.12026526499999998,1.5965750600000002,-27.116335599999996,5.530929800000001,6.65701518
6024.5,1.64630519,1.51334889,1.7604364799999999,0.06530390549999998,-0.986388917,0.052731513949999996,-0.9882816139999999,0.982832541,0.5815979600000001,-1.25980719,0.04804526569999999,-5.468552676,0.207945901,0.476832475,130.1247919,0.540387487411499,-2.048903489112854,-3.7157583713531492,0.10939838430515166,1.9745798300000004,-24.839953,5.52588725,6.2505924,-0.6793177370000001,-1.7171873640000002,-0.44786975599999995,0.1314998778,1.9874277099999997,-28.6498793,5.56018187,6.323484499999999
6034.5,1.6462729,1.5100422900000001,1.75924676,0.06557653160000002,-0.9983360259999999,0.027106219600000002,-0.9823393999999999,0.977485805,0.5822889279999999,-1.25602834,0.049996536640000006,-4.950413667,0.206776619,0.45930354300000004,111.91381099999998,0.5321996986865998,-1.8928393483161927,-3.7195123434066772,0.10928904755425617,1.8184874700000002,-24.8747778,5.50783173,6.4012928,-0.680255193,-1.5295508569999998,-0.448676265,0.1251908524,1.85121617,-27.791519700000002,5.53658605,6.42395295
6044.5,1.6455168700000002,1.5121197699999998,1.7598805900000003,0.06519349890000001,-0.967211514,0.046037987200000005,-0.9766934939999998,0.982212412,0.5767138520000001,-1.2519435700000003,0.05530276590000001,-4.8821963319999995,0.20823779,0.416260251,123.17258889999998,0.45709244832396506,-2.1157694816589356,-3.7262731552124024,0.10917978631588776,2.0412416,-25.074058199999996,5.51045917,6.106615140000001,-0.6825488160000001,-1.6594843099999999,-0.451125785,0.13289472379999998,2.1018,-27.8688668,5.55211661,6.10089458
6054.5,1.64634278,1.51592443,1.7586507400000002,0.06529268099999999,-1.0432709299999998,0.03673151936,-0.9772163880000001,0.985204013,0.5828072750000001,-1.2739348699999997,0.059952614300000005,-3.9290440419999997,0.20557736599999998,0.35491984299999996,94.9138596,0.48563722521066666,-2.0740448117256163,-3.722074055671692,0.10907055621615316,1.9998808999999997,-23.3287294,5.51681105,6.155697000000002,-0.6798939990000001,-1.6237658199999998,-0.455083287,0.13074223449999997,2.00887625,-24.816838499999996,5.571891889999999,6.20066495
6064.5,1.6451590799999998,1.51067388,1.7602410199999998,0.0664790949,-0.9850524360000001,0.05496065913,-0.983482461,0.9820076949999998,0.588399078,-1.2847693599999999,0.025338659800000003,-5.477578213,0.2077102,0.5587096109999999,102.16070449999998,0.6755945071578026,-1.8248911023139953,-3.733438491821289,0.10896140725108308,1.750325304,-26.1261889,5.53604702,6.618307060000001,-0.684262305,-1.8525081399999999,-0.461083069,0.1400166728,1.7880548900000002,-28.6270574,5.560505169999999,6.6400090800000005
6074.5,1.64535001,1.51441642,1.7584687200000002,0.06498607910000001,-1.009324211,0.0318767306,-0.9811067099999999,0.9810677570000002,0.5856760010000001,-1.2749637200000001,0.06011486169999999,-3.8935666400000004,0.20675702199999998,0.35744975,86.9513581,0.3681959681212902,-2.15643709897995,-3.7271734952926634,0.10885235185884672,2.0823364800000004,-23.7564264,5.52619546,6.0799664899999994,-0.680676318,-1.62700137,-0.4644710310000001,0.1222489667,2.1029840699999998,-24.414726,5.572947440000001,6.0949071
6084.5,1.6458389,1.5108690699999998,1.7596657199999999,0.065910002,-1.00113788,0.0608168091,-0.974974924,0.9760014830000001,0.585421267,-1.26353474,0.03757435445,-5.469193456000001,0.20644374099999996,0.5296443829999999,103.53663549999999,0.5259472697973251,-1.8856914281845092,-3.7312426805496215,0.10874346929573417,1.8115479200000002,-26.193605099999996,5.5275815,6.447364589999999,-0.6817521509999999,-1.34516301,-0.46613372700000005,0.11225750999999999,1.83701531,-28.378387200000002,5.57528093,6.48995546
6094.5,1.64626783,1.51232444,1.7602602,0.0667696513,-1.06126715,0.042332227439999995,-0.9810316670000001,0.9832606920000002,0.586049593,-1.3066467899999998,0.02819972295,-4.946525236,0.20651582900000004,0.548590718,87.1507564,0.7326013147830963,-1.7817203760147096,-3.7330376863479615,0.10863465180875218,1.707645474,-25.266674200000004,5.56041556,6.583080130000001,-0.6818027149999999,-1.5678439960000001,-0.46973910499999993,0.125036266,1.7345505270000001,-28.873650299999998,5.59590141,6.63593295
6104.5,1.64533573,1.51505225,1.7587843300000003,0.0656920638,-1.010011582,0.0360801635,-0.9856647759999999,0.9777183070000002,0.586429411,-1.2533407,0.02097739683,-5.47516218,0.206213782,0.5914629060000001,87.96856729999999,1.0641921311616898,-1.872425901889801,-3.7376477479934693,0.10852595796913964,1.79828234,-24.773648199999997,5.54603231,6.54169137,-0.6831198850000001,-1.6937683799999999,-0.47443471000000004,0.12895917040000002,1.85436999,-28.3356922,5.58817144,6.58762188
6114.5,1.6452987800000003,1.5129763800000002,1.75950935,0.06567332000000001,-0.947248508,0.0542538412,-0.9831075800000001,0.9832750390000001,0.5910499619999999,-1.2749427500000001,0.0394322669,-5.45998411,0.206939076,0.4978157965,115.51977060000002,0.5125541895627975,-1.971927034854889,-3.741494131088257,0.1084173157925142,1.8977521000000004,-25.524204899999997,5.557263520000001,6.50014562,-0.6840928500000001,-1.7416544299999999,-0.47573621299999996,0.1274379168,1.92812196,-28.177703400000002,5.5969304200000005,6.514000210000001
6124.5,1.64599339,1.5137144,1.7597571700000003,0.06601471079999999,-1.0073508800000002,0.0562723435,-0.983817275,0.9798046750000001,0.577856648,-1.25136907,0.057195087619999994,-3.9452619970000002,0.20743761900000002,0.36639458100000005,96.3645716,0.3640428863465786,-1.8386113882064818,-3.737284016609192,0.10830868795090398,1.7647979,-25.208677099999996,5.57491002,6.603574259999999,-0.6814400230000001,-1.65516859,-0.47525774,0.12278844609999999,1.80178005,-26.6942939,5.60462916,6.609271580000001
6134.5,1.6461404899999998,1.5120017,1.75921485,0.0657053117,-1.019273837,0.053446936599999995,-0.9796234360000001,0.9808041359999999,0.584032223,-1.25987238,0.03480611060000001,-4.944272886,0.207129241,0.510409142,88.1768872,0.7449987091124057,-1.8208107709884644,-3.7440449714660646,0.10820030409630137,1.7468245599999999,-25.4017521,5.58325784,6.665517650000001,-0.683721994,-1.9215731000000003,-0.48528911100000005,0.13524346550000002,1.80283467,-27.5584497,5.60242541,6.67411018
6144.5,1.64542004,1.5111064100000002,1.7598329400000001,0.0662450702,-0.9796247319999999,0.0388644571,-0.982047996,0.9804356740000001,0.589237436,-1.29764172,0.04895654895,-4.423442618999999,0.20728416,0.4300508745,93.0837161,0.7312863606959581,-1.8748878598213197,-3.7470192193984984,0.10809197272306267,1.80091298,-26.157289600000002,5.59299349,6.64691651,-0.684301378,-1.68986491,-0.4960325,0.121117863,1.8123538600000004,-28.539699000000002,5.61518492,6.695988850000001
6154.5,1.6451637299999997,1.51216367,1.75985339,0.0655478212,-0.97672732,0.0398722279,-0.981049979,0.979399656,0.5798366469999999,-1.2484756000000001,0.031270356400000004,-5.97842312,0.20789524399999998,0.545437192,140.94734670000003,0.7384172424674034,-1.8779053449630738,-3.742279863357544,0.10798371937013626,1.8043164299999996,-25.9568287,5.57303005,6.65131115,-0.6814134159999999,-1.596008014,-0.501214724,0.11791571,1.8115777299999998,-29.081090900000003,5.604885960000001,6.753998390000001
6164.5,1.6461322299999999,1.51538366,1.75885478,0.06523408600000001,-1.04621744,0.050939004100000004,-0.9729496099999999,0.9818378519999997,0.574979516,-1.2342117599999998,0.05209956619999999,-5.4678127199999995,0.20718201,0.46926950300000003,131.9595752,0.5753389179706574,-1.9852224349975587,-3.7428882837295534,0.10787564475689901,1.9117592,-25.2934991,5.60668303,6.422628640000001,-0.680931037,-1.9291794100000001,-0.5072507380000001,0.13061250509999997,1.9476545100000002,-27.620939900000003,5.631420780000001,6.4258215100000005
6174.5,1.6457242,1.51199969,1.7606079899999998,0.06635121930000001,-1.0173947989999998,0.033381502339999994,-0.9781255809999999,0.9848841709999998,0.5805729380000001,-1.24473134,0.029392537200000003,-5.9783927,0.20733386200000004,0.584129628,111.354693,0.6173251003026963,-1.7330782651901244,-3.748708200454712,0.10776765907426022,1.6594882299999998,-26.8043768,5.61320199,6.84270731,-0.6827884140000001,-1.6641768099999996,-0.512323871,0.11666400839999999,1.67522498,-30.971858200000003,5.63013499,6.923333319999999
6184.5,1.64625779,1.5138665999999998,1.75967622,0.0650593446,-0.983266063,0.020766508450000002,-0.9848633009999999,0.9814109720000002,0.5830665140000001,-1.27049733,0.052712476949999997,-4.9398651430000005,0.207317529,0.419857557,132.5366522,0.47149514853954316,-1.8797399401664734,-3.745282435417175,0.10765980062261456,1.8064704099999997,-25.3567107,5.6030719499999995,6.668481369999999,-0.68049515,-1.56481527,-0.5113955649999999,0.11061178540000001,1.83861548,-27.5325919,5.638168809999999,6.6770349300000005
6194.5,1.6458784999999998,1.5104347900000001,1.7594828200000001,0.06645644399999999,-0.98972359,0.050891832049999995,-0.982790839,0.977700378,0.587718069,-1.27990728,0.044692960299999994,-4.923360692,0.206719337,0.46103426000000003,108.21503279999999,0.5018605321645737,-1.6156160593032838,-3.7534103631973266,0.1075521512906975,1.5421090700000002,-26.1342383,5.609406229999999,6.94529486,-0.683385632,-1.9120731359999996,-0.506762349,0.1297926246,1.56446194,-27.8065207,5.64257369,6.975025759999999
6204.5,1.64600414,1.5133564800000001,1.7594518800000003,0.065474019,-0.9685491709999999,0.0425630059,-0.9816798390000001,0.974036932,0.5870646089999999,-1.25382799,0.0468556652,-4.972160027,0.20691899400000002,0.45444882799999997,111.75425609999999,0.4565315552055836,-1.7937587022781372,-3.7552223205566406,0.10744451190502616,1.7203190899999998,-25.787483,5.62523488,6.822580479999999,-0.683442632,-1.6095536400000001,-0.505562745,0.116485741,1.7401918000000003,-27.606468300000007,5.65222624,6.857840339999998
6214.5,1.6470421899999999,1.51316857,1.7595259399999996,0.0648155161,-0.971166294,0.044746066200000004,-0.9778132270000001,0.9846074320000001,0.589039531,-1.26693387,0.047003422700000005,-5.44275502,0.20660587599999997,0.489791195,123.93720160000001,0.4772691637277603,-1.846441125869751,-3.765392303466797,0.10733684939771423,1.7726669300000002,-25.8825988,5.634357499999998,6.6826063399999995,-0.6872441050000001,-1.76687122,-0.5117118049999999,0.11997485459999999,1.82280316,-29.005986999999998,5.657216269999999,6.689378489999998
6221.0,1.6458974666666666,1.5113899666666668,1.7597118333333333,0.066463132,-1.0328828833333332,0.07738806799999999,-0.97629062,0.9829865066666666,0.5703196333333332,-1.2229759333333334,0.041073710666666666,-5.979041566666667,0.20708579000000002,0.4987450033333333,140.42191866666667,0.40186702211697894,-1.8236329158147175,-3.762248913447062,0.10726690042939824,1.7501108,-27.105472333333335,5.659012100000001,6.917601066666667,-0.6853427999999999,-1.5601445666666667,-0.5153893666666667,0.11691957866666668,1.7737232,-29.392214,5.687650333333333,6.938501033333334
9904.5,1.6485411200000002,1.51695703,1.7584465200000001,0.064570451,-0.8874970470000001,0.02091137838,-0.977725549,0.9837182040000002,0.5824610870000001,-1.2903815099999998,0.0053329900230000005,-5.978783850000001,0.206177215,0.679987052,92.96214979999999,0.892155259847641,2.4687750935554504,-4.310169696807861,0.0742741000085621,-2.51763934,-65.3895045,7.421565030000001,17.0161169,-0.657825495,-1.8194579400000002,-0.28257319999999997,0.22440973,-2.47415369,-68.1177823,7.452748050000001,17.0409973
9914.5,1.64906663,1.5182437100000001,1.7577535499999999,0.0631624736,-0.8509881050000001,0.0118908918,-0.9826034050000001,0.9754695510000001,0.576858815,-1.2399728600000002,0.031693573499999995,-5.44957478,0.20658648300000002,0.538456534,102.34149149999999,0.6477980062365531,2.032942759990692,-4.325583362579346,0.07420007467593795,-2.082150935,-65.40440129999999,7.43048067,16.41448475,-0.663116645,-1.4852527500000001,-0.27836773400000003,0.213268067,-2.0288086400000003,-66.406023,7.457185270000001,16.385916599999998
9924.5,1.64877048,1.51609237,1.7573507499999999,0.06375127010000001,-0.838791329,0.02264519685,-0.9732981890000001,0.9728763920000001,0.5838791059999999,-1.31038315,0.0470563847,-4.97192273,0.20765638099999997,0.43861446099999996,121.3579769,0.510513798892498,2.3997083008289337,-4.328323316574097,0.07412610179427466,-2.44889826,-62.778944100000004,7.434991650000001,16.7598728,-0.6635320730000001,-1.63437871,-0.27495348299999994,0.21775720999999998,-2.4237916999999998,-64.6244642,7.449719159999999,16.7500163
9934.5,1.6491890799999998,1.5113374800000001,1.7591082300000003,0.0642166755,-0.809341349,-0.0015056237999999996,-0.977722208,0.9768774739999999,0.5786285149999999,-1.26866679,0.0408719696,-4.953621983,0.20649232099999998,0.48734401499999996,97.76192409999999,0.5175308287143707,2.6984479069709777,-4.335842037200928,0.07405215827832283,-2.7477555899999997,-69.4514418,7.441261990000001,17.069784000000002,-0.665782605,-1.8923137100000003,-0.276834346,0.227600758,-2.72235651,-70.47878940000001,7.458340470000001,17.0697567
9944.5,1.64848717,1.51521565,1.75875719,0.06326495270000002,-0.841207062,0.02965046494,-0.975851012,0.9754981220000001,0.579795738,-1.2617614400000001,0.049845422099999995,-4.420862298,0.206502162,0.42009457240000014,94.65947229999999,0.46372607760131357,1.9254201501607895,-4.296270370483398,0.07397838225857044,-1.9735070099999998,-66.10093850000001,7.45108604,16.2919469,-0.649947449,-1.57048452,-0.27665353899999995,0.223099532,-1.925560253,-67.5103866,7.46265745,16.276476499999998
9954.5,1.64887393,1.5145792599999999,1.7593130900000002,0.06469953010000001,-0.847774638,0.006004816400000001,-0.9829891419999999,0.9821169249999999,0.5866282219999999,-1.28691009,0.04487086652,-4.940156150000001,0.207664084,0.46705638600000005,110.73257149999999,0.5465110465884209,2.4509342908859253,-4.318723535537719,0.07390482468758411,-2.49956421,-68.834555,7.449673580000001,16.800264699999996,-0.657938371,-1.6328043,-0.275669053,0.22687764500000002,-2.4906208899999998,-69.47913100000001,7.463541199999999,16.826090400000002
9964.5,1.6488667,1.51278589,1.7595457499999998,0.06421362589999999,-0.8668233689999999,0.016656080799999997,-0.980243726,0.9806786300000001,0.578680319,-1.26465829,0.03551742757,-4.427401617,0.20752021700000003,0.4822074274,70.7328621,0.8723755747079849,2.571131634712219,-4.31629695892334,0.07383139589139656,-2.61959744,-67.7910185,7.45286333,16.838838600000003,-0.656373605,-1.8221130799999998,-0.272004033,0.237522365,-2.56051618,-68.80846489999999,7.475169199999999,16.8220516
9974.5,1.6486888700000002,1.5153897299999999,1.75781375,0.063599835,-0.858922301,-0.0013777480799999995,-0.9763664460000001,0.979549868,0.5814839020000001,-1.2568137900000003,0.04108575032,-5.97888659,0.20676609699999998,0.5157435560000001,148.15966010000002,0.6548351138830185,2.177967590093613,-4.3424430847167965,0.07375800185238991,-2.227078454,-66.7511264,7.451856049999999,16.4101686,-0.6657713509999998,-1.99106663,-0.2664678939999999,0.23921114999999998,-2.179176647,-68.789474,7.48406198,16.389952100000002
9984.5,1.6495373199999999,1.51342256,1.7575825199999997,0.063820966,-0.8916918200000001,0.0161943892,-0.9799869249999998,0.983686477,0.579780219,-1.2794168099999998,0.03555105830000001,-5.978929610000001,0.20641658699999996,0.561080785,118.65780319999999,0.6911192297935486,2.875766932964325,-4.30931134223938,0.07368454221382376,-2.92384597,-65.7758293,7.456628719999999,17.1415761,-0.65243099,-1.77891618,-0.264653465,0.23722825200000003,-2.90430748,-67.94884850000001,7.490159000000001,17.144486399999998
9994.5,1.6503978499999998,1.5166712900000001,1.75771073,0.06308159900000002,-0.855119463,-0.002096750849999999,-0.9780008950000001,0.9828297739999998,0.5856700939999999,-1.2818905600000001,0.03505426373000001,-4.947328243000001,0.20682737599999998,0.5222409776,91.22839780000001,0.6507747665047645,2.7985261917114257,-4.303218984603882,0.07361139178049567,-2.84633896,-65.097592,7.455703,16.9591602,-0.6494657220000001,-1.6647423500000003,-0.269375598,0.235326009,-2.7902920399999998,-67.0880447,7.47930114,16.934519599999998
10004.5,1.6496395400000003,1.51451552,1.7591688900000002,0.06389716510000001,-0.881894315,-0.01535055375,-0.98146491,0.974226994,0.584175882,-1.25711566,0.039025522800000004,-5.47050937,0.20597603800000003,0.519635545,107.06260490000003,0.5236171051859856,2.60629526078701,-4.319404363632202,0.07353845001777004,-2.6544705482,-67.78346490000001,7.4658466699999995,16.887333500000004,-0.6550403310000001,-2.0359682,-0.27409960099999997,0.253211105,-2.623915242,-70.1119714,7.488026230000001,16.89787485
10014.5,1.6491188399999999,1.5160838599999997,1.7592599400000002,0.06381479870000001,-0.8903748969999998,0.005437883210000001,-0.980159437,0.977890245,0.582289245,-1.25081137,0.02193426816,-5.457919196000001,0.20578340799999997,0.6022818,85.7447665,0.7116958305239678,2.5622808992862702,-4.306193399429321,0.07346552751750456,-2.6099906699999993,-68.66041520000002,7.47738603,16.8380503,-0.649352004,-1.9866835599999995,-0.27179213799999996,0.26189903400000003,-2.5590883539999996,-70.9806135,7.490165810000001,16.848182949999998
10024.5,1.6481128899999997,1.51309057,1.7582545299999999,0.06381057390000001,-0.8825780900000002,0.0127856325,-0.9872915839999999,0.975741491,0.5821492140000001,-1.2641244299999999,0.05183941660000001,-4.94352849,0.207533251,0.42622673099999997,119.55121000000001,0.44633926674723623,2.137031543254852,-4.329143333435058,0.07339265952583987,-2.185292985,-69.34014590000001,7.478580580000001,16.5205434,-0.6575125589999999,-1.9504149600000003,-0.263103344,0.25257621399999997,-2.16513193,-70.1286681,7.49464845,16.496609099999997
10034.5,1.64889628,1.51571853,1.75671864,0.0639813206,-0.876506143,0.009013125000000002,-0.9843712589999999,0.985355034,0.58010199,-1.2524249,0.0457846494,-4.3996139549999995,0.20602603400000002,0.434683845,92.69665009999999,0.49432784914970396,2.581191837787628,-4.328433990478516,0.07331980429021463,-2.62933922,-64.94886220000001,7.476937339999999,16.972213699999998,-0.656610324,-1.8094999399999998,-0.249383841,0.24931502599999997,-2.5799133999999997,-65.56591039999999,7.490798279999998,16.9388204
10044.5,1.64865381,1.51652703,1.7584847500000003,0.0631564604,-0.8384537570000001,0.023902354460000004,-0.975549513,0.98147286,0.5795079959999999,-1.25172486,0.038850098939999994,-5.978910300000001,0.20654285000000003,0.5197614660000001,139.9464046,0.5189435392618179,1.9857386827468873,-4.342122983932495,0.07324695572697697,-2.0341755299999997,-66.4538116,7.4840504999999995,16.478950849999997,-0.6612175030000002,-1.59626019,-0.242262852,0.24353488999999998,-1.98018295,-66.8116608,7.494622679999999,16.4273112
10054.5,1.6491419399999998,1.5168043800000002,1.7584632399999998,0.0638398248,-0.9220206220000001,-0.01476169181,-0.9861461970000001,0.9830424040000001,0.586851478,-1.2818970999999997,0.03819744362,-4.934150576,0.20601176699999996,0.5049786084999999,80.6205952,0.547977565228939,2.7228617906570434,-4.321602296829224,0.07317402391879728,-2.77063011,-67.31184809999999,7.468720639999999,17.0268697,-0.6527378670000001,-2.0053954700000003,-0.24275433999999999,0.255319867,-2.740596524,-69.8489281,7.498883900000001,17.0292843
10064.5,1.6499627699999997,1.51490144,1.7593912800000002,0.0636596424,-0.8283101350000001,0.0026658017299999994,-0.9843117909999999,0.976095734,0.5877276969999998,-1.27632263,0.035482020510000004,-5.463277557,0.207338814,0.534947495,108.98792429999999,0.6627770230174065,2.594147503376007,-4.335396957397461,0.07310132307517807,-2.6422078,-69.01945880000001,7.481035180000001,16.988536399999997,-0.6573825550000001,-1.71153195,-0.246578325,0.24323607000000003,-2.58736179,-70.4686344,7.50459063,16.988700400000003
10074.5,1.6493099,1.51462398,1.7584183799999997,0.0644220814,-0.9200102170000001,-0.0031331050000000006,-0.9817908299999999,0.97828202,0.583066198,-1.26739389,0.0354265786,-5.45666546,0.20721282900000002,0.534477093,97.2457578,0.7592701524496078,3.0692422151565553,-4.331140041351318,0.07302873539125013,-3.11708975,-66.8108276,7.497331840000001,17.5691953,-0.6551252770000001,-2.12005866,-0.2498186,0.260151535,-3.1280974199999996,-68.85763940000001,7.514422980000001,17.5923269
10084.5,1.6493105900000002,1.5197060399999998,1.7588672500000002,0.06359199609999999,-0.903799397,-0.002912749660000001,-0.9784885039999999,0.980652216,0.584791394,-1.2716090599999998,0.035671404999999996,-5.978721210000001,0.205424695,0.539998609,135.0993111,0.6485113382339478,2.6809515595436095,-4.328564977645874,0.07295619503498324,-2.7286341600000004,-66.1989672,7.476853480000001,17.1107021,-0.653514174,-1.64391748,-0.246911404,0.250641635,-2.6512175600000005,-69.6114365,7.516133799999999,17.097366900000004
10094.5,1.64869288,1.5166012199999999,1.7578577100000001,0.0635623027,-0.8867790369999998,0.005727773030000001,-0.974580817,0.9764916579999999,0.5805219370000001,-1.2717016200000002,0.0439411738,-4.948842165,0.207035356,0.4738159415,100.8250574,0.9652878940105438,2.357998311519623,-4.334888935089111,0.07288370078780022,-2.40576404,-66.8761566,7.497424450000001,16.760896199999998,-0.6553019769999999,-2.1816751400000003,-0.24282468499999998,0.2711513,-2.35993839,-68.02542500000001,7.52482236,16.733847599999997
10104.5,1.64907347,1.51480619,1.75929285,0.0641932145,-0.884656586,0.013707591540000003,-0.975063209,0.979367177,0.579332467,-1.2447017800000002,0.0335669601,-5.4580206360000005,0.20594855599999998,0.529254028,106.90224459999999,0.942982429265976,2.98203384578228,-4.335029649734497,0.07281126657271286,-3.029710098,-68.7936058,7.50032233,17.404405900000004,-0.6547273880000001,-2.10282673,-0.24653576700000004,0.25933806,-2.9932570549999995,-71.3983937,7.520399819999999,17.433974300000003
10114.5,1.6485104400000001,1.5156854599999998,1.7576422200000004,0.064466592,-0.861515432,-0.0069462766300000004,-0.981791232,0.97261202,0.5831734259999999,-1.27258873,0.0445091092,-5.456421497,0.20604540799999999,0.46525872600000007,138.6936187,0.6294576436281204,2.972592705488205,-4.327181482315064,0.07273899385811299,-3.0199581200000005,-66.933201,7.514773450000002,17.3422075,-0.651105045,-2.00275021,-0.25290298299999997,0.26224052200000003,-2.9604285700000004,-68.5062663,7.5138424299999995,17.2491954
10124.5,1.64916692,1.51186912,1.7590679699999998,0.0645125699,-0.811082914,-0.007941076889999999,-0.9805975010000001,0.976447053,0.575757239,-1.2421532499999999,0.029375673299999995,-4.948418212999999,0.20654112000000002,0.5320671675,81.5499646,0.7478430956602097,3.1926288962364198,-4.349948883056641,0.07266678524915834,-3.24053288,-71.991509,7.481009019999999,17.8902033,-0.659164061,-2.0053797199999996,-0.258616852,0.261850019,-3.16443109,-71.5652881,7.52278496,17.857217099999996
10134.5,1.64798219,1.51657786,1.75715096,0.0630762659,-0.8266161439999999,0.00023242003000000026,-0.9822852919999999,0.977189787,0.5863059190000001,-1.27464872,0.052604855400000004,-4.407971014999999,0.206941519,0.4046676659999999,106.56639910000001,0.6367662832140922,1.8963172435760498,-4.333349418640137,0.07259454727388856,-1.943668436,-66.82562920000001,7.512198549999999,16.454629599999997,-0.652205737,-1.78714497,-0.26146397600000004,0.24712890499999998,-1.936971233,-67.97817909999999,7.5269463299999995,16.4733625
10144.5,1.64920876,1.51479928,1.7584841599999996,0.064420421,-0.883153682,-0.0021733959600000016,-0.978921637,0.9768937470000001,0.583508075,-1.2858645599999998,0.03385919854,-5.477018344,0.207145535,0.5328505549999999,113.66455090000002,0.8228213652968407,2.9323634266853333,-4.318743276596069,0.07252251553993258,-2.9792187570000004,-69.6029492,7.52259787,17.2893253,-0.6460136060000001,-2.1735030899999996,-0.262822507,0.26250326900000004,-2.8766615799999995,-72.411749,7.5344868599999995,17.2211442
10154.5,1.64976365,1.5139776,1.7588668000000003,0.0647523079,-0.8480008270000001,0.0030916646000000007,-0.9787498969999999,0.9792296779999999,0.585652704,-1.27646605,0.026032415929999997,-5.97909671,0.20799142600000003,0.56224577,117.80662450000003,1.104295974969864,3.45685396194458,-4.311158084869385,0.0724507296169837,-3.5034084500000007,-69.6217247,7.511305930000001,18.2204129,-0.642502999,-2.11073692,-0.26240682499999995,0.26771393899999996,-3.44683682,-70.83819680000002,7.5358138100000005,18.187861700000003
10164.5,1.64927132,1.5150935899999998,1.7589869,0.06475579899999999,-0.9306912529999998,-0.00591846496,-0.9830547289999998,0.9742575800000001,0.5731798350000001,-1.2139281100000001,0.0383819325,-5.477808683,0.20730848000000002,0.49744053359999996,125.45753570000002,0.869577893614769,3.191645562648773,-4.311754035949707,0.07237915421678062,-3.23812576,-68.53929639999998,7.5254610899999985,17.763437599999996,-0.6421116139999998,-2.2283096000000002,-0.25767146199999996,0.27437381600000005,-3.23338363,-70.97550880000001,7.54649382,17.7652374
10174.5,1.64881902,1.51724615,1.75793322,0.0639650168,-0.858335254,-0.0020237651000000003,-0.9822952729999999,0.979243222,0.5830400549999999,-1.26378438,0.04487539702,-4.93865578,0.20751443299999997,0.47208436549999994,102.01863619999999,1.3974100172519683,2.8089246213436128,-4.3264507293701175,0.07230772316708622,-2.855718726,-67.66898330000001,7.506365790000001,17.4137379,-0.6470884659999999,-1.85100517,-0.248528373,0.25959772600000003,-2.8091075300000004,-70.0195305,7.55045301,17.4391845
10184.5,1.6491544999999999,1.5161566,1.75820544,0.0637645273,-0.91615374,-0.00012677573999999998,-0.97913632,0.979941162,0.59395649,-1.29034796,0.038302911929999996,-5.97868097,0.20528230600000003,0.517895128,142.54834999999997,1.367408701777458,2.963156008720398,-4.323580884933472,0.0722362587650604,-3.0097803700000005,-69.26542749999999,7.51488251,17.4612504,-0.6453776410000001,-1.65448582,-0.23638076599999996,0.256872598,-2.9104694899999997,-71.51809030000001,7.54394144,17.4323149
10194.5,1.6493299499999998,1.51463388,1.7580246899999998,0.06402292209999999,-0.853521456,-0.00047983622000000067,-0.9786697279999998,0.9719042740000001,0.582283538,-1.2484446799999998,0.0513904852,-4.461977419999999,0.20568259099999997,0.3872559124,123.5319808,0.6809694841504097,2.755437195301056,-4.326825141906738,0.07216482865659021,-2.80205974,-69.537074,7.52917173,17.3425724,-0.64599204,-1.81725697,-0.231681191,0.26567890800000005,-2.79938184,-71.31062329999999,7.54227554,17.3434318
10204.5,1.6489807500000002,1.5152130400000001,1.7586050500000003,0.06302593279999999,-0.8459521950000001,0.009122600049999999,-0.9849239509999999,0.9772251090000001,0.5841169410000001,-1.27410082,0.036942233956,-5.4624972960000004,0.207230187,0.519100597,110.8183156,0.6192442879080773,2.4838172435760497,-4.330815124511719,0.07209349809919166,-2.530458213,-69.02599439999999,7.5132756700000005,17.122080699999998,-0.6468897809999998,-1.9996448100000002,-0.22537126599999996,0.27301910500000004,-2.4814501730000003,-70.4839044,7.555648189999999,17.132046
10214.5,1.64992529,1.5145786899999998,1.75801564,0.06453765189999999,-0.854969329,0.02252124296,-0.9785714320000001,0.977941024,0.573636091,-1.2494995100000001,0.015671518099999997,-5.9789369699999995,0.20710399100000002,0.652036923,84.35349880000001,0.7907916486263276,3.6790689706802366,-4.352302026748657,0.07202210008183649,-3.7262077500000004,-69.64176599999999,7.554493250000002,18.3402472,-0.654438602,-2.077213,-0.22115422199999996,0.28178260499999996,-3.68942804,-73.01112,7.54612803,18.3289967
10224.5,1.6480835099999998,1.5166294599999997,1.7582111699999998,0.06348560939999999,-0.799299564,-0.004324474300000001,-0.9826995490000001,0.980692981,0.5799729109999998,-1.26956022,0.030004186999999998,-4.905017683,0.205497278,0.516697356,83.66732520000001,0.7059208780527115,2.116319265961647,-4.313670825958252,0.07195071122081156,-2.1623101100000004,-69.0143765,7.53417707,17.0287826,-0.639135302,-2.2085390699999996,-0.21779213999999997,0.28162352599999996,-2.1169285029999996,-70.58634190000001,7.565711619999999,17.028229149999998
10234.5,1.64894163,1.51608461,1.75751156,0.063784334,-0.879001987,0.0028166686,-0.978024588,0.9746525,0.581690568,-1.2653749800000003,0.04125479034,-3.8644284760000005,0.20555363399999999,0.4483093696,55.19273880000001,0.5182645790278911,2.8406529903411863,-4.334269428253174,0.07187957697171686,-2.88711666,-68.2222088,7.529815470000001,17.3478644,-0.6463439990000001,-1.7317167000000002,-0.21917731700000004,0.271878924,-2.82616857,-69.09960329999998,7.56151395,17.3082624
10244.5,1.64918987,1.5180990000000003,1.7582827799999996,0.06346645449999999,-0.9050129410000001,0.007223479897999999,-0.9839426490000001,0.9808625619999999,0.5923920810000001,-1.30252206,0.04266571484,-4.942554250000001,0.206290567,0.468559488,112.50017319999999,0.61226462200284,2.9721246480941774,-4.325075578689575,0.07180860417855373,-3.0182469000000003,-69.054835,7.543424690000002,17.5182986,-0.642233525,-1.9605208399999998,-0.22422260300000002,0.275815415,-2.95975595,-70.32296749999999,7.572323610000001,17.478908500000003
10254.5,1.6494289899999999,1.51225983,1.75971634,0.0641354076,-0.8004129629999998,0.0013387221810000002,-0.980682498,0.9825354110000001,0.591217779,-1.3102934000000002,0.0525157277,-4.4189131580000005,0.20729509799999998,0.405438761,104.2087721,0.9675034418702125,3.07625926733017,-4.348742866516114,0.07173760501573502,-3.1229366499999998,-72.64198560000001,7.5309732,17.7889815,-0.6506018580000001,-1.9845257099999998,-0.23086414400000002,0.275687006,-3.07167136,-73.5154445,7.567717480000001,17.757019699999997
10264.5,1.64913311,1.5120535400000001,1.75905658,0.0646046711,-0.835690621,0.01166117275,-0.9879224969999999,0.980949979,0.5888726500000001,-1.2714029999999998,0.0213163339,-5.464944734000001,0.20728489299999997,0.584518667,85.66023129999999,1.0304669559001922,3.450667655467987,-4.343362283706665,0.0716665174908858,-3.4971076700000006,-73.0185246,7.53975873,18.4649912,-0.6479389630000001,-1.9398803900000001,-0.23649273099999996,0.277484997,-3.45135591,-75.4825834,7.57257587,18.5093811
10274.5,1.65014368,1.51332162,1.7596827599999998,0.064608906,-0.8805028680000001,-0.013529915399999998,-0.9831272879999998,0.9803150119999999,0.581230332,-1.25553402,0.038376945,-4.97498054,0.208066014,0.502790318,92.00855230000002,0.5853915169835091,3.562418484687805,-4.338719224929809,0.07159549824475042,-3.60864249,-73.5666874,7.568022999999999,18.1897052,-0.6455595850000001,-1.7904642300000002,-0.24067552,0.262601247,-3.5478454,-75.47332880000002,7.60270496,18.1390449
10284.5,1.6488876899999998,1.51528745,1.7582936099999997,0.0643651399,-0.8589271860000002,0.0041637586400000036,-0.9841475230000001,0.9752056510000001,0.573448899,-1.22264389,0.05279720450000001,-4.42176508,0.20714997400000001,0.399200681,105.45538060000001,0.5294751964509488,3.1426244020462035,-4.333005619049072,0.07152463404670109,-3.18860322,-69.1686268,7.551715060000001,17.871008699999997,-0.642774548,-2.0080906300000003,-0.239148651,0.27921260000000003,-3.15720625,-70.10703749999999,7.5733814299999995,17.863414600000002
10294.5,1.6488952000000001,1.51360344,1.7582942,0.0632703944,-0.8493234390000002,0.005921213089999999,-0.978371579,0.9783254840000002,0.590811594,-1.30052549,0.056836570200000006,-4.387913660000001,0.20576093700000003,0.40655236939999995,98.9628787,0.5981700003147126,2.5183653473854064,-4.3439435958862305,0.07145389297160747,-2.5645509600000005,-69.9010011,7.562599179999999,17.0967274,-0.6463042030000001,-2.33741122,-0.23404591199999997,0.283999917,-2.5169683800000002,-72.03261490000001,7.585977890000001,17.081245600000003
10304.5,1.6489119899999998,1.5140159,1.7580228300000003,0.0642994137,-0.853536377,-0.010858525479999999,-0.9787596569999998,0.9756283940000001,0.5721512189999999,-1.22828796,0.044278996800000005,-4.9357709299999994,0.207003528,0.461201857,109.03809650000001,0.6732754170894623,3.0511664390563964,-4.344501399993897,0.07138324461257692,-3.09727709,-69.8575747,7.574729570000001,17.891438599999997,-0.6458971750000001,-2.06927959,-0.23426222800000004,0.274689777,-3.04465867,-70.92880029999999,7.58413427,17.8611072
10314.5,1.64885743,1.51418121,1.7591333499999997,0.0648505544,-0.85505513,0.00833960464,-0.9839631709999999,0.976984313,0.5873718179999999,-1.28627303,0.022322056025999994,-5.97890527,0.20766330100000002,0.593869273,119.08278470000002,0.7320604518055915,3.323602890968323,-4.3674718856811525,0.07131246620392133,-3.3702446000000004,-72.61002490000001,7.57515282,18.408993400000004,-0.6539802490000001,-2.2825665,-0.23855633800000003,0.291467256,-3.3571936799999995,-74.53077359999999,7.5791049600000004,18.4414782
10324.5,1.6490486700000002,1.5164808300000001,1.75860281,0.0637970224,-0.8681898929999999,-0.0056331705199999995,-0.976941032,0.9817292029999999,0.5797583750000002,-1.2751230299999998,0.034864985259999995,-4.965072043000001,0.20516369,0.509534367,91.8325437,0.7248047068715096,3.1391207218170165,-4.345144462585449,0.07124173011821205,-3.1850693249999997,-72.14020059999999,7.554478860000001,18.099722699999997,-0.6449050490000001,-1.8660480400000001,-0.24146159899999992,0.27671740699999997,-3.124489612,-74.2314245,7.583767479999999,18.065072999999998
10334.5,1.6485723900000004,1.51321201,1.7592619200000001,0.0646046525,-0.811493368,0.005812105218,-0.983864971,0.9807534919999998,0.588533523,-1.2925304800000001,0.04041854937,-5.46612717,0.20658672100000003,0.48302802199999995,137.29434369999998,0.5163158342242241,3.0785578012466432,-4.332690572738647,0.07117117564588242,-3.12408165,-72.5649771,7.568826249999999,18.2552663,-0.6395759520000001,-2.59551447,-0.24269835899999997,0.302986242,-3.08667771,-72.9701467,7.5857247999999995,18.243594899999998
10344.5,1.64968012,1.5118766200000002,1.7590616200000002,0.06283843289999999,-0.775992795,-0.0140454521,-0.9829468610000001,0.9778080829999999,0.589067066,-1.3039252399999999,0.05377227659999999,-4.418658444,0.20689304899999997,0.406057773,105.26676700000003,0.43738012984395025,2.6567790627479555,-4.327171182632446,0.07110084101952639,-2.7020660600000004,-72.82996160000002,7.57950975,17.29986325,-0.6368754149999999,-1.9449801,-0.23678529099999998,0.280495438,-2.6361122200000002,-74.7197874,7.59338723,17.2748686
10354.5,1.64926793,1.51320344,1.7572570900000002,0.063688248,-0.8035692050000002,0.0068268480400000015,-0.98115091,0.9847301600000001,0.5780662910000001,-1.2415458899999998,0.023013112999999995,-5.461500366,0.206474599,0.592042137,92.5450945,0.8216291040182113,3.2204203367233277,-4.348715448379517,0.07103068899774231,-3.2661978300000003,-72.3011527,7.597255,18.085852499999998,-0.644410043,-2.4052745200000003,-0.230169331,0.30540556399999996,-3.2468270000000006,-73.6979645,7.60122468,18.086458299999997
10364.5,1.6492268200000002,1.51372998,1.7604932000000002,0.063346649,-0.763749866,0.005802290594,-0.9793338800000001,0.9733137089999999,0.5816259159999999,-1.2931990500000001,0.04781559049999999,-5.4729623599999995,0.20598043100000002,0.44656541899999985,153.24109500000003,0.49936688840389254,2.7567312002182005,-4.329453468322754,0.07096062470550406,-2.8019029499999997,-74.293993,7.577490770000002,17.653882,-0.6365147369999999,-1.83804899,-0.23446469200000003,0.278656461,-2.7638920999999996,-76.0856084,7.61493952,17.6497661
10374.5,1.64895059,1.5117684900000001,1.75784348,0.06377806779999999,-0.80367017,-0.0071278307,-0.981933394,0.977006776,0.584790776,-1.2566440599999997,0.04936482222000001,-5.469391465999999,0.20666728299999998,0.4513884125999999,146.71163440000004,0.48873639702796934,2.9418874979019165,-4.366574764251709,0.07089053980535795,-2.98796614,-74.506923,7.599823239999999,17.8819253,-0.649931421,-2.22700021,-0.23364898099999998,0.28826125,-2.94884024,-75.6029107,7.602881629999999,17.8377675
10384.5,1.64859444,1.5125715200000003,1.75705095,0.06324813199999998,-0.755952063,-0.011032938799999998,-0.9827477810000002,0.9779049519999999,0.5847235430000001,-1.2803435300000001,0.044741630606999996,-4.3763795199999995,0.205810856,0.42801415049999997,89.51971289999999,0.5148951143026352,2.7687497615814207,-4.3399498462677,0.0708203711999174,-2.814026782,-72.9721881,7.5927890300000005,17.6786023,-0.639257708,-2.01924717,-0.22944257399999998,0.287450936,-2.7612508109999996,-72.0405845,7.60599682,17.6250598
10394.5,1.6496120399999998,1.5152343400000001,1.75734295,0.0621615056,-0.771505509,-0.0056062687,-0.9849370150000001,0.9781055590000001,0.584691409,-1.2539319,0.0342442293,-5.9788739699999995,0.205750643,0.5503260520000001,136.1853871,0.6573528498411179,2.6216135680675507,-4.368203496932983,0.07075026806311455,-2.6675573549999996,-72.7039693,7.57729454,17.572887,-0.6493128880000001,-2.55344972,-0.226802518,0.307316872,-2.5972964249999997,-73.35791730000001,7.606794120000001,17.5147643
10404.5,1.65004046,1.5177864200000002,1.7568408199999996,0.06374282579999999,-0.8570992729999999,0.018379489229999997,-0.9804354580000002,0.9750458930000001,0.580590155,-1.25488427,0.04751390557,-4.9305072899999995,0.206389704,0.446370135,119.3687946,0.7337549865245819,3.4379472017288206,-4.350682067871094,0.07068018760445514,-3.4833342099999998,-69.311815,7.58701315,18.2276869,-0.6420825860000001,-2.2531944899999994,-0.22534542200000005,0.29779591,-3.4624771,-71.18262949999999,7.613042640000001,18.2323649
10414.5,1.64994096,1.51605905,1.75882853,0.0636066158,-0.828369526,0.000983574785,-0.9793385529999998,0.9802005639999999,0.577181562,-1.27063118,0.026013139300000005,-5.456011896,0.206564762,0.548268214,104.97332750000001,0.8136827558279037,3.4226836442947386,-4.360550355911255,0.07061024259329686,-3.4682453499999992,-72.410336,7.60852932,18.4866701,-0.645191906,-2.41205553,-0.225043369,0.30344964,-3.4508875599999995,-74.9208202,7.62132032,18.5352363
10424.5,1.6497870300000002,1.5156720400000003,1.75781708,0.0630346322,-0.8304591849999999,0.0053763750700000015,-0.983916696,0.9836620309999999,0.58507745,-1.2839545600000002,0.027708891569999998,-5.478627060000001,0.205380888,0.543456599,111.2867173,0.9353216856718063,3.2148715019226075,-4.3281822681427,0.07054038770776407,-3.25948389,-72.5476898,7.5961708,18.123009,-0.6323712619999999,-2.18207765,-0.22157053899999996,0.30105222400000003,-3.18506565,-72.57128829999999,7.6302091600000015,18.067537500000004
10434.5,1.6492873799999999,1.51428596,1.7576205299999998,0.06402723960000001,-0.866907106,0.0019147933500000003,-0.9862166609999999,0.9806593840000002,0.5780721360000001,-1.25207548,0.0180206506,-5.463703040000001,0.20676699199999998,0.6118291494,83.34546999999999,1.0563677936792373,3.518536400794983,-4.369572305679322,0.07047075013733442,-3.5641613,-71.6028041,7.5812011199999985,18.4966702,-0.6473668619999999,-2.1262692000000003,-0.21932953599999996,0.295883576,-3.49614117,-74.20200899999999,7.62426106,18.500609100000002
10444.5,1.6497028400000002,1.51793939,1.75744118,0.0647584793,-0.9517680869999999,-0.0012576021699999998,-0.9760688839999998,0.981675633,0.5765790839999999,-1.2580923499999999,0.03088229407,-5.97887117,0.205464686,0.558058479,125.24677590000002,0.8059164077043534,3.846901559829712,-4.366610288619995,0.07040103841403225,-3.8923594099999996,-71.13960159999999,7.604960519999999,18.6548464,-0.6456358990000001,-2.17125535,-0.21447685900000005,0.29054599000000003,-3.8960057400000006,-72.3401889,7.62411259,18.702264300000003
10454.5,1.6495495500000001,1.5132406,1.7580874100000004,0.0637304258,-0.8175117810000001,-0.0152552967,-0.984142991,0.980938205,0.581908235,-1.27278198,0.03731732386,-5.97874764,0.207784799,0.528508527,143.0674934,0.8558208674192429,3.4601914405822756,-4.357780075073242,0.07033131024631313,-3.50532719,-73.8068845,7.613520750000001,18.6295596,-0.6416954629999999,-2.1164169700000004,-0.207709002,0.29967866699999995,-3.41450211,-75.37291440000001,7.6223794400000005,18.557617
10464.5,1.6495905299999998,1.51358216,1.7579619699999998,0.06357962280000001,-0.8289929,-0.03095686612,-0.986726676,0.978269346,0.58567793,-1.2739131099999998,0.04073783746,-4.944023750000001,0.20741611999999998,0.4701412994,113.85707579999999,0.7276153862476349,3.323385179042816,-4.3528553485870365,0.07026165471493637,-3.3683032099999997,-72.41384590000001,7.618971210000001,18.2113923,-0.6392298000000001,-1.9824343399999997,-0.203477824,0.290990613,-3.3259337700000002,-74.28020299999999,7.624475050000001,18.155718600000004
10474.5,1.65005787,1.5145591699999998,1.75736396,0.06385856159999999,-0.8659301430000002,-0.0160736355,-0.981665152,0.9770771719999999,0.5843845579999999,-1.2773093,0.054827385400000005,-3.8540139180000006,0.205892766,0.38800646,82.33419807,0.4874808952212334,3.558626079559326,-4.341911363601684,0.07019224784049184,-3.60316743,-71.6405979,7.60444925,18.242259999999998,-0.6344984619999999,-1.8257037299999996,-0.207418278,0.28238130100000003,-3.57684524,-72.29189819999999,7.6305128,18.240230399999998
10484.5,1.6494887400000002,1.5138246000000002,1.7569946600000002,0.06404306530000001,-0.860608217,-0.007199801819999999,-0.982083337,0.9728944329999999,0.5741180189999999,-1.23620478,0.03927032324,-4.948358137,0.206401773,0.477753665,108.9799092,0.6948831118643284,3.739747714996338,-4.356131649017334,0.0701230679025955,-3.7845777099999998,-74.84315370000002,7.61309747,18.7877856,-0.639242285,-2.5753601,-0.210449922,0.314332574,-3.7354959,-76.3796265,7.633085660000001,18.774861800000004
10494.5,1.64948182,1.51663121,1.75851711,0.06392037999999998,-0.8248093989999999,-0.0008719052500000002,-0.985639115,0.9834431270000001,0.5843226830000001,-1.2763434,0.0463438419,-4.96233235,0.206244049,0.45689699260000005,106.5241938,0.5047506555914879,3.4674717664718626,-4.354336595535278,0.0700538683651232,-3.51216768,-72.6525278,7.612534799999999,18.6288758,-0.6379588119999999,-2.41730107,-0.20992856,0.311782292,-3.46475146,-74.11236349999999,7.6511949,18.6112444
10504.5,1.6493974800000004,1.51434267,1.7583464,0.0634835512,-0.798848079,0.012422143025999999,-0.977400089,0.978825234,0.5883609329999999,-1.3146453399999998,0.03885313,-4.95939944,0.20714476799999998,0.489778167,98.2147281,0.6624558620154858,3.263324427604675,-4.359591293334961,0.069984677388335,-3.3080718999999994,-74.8843565,7.621583770000001,18.5891746,-0.6393264559999999,-1.8007730999999996,-0.21100660499999999,0.278213389,-3.26278277,-75.87933590000002,7.64211716,18.542332
10514.5,1.6493805599999998,1.5159836899999999,1.75882777,0.0639849592,-0.8854770999999999,-0.0022479026199999997,-0.9820656019999999,0.9814784900000001,0.5792899399999999,-1.24987166,0.04634097154,-5.97865963,0.207498947,0.48024964899999995,162.21604510000003,0.6322314500808716,3.2614179611206056,-4.383358430862427,0.06991547501844436,-3.3067035000000002,-74.22598819999999,7.61365067,18.4349378,-0.6476507389999999,-1.89037268,-0.211535632,0.288224897,-3.2865387899999994,-75.28727949999998,7.63918745,18.4530545
10524.5,1.6496107600000003,1.5138580400000001,1.7578884000000001,0.06390892270000001,-0.8768425790000001,-0.001151347769999999,-0.980822818,0.9746152370000001,0.5919550970000002,-1.30554641,0.034856063799999996,-5.97888368,0.20708548399999996,0.557550629,136.3303484,0.8350104659795761,3.875265121459961,-4.341731834411621,0.06984628294980323,-3.91937038,-73.6996456,7.61122692,18.8465779,-0.6313962439999999,-1.7306638900000002,-0.207697391,0.280293505,-3.85193436,-76.10881780000001,7.6413268699999986,18.8134303
10534.5,1.64957384,1.5129954400000003,1.75852404,0.06383081880000001,-0.797180273,-0.0013916592500000005,-0.9793439750000001,0.9753783420000002,0.579801183,-1.27355111,0.025377307669999998,-4.924797020000001,0.20795451800000003,0.538807214,85.81610029999999,0.9711878567934036,3.608833509683609,-4.350273370742798,0.06977737939622801,-3.6530767949999996,-74.565024,7.62679495,18.945480200000002,-0.6339996400000001,-2.25891454,-0.203886568,0.295163763,-3.5958533200000007,-75.8294415,7.655238259999999,18.9188665
10544.5,1.6496610100000002,1.5158651900000002,1.75813402,0.06413193269999998,-0.8766537700000001,0.006571523630000001,-0.9788350099999998,0.9776059690000001,0.5865618749999999,-1.28820686,0.021127139070000002,-4.943832760000001,0.20552855600000003,0.5668269505,76.94063440000001,1.2962397798895835,3.561152446269989,-4.3606846809387205,0.06970865559476101,-3.6055819999999996,-73.00959479999997,7.63185891,18.677707500000004,-0.6373026820000001,-2.19090081,-0.21208843100000002,0.296723527,-3.5898162799999995,-76.016902,7.644916159999999,18.748336300000002
10554.5,1.6486267299999997,1.5103083,1.75900248,0.0638341855,-0.7246394599999999,-0.013479426529999996,-0.9773977299999999,0.981133109,0.5665830000000001,-1.1939002,0.022583431400000003,-5.459692125999999,0.205641657,0.5818482995,89.5538662,1.326743169128895,3.100301146507263,-4.352689409255982,0.06963991874554529,-3.144436075,-77.1880044,7.633583949999999,18.433495,-0.633696383,-2.16029897,-0.221598016,0.294545712,-3.1001202900000004,-77.9406369,7.659154719999999,18.445429100000002
10564.5,1.6494847699999997,1.5136412700000001,1.7585297400000002,0.06425819510000001,-0.8152063999999999,0.00011115224000000004,-0.9789190050000001,0.9763690330000001,0.58558056,-1.27831698,0.0269136543,-4.9056102159999995,0.20741779700000001,0.534852203,83.95337220000002,0.7936105594038964,3.9205377221107485,-4.384762620925903,0.06957109676470939,-3.96542443,-74.74989459999999,7.611710040000001,19.262284900000004,-0.6451253859999999,-2.01189976,-0.229807329,0.28836906800000006,-3.8769311900000005,-75.57249320000001,7.65716776,19.231858699999997
