JvanZyl1/RocketTrajectoryOptimisation/data/agent_saves/PyTorchSAC/LandingBurnPureThrottle/2_A_2_old/agent_saves/sac_pytorch_learning_stats_reduced.csv
step,state_mean,state_min,state_max,state_std,state_kurtosis,action_mean,action_min,action_max,action_std,action_kurtosis,reward_mean,reward_min,reward_max,reward_std,reward_kurtosis,critic_loss,actor_loss,alpha_loss,alpha_value,q_value_mean,q_value_min,q_value_max,q_value_std,log_prob_mean,log_prob_min,log_prob_max,log_prob_std,target_q_mean,target_q_min,target_q_max,target_q_std
4954.5,1.6518513899999998,1.52263351,1.7546026600000002,0.0631696231,-0.9881106899999998,0.033279610929999995,-0.9872021719999999,0.99481267,0.612851154,-1.30437613,0.0552302677,-3.258818695,0.205425354,0.32607112,83.2661029,0.22725702449679375,-2.1320982694625856,-5.061273908615112,0.04547073165547315,2.1030899999999995,-0.7420294669999999,2.7592857800000004,0.914046439,-0.637751156,-1.6184049999999999,1.0950964589999999,0.34707188400000005,2.10762633,-3.57232704,2.7928743900000006,1.0042650839999998
4964.5,1.65049442,1.52241284,1.75447251,0.0634470425,-1.021113385,-0.009659912990000002,-0.9918075839999998,0.9933575310000002,0.6039912839999999,-1.28356586,0.050467322999999994,-3.84797559,0.205173044,0.389583006,101.12295650000002,0.30196844339370726,-2.1344186782836916,-5.121406698226929,0.04533438589502655,2.1046885000000004,-0.7201757630000001,2.7382648,0.899020237,-0.655598497,-1.7044309300000002,0.328310192,0.253813062,2.1288377599999997,-4.2555515900000005,2.79765307,1.0213445479999999
4974.5,1.65029243,1.52285834,1.75391312,0.06320182599999999,-1.0162431729999999,0.007046023900000001,-0.9883407519999998,0.989386404,0.5988677040000001,-1.2715481599999998,0.0655548436,-3.57131744,0.205074434,0.2919438034,132.145461,0.17697629779577256,-2.176529812812805,-5.104908084869384,0.045197916306607314,2.1472029400000006,-0.6061199970000001,2.74971918,0.8718881530000001,-0.648657726,-1.9348352499999997,0.364047259,0.2707616709999999,2.15662876,-3.8265977300000005,2.8080470699999998,0.948397939
4984.5,1.6504726399999998,1.52519772,1.7543758299999996,0.0635596212,-1.0186220240000003,0.0034263733300000008,-0.98523596,0.9942016400000002,0.610169871,-1.3095820500000002,0.0526706099,-3.84151483,0.205461874,0.356935214,113.28928030000002,0.2493651032447815,-2.159380555152893,-5.085364818572998,0.04506195231547329,2.13049859,-0.74556011,2.7567612299999995,0.90294436,-0.640748219,-1.72073629,0.8586803199999998,0.32985870399999995,2.14444091,-4.24501891,2.80444156,1.001772445
4994.5,1.65016983,1.52297097,1.7538940600000004,0.06257179010000001,-0.9380776909999999,-0.007102700180000002,-0.99031024,0.9929641539999998,0.612079212,-1.3150931500000003,0.0664525432,-2.657892759,0.20498531299999997,0.26001977200000004,79.1548277,0.17205996736884116,-2.1975566387176513,-5.130356884002685,0.04492643606543541,2.16818094,-0.643570459,2.75950236,0.8611818529999999,-0.653660358,-1.9252530700000001,0.43161120099999994,0.29978847899999994,2.1736955599999996,-2.96823427,2.82170773,0.9406523050000001
5004.5,1.6504327500000002,1.52432261,1.7547161799999997,0.0639024695,-1.0231726810000001,0.001713302580000001,-0.985723356,0.9908411760000002,0.603108257,-1.28147206,0.052798493700000004,-3.8367257499999994,0.20475066599999997,0.341148571,120.39359000000002,0.2313989520072937,-2.152530837059021,-5.069842004776001,0.044791152228037305,2.1241879800000003,-0.747958855,2.78157173,0.9224481049999997,-0.632570937,-1.57224814,1.103500504,0.39036350000000003,2.1319905599999998,-4.21171963,2.82486975,1.012705511
5014.5,1.6516844899999998,1.5224809899999998,1.75483868,0.06271653260000001,-1.0203602889999999,0.007375967999999998,-0.9887681389999999,0.9942368190000002,0.610549349,-1.3014845400000001,0.06135069099999999,-2.661750576,0.205085936,0.3022540174,58.543842,0.2152843814343214,-2.1444398045539854,-5.067855453491211,0.04465735586238743,2.11628241,-0.789141648,2.7629767600000004,0.8884712459999999,-0.6303494430000001,-1.6779215100000002,1.142348029,0.36410065,2.1434997000000005,-3.11285067,2.82827651,0.9813000019999999
5024.5,1.6503316000000001,1.52104153,1.7552753399999996,0.064140352,-1.0153484019999999,0.03787538008000001,-0.9915164080000001,0.99448052,0.6148249299999999,-1.3186464800000002,0.048510699707000005,-3.55410987,0.20490571100000002,0.36168608199999996,93.0094949,0.2701101332902908,-2.136131525039673,-5.116468048095703,0.044523993364224405,2.10743135,-0.921432759,2.76196335,0.932383995,-0.6444103400000001,-2.0459767999999996,0.0905303378,0.274878513,2.1241053699999997,-4.06468076,2.81322827,1.0460206890000001
5034.5,1.65089492,1.52086681,1.7543583400000002,0.06348490640000001,-1.001150296,-0.00910935522,-0.9836738199999999,0.9909954639999998,0.6069108429999999,-1.3178213099999998,0.060839838599999994,-3.20978737,0.20612977799999999,0.30317721599999997,93.8334063,0.19423342049121856,-2.1586572885513307,-5.120844173431396,0.04439046775654502,2.13005069,-0.682564597,2.7894625599999996,0.9141342160000001,-0.644232912,-1.6532141599999999,0.7224620089999999,0.3291081800000001,2.13362908,-3.668555589999999,2.83700222,1.0081783
5044.5,1.6503176,1.52174678,1.7549421099999996,0.06395325210000001,-0.9740344400000002,-0.005945055600000001,-0.9865404440000001,0.991413484,0.6012231939999999,-1.3001747199999998,0.04302077210000001,-3.8581269,0.20549360600000002,0.40137497600000005,95.8912675,0.3260807365179062,-2.1544575691223145,-5.0895403861999515,0.04425758869276652,2.1264523,-0.863044855,2.78905741,0.9467612219999999,-0.632603241,-1.55081958,1.2454184339999999,0.397844832,2.13220147,-4.36213491,2.8387107,1.075156842
5054.5,1.6510825,1.52148132,1.75525448,0.0636800061,-0.9352437740000001,0.007139358399999999,-0.988129214,0.9932265640000001,0.6070683750000001,-1.2884682499999998,0.042237470400000005,-3.84686533,0.205540681,0.396123126,97.0410027,0.3174280673265457,-2.137064576148987,-5.135663604736328,0.044124937914529906,2.10855857,-0.9182641270000002,2.78013269,0.962398186,-0.6458230319999999,-1.88113206,0.1720911537,0.29143072000000003,2.124935,-4.37367873,2.8401749599999997,1.0910283299999999
5064.5,1.6503494499999998,1.52162887,1.7549924799999999,0.0638317017,-0.9778786050000001,0.02105118177,-0.984208371,0.993878072,0.606050128,-1.28951391,0.06068417429999999,-3.247124032,0.205611833,0.29442220399999997,103.29828,0.1851938396692276,-2.159662103652954,-5.116619396209717,0.043992609396166185,2.13158036,-0.8410260970000001,2.78209491,0.9248144649999999,-0.6381383429999999,-2.48133255,0.3173861864,0.349536961,2.15648331,-3.6994044099999996,2.8377164899999996,0.9910569390000001
5074.5,1.6502841799999999,1.5241153,1.7551256300000002,0.0633938485,-0.9751453980000001,0.0014936538400000011,-0.9911957650000002,0.9926485429999999,0.609579742,-1.3131776300000002,0.0627509749,-3.2307635399999994,0.204931208,0.2923807525,109.73826439999998,0.1912232019007206,-2.1775014877319334,-5.054298305511475,0.043861167975542535,2.1504468799999996,-0.7827820740000001,2.7973324699999997,0.9108344410000001,-0.616637343,-1.3916136399999999,1.423506084,0.43958890899999997,2.1615470599999997,-3.77986605,2.8506103,0.9937061779999998
5084.5,1.6518204400000003,1.52037212,1.7547840799999999,0.0636080607,-0.959253407,0.00826690372,-0.9872551470000002,0.991002645,0.608493531,-1.3150453199999999,0.0609065155,-3.82644061,0.20535267000000004,0.320485059,136.14745699999997,0.2053454414010048,-2.144940805435181,-5.169521474838257,0.04373054461624163,2.11642388,-0.8448342759999999,2.80817623,0.9679298670000002,-0.651914799,-1.87733128,0.5946408819,0.294114142,2.1321747299999996,-4.4196279899999995,2.8599363799999997,1.0462690899999998
5094.5,1.6517423100000002,1.5217580400000001,1.75457162,0.062664015,-0.95771743,0.029922408229999996,-0.982787418,0.9911259859999999,0.6068390599999999,-1.3104406100000001,0.05585596839999999,-3.2541666189999994,0.20499630399999996,0.336682613,75.7711626,0.24200374037027358,-2.1518690824508666,-5.11950159072876,0.043599644822592244,2.12420307,-0.8809322400000001,2.80461284,0.949176825,-0.6343643780000001,-1.9530564600000002,-0.11610350109999996,0.25125411,2.14199354,-3.70944533,2.8595655,1.0510113
5104.5,1.6509353000000004,1.52013942,1.75487451,0.06343308,-0.9848661419999999,0.0005041851099999987,-0.9868464369999999,0.9897935080000002,0.6127103500000001,-1.3117179,0.0630651749,-3.5401054800000002,0.20512906800000003,0.296907782,123.0052956,0.17551181595772505,-2.176954674720764,-5.189292097091675,0.04346898537428735,2.14847141,-0.8803976889999999,2.8099026300000003,0.937805916,-0.655060516,-1.9980672000000002,0.26400332249999997,0.27033400100000005,2.15322207,-4.0471905,2.85749046,1.0166585799999999
5114.5,1.6512888499999998,1.5191272200000001,1.75462168,0.0641188945,-0.9860185779999998,0.021212507319999997,-0.986603569,0.9947261939999998,0.6110828930000001,-1.29962458,0.0506522812,-3.5508067399999996,0.205369849,0.3404184795,96.369162,0.2429483536630869,-2.140995001792908,-5.189215230941772,0.043337950639682,2.1126673,-0.9483005030000001,2.8155582000000003,0.972851457,-0.6534471660000001,-1.7903752299999998,0.50097897,0.28284549800000003,2.12651747,-3.99127207,2.8686941500000005,1.07036907
5124.5,1.65136051,1.5216690800000001,1.75460078,0.0633537895,-0.9822919300000003,-0.010105504169999998,-0.987114865,0.99233134,0.616072202,-1.32865448,0.058109120689999995,-3.18906788,0.205216401,0.30182726790000003,94.0540152,0.21469181776046753,-2.160217118263245,-5.224258518218994,0.043207096862900064,2.1315618499999998,-0.8751184359999999,2.8202239200000006,0.9459844040000002,-0.6630089980000001,-1.93876497,0.378585006,0.26443389,2.1488410399999998,-3.71669073,2.8726841700000003,1.0284382669999999
5134.5,1.65034055,1.52175561,1.7541397999999997,0.0623462671,-0.936751149,-0.01250909839,-0.9844982330000001,0.99195703,0.614595554,-1.3326802000000002,0.0728968235,-3.2329849559999992,0.20682467599999996,0.25801364900000007,136.7152791,0.1502478213980794,-2.243638753890991,-5.1745788097381595,0.04307643676570486,2.21582001,-0.8181416709999999,2.83014863,0.8849624980000002,-0.645607287,-1.2457895799999998,0.7431581260000001,0.276708567,2.22180424,-3.666055130000001,2.86924907,0.941451413
5144.5,1.65183657,1.5222469500000002,1.7549002299999998,0.0638079882,-1.0542992500000001,0.01962966568,-0.9922477430000001,0.9914912210000001,0.6172098379999998,-1.32280437,0.0617684098,-3.55618944,0.20448322800000002,0.308498521,120.3303842,0.19128715619444847,-2.142936038970947,-5.18373064994812,0.04294671332153718,2.1151442000000005,-0.8897426010000002,2.82934748,0.972897584,-0.646935902,-1.8402578299999999,0.5552795410000001,0.275603299,2.1314015900000003,-4.09212429,2.87979979,1.051281831
5154.5,1.65010103,1.5223501000000002,1.7544713600000001,0.0634044516,-0.9863537789999999,0.010645688129999996,-0.9909528919999999,0.9949789489999998,0.6189446489999999,-1.32892321,0.0598208373,-3.263040675,0.20585161199999996,0.315210672,100.6786163,0.2205357573926449,-2.17804160118103,-5.22080807685852,0.04281722147536331,2.1498966800000003,-0.86976754,2.81323011,0.939956804,-0.657129804,-1.9834439699999997,0.18035249873000003,0.22704849,2.1780699799999996,-3.87774542,2.87336435,1.026862545
5164.5,1.6515936,1.52307256,1.75440355,0.06348325810000001,-1.034238723,0.018050527830000003,-0.984721932,0.9912390799999999,0.6185035809999999,-1.3459123899999998,0.0587783822,-3.250118397,0.20516164799999997,0.32477801549999996,90.27004459999999,0.23429010435938835,-2.1642057418823244,-5.217374181747436,0.04268779649428133,2.1362597800000005,-0.9458051410000001,2.8376792799999997,0.969680643,-0.654453105,-2.1736277800000003,-0.0725624797,0.247036665,2.14981189,-3.7467349499999996,2.89003672,1.05328493
5174.5,1.6504746200000002,1.52113179,1.7546311499999998,0.0631971459,-0.9679904030000002,0.008578130989999998,-0.9891355589999999,0.9940906060000001,0.6111008200000001,-1.3064459,0.057943692899999996,-3.5673518,0.205667066,0.3185538764,112.71763960000001,0.21085343472659587,-2.197503924369812,-5.236225128173828,0.04255883716845317,2.1694561400000003,-0.9533174640000001,2.83226983,0.933730834,-0.6588362000000001,-1.9165420499999999,0.33178253311800004,0.266741773,2.18643789,-4.02716727,2.8915496700000003,1.029504444
5184.5,1.64948616,1.5209300000000001,1.7552377700000001,0.0635304306,-0.908829637,0.010910076099999999,-0.986879961,0.9952308740000001,0.610568373,-1.30803512,0.04759706514999999,-3.5468704100000004,0.20437786400000002,0.3591787110000001,94.8043218,0.26405644342303275,-2.2112842082977293,-5.2213317394256595,0.042430158108580765,2.18358861,-1.009955257,2.85035036,0.9713526490000002,-0.6525332419999998,-1.4329308900000002,0.6918510280000001,0.281811795,2.1805286699999997,-4.143803919999999,2.8981043800000004,1.087008265
5194.5,1.6510581599999998,1.5225462699999999,1.7547872500000001,0.0638883146,-1.0240706119999998,0.0205943614,-0.9887101680000001,0.9922549589999997,0.611591885,-1.3047554399999999,0.05896371060000001,-3.257976480000001,0.20546458900000003,0.30931291,98.884684,0.20562960132956504,-2.1718937158584595,-5.2568684101104735,0.042301996461298945,2.1438735600000003,-0.9474707819999999,2.84663394,0.9696375399999999,-0.6621870660000001,-2.2527275700000002,0.0948521374,0.250454935,2.1579887700000002,-3.7629623800000003,2.91085999,1.059361819
5204.5,1.6511178000000002,1.52045673,1.7551313,0.0628154614,-0.9001873949999999,-0.012106908500000001,-0.992245681,0.9926742949999999,0.6079646669999998,-1.2889524600000002,0.0608725211,-3.2729975060000003,0.206421156,0.28296742249999995,104.5963275,0.16459814980626106,-2.200635290145874,-5.267357254028321,0.042173839685017964,2.1726272200000003,-1.021009845,2.86248386,0.983020374,-0.663909196,-1.9843104399999998,0.3553660877,0.266029611,2.18496239,-3.8433198699999997,2.90118424,1.04635906
5214.5,1.6512028600000002,1.5218459599999998,1.75410692,0.06169450629999999,-0.9072377449999998,-0.004473468796999999,-0.9869070109999999,0.9924509460000002,0.612354921,-1.32133243,0.061496393399999995,-3.2709523949999997,0.20493444300000002,0.30929469899999995,92.08367700000001,0.20072317793965339,-2.2221092224121093,-5.250607538223266,0.042045964729844065,2.1944753799999996,-0.9749751660000001,2.85690055,0.944179329,-0.6570287490000001,-1.59106932,0.611017464,0.264893061,2.20956812,-3.8062542299999995,2.9089621800000005,1.027816153
5224.5,1.65105845,1.5220670100000002,1.7550830400000001,0.06301215689999999,-0.912884335,0.02279341811,-0.981683237,0.9908380290000001,0.619436631,-1.3472223600000002,0.048664920900000005,-3.8490687200000004,0.20524541200000002,0.375559703,107.74905389999999,0.27649879902601243,-2.1715309619903564,-5.247803974151611,0.041918848872699505,2.14408488,-1.0855727700000002,2.8586173799999997,0.9982834319999998,-0.6545586980000001,-1.7397774599999998,0.36210417600000006,0.24127140999999996,2.16970552,-4.47791854,2.90457734,1.1098744799999998
5234.5,1.6507666399999998,1.52314124,1.7544315400000001,0.0638846453,-1.0057656769999999,0.009711213908,-0.9875108339999998,0.992377372,0.617534019,-1.3236721,0.058382517200000004,-3.544178846,0.206222544,0.31801344800000003,118.472742,0.21986058205366135,-2.186832618713379,-5.2639000415802,0.041792073728388494,2.15932275,-0.888294196,2.8485932600000003,0.980525039,-0.6580547820000001,-1.7251040499999999,0.617511161,0.26787644099999997,2.16766918,-4.166066679999999,2.90509088,1.0742602430000001
5244.5,1.6513564299999999,1.52236976,1.75365559,0.0631960283,-1.0011943989999998,0.0048600180999999985,-0.990523151,0.9900296240000002,0.6027721130000001,-1.26524142,0.06352485999999999,-2.606982885,0.20519774600000001,0.2759011156,62.75711689999999,0.18708830820396544,-2.192916488647461,-5.274956321716308,0.041665637012757675,2.1654108599999997,-0.965058473,2.86598043,0.9829803690000002,-0.659952187,-1.39290177,0.6353024270000001,0.25351015,2.1705126200000002,-3.20882303,2.9183178199999995,1.05441832
5254.5,1.6513131600000002,1.5213461000000001,1.75481722,0.0630358019,-0.9569240609999999,0.025964610179999997,-0.9850872910000001,0.995835342,0.618143754,-1.3266929,0.06850083300000001,-3.54091864,0.203993637,0.268239676,148.4155563,0.1423701211810112,-2.198453950881958,-5.262384271621704,0.04153947905961917,2.17126082,-0.961669599,2.8809537599999997,0.9779339869999999,-0.654421144,-1.84667364,0.39027614800000004,0.260196322,2.17842932,-4.21253832,2.9181927,1.0412589999999997
5264.5,1.65156828,1.5233985299999997,1.7551566899999997,0.0630244386,-0.992953801,0.01404632546,-0.9898757909999999,0.9918269940000002,0.610354479,-1.3309122199999999,0.0410518577,-3.57989618,0.204878078,0.430649559,61.1046792,0.37328745387494566,-2.1629542112350464,-5.244329023361206,0.04141404504235894,2.13614374,-1.0123047509999998,2.8809469500000002,1.019314574,-0.647175745,-1.42779253,0.583341933,0.29111698399999997,2.15182634,-4.30189985,2.92841438,1.1653077799999998
5274.5,1.65120468,1.5208235899999998,1.75472133,0.06437588529999999,-1.03084083,0.007407392949999999,-0.9878338660000001,0.994174239,0.6077701000000001,-1.3044531400000001,0.052999445199999995,-3.5406800339999998,0.20558356700000005,0.340740146,104.27502140000001,0.2376706138253212,-2.12809796333313,-5.255087900161743,0.041289389018755,2.1012931200000002,-1.0632483750000001,2.8678015400000003,1.04023275,-0.648993605,-1.48904986,0.8959240850000001,0.33239926799999997,2.12898809,-4.221170450000001,2.9354329199999993,1.1347283799999999
5284.5,1.65142351,1.51972733,1.7551301599999998,0.06290375699999999,-0.9229180480000002,-0.010491395392999998,-0.989042635,0.9874524390000001,0.605089909,-1.2887861400000002,0.049099907000000005,-3.56529743,0.204568323,0.35928118600000003,88.7469305,0.2648340478539467,-2.193375849723816,-5.2854493141174315,0.04116515689670801,2.1663241799999997,-1.131590317,2.89664914,1.0312422650000002,-0.656952176,-1.85029246,0.192112384,0.23254339499999999,2.16564848,-4.22124637,2.9364522899999996,1.1364466
5294.5,1.6513656399999999,1.5211792899999999,1.7547169099999997,0.06370648520000001,-0.9820306029999999,0.007532585999999999,-0.9905661880000001,0.9917727959999999,0.6079909669999999,-1.2935504299999998,0.0591433859,-3.233640276,0.205918884,0.304731519,90.16676930000001,0.1987991649657488,-2.178545379638672,-5.283060693740845,0.04104102767505168,2.1516703500000003,-1.003719738,2.88198856,1.0168935209999999,-0.6546369910000001,-1.7382787700000002,0.055223596400000005,0.22816241600000003,2.1664517299999995,-3.9062115399999997,2.94574307,1.097438736
5304.5,1.65119884,1.5248049399999999,1.75403555,0.0627544103,-0.953202979,0.00207522156,-0.9848019890000002,0.99267644,0.606553436,-1.30658031,0.055269452899999995,-3.558707775,0.20458003800000002,0.350428833,96.9519505,0.2474671881645918,-2.188790225982666,-5.277254247665406,0.040917159108431016,2.16213426,-1.064197024,2.88611166,1.027034375,-0.651258278,-2.6327872500000002,-0.0257224024,0.30810215100000005,2.1765082099999997,-4.25844899,2.93805847,1.12177522
5314.5,1.65021689,1.5191484,1.7549900699999998,0.06320579489999999,-0.969764087,0.01418013869,-0.9888292310000001,0.9945772700000001,0.6133087369999999,-1.31106996,0.0592007564,-3.250426943,0.206341082,0.31098895,94.189657,0.20490639470517635,-2.20904381275177,-5.256332015991211,0.04079397116175251,2.1827990600000002,-1.12433599,2.8985112099999997,1.005792727,-0.64315812,-2.02710612,0.23422250849999998,0.33611928699999993,2.1990902699999997,-3.948443470000001,2.9513243699999996,1.089278184
5324.5,1.6517776300000002,1.52100288,1.7544268700000003,0.0643007883,-1.042086075,-0.0013559047200000008,-0.9862111880000001,0.987292489,0.604201286,-1.27589881,0.0701941605,-2.637425635,0.204724656,0.24806660740000003,81.00810549999998,0.13969934806227685,-2.191387677192688,-5.234784889221191,0.0406715961193289,2.16555766,-1.00718628,2.8989785,0.996377252,-0.634889094,-1.8362315500000002,0.7276578380000001,0.37398522199999995,2.1697785700000005,-3.2218753300000005,2.9441102199999998,1.059473105
5334.5,1.65100927,1.52140186,1.7548481600000003,0.0628371625,-0.9049616630000001,0.009575116475,-0.988861751,0.9919153270000001,0.6107327399999999,-1.31169598,0.048387854900000006,-3.567281835,0.205877416,0.37216801299999996,93.89089440000001,0.2906713679432869,-2.2206471443176268,-5.229234886169434,0.040550078008087256,2.1950268399999997,-1.107521084,2.91836419,1.0271194229999998,-0.6316282,-1.78292131,0.436432266,0.34535858999999997,2.19821474,-4.30889364,2.9720408,1.1383605199999998
5344.5,1.6508628599999997,1.52321469,1.7547763299999999,0.0628463663,-0.9434389660000001,-0.0006881900000000006,-0.9896967560000001,0.990866832,0.606025036,-1.29394906,0.046826430200000005,-3.8547907,0.20369662700000002,0.38348378099999997,93.2769966,0.2796939641237259,-2.2044116735458372,-5.2597918033599855,0.04042924475276001,2.17854437,-1.0816276559999998,2.9044480600000004,1.014973534,-0.639633387,-1.7097908599999996,0.48381798600000003,0.334536759,2.1972804100000003,-4.6347798099999995,2.95606103,1.14195809
5354.5,1.65110776,1.52123925,1.7551582600000004,0.0628046041,-0.9689205920000001,-0.00730787353,-0.9869025770000001,0.989982307,0.602660936,-1.2789873799999998,0.0511750971,-3.8599435200000003,0.205203538,0.37593866499999995,109.44412740000003,0.27232340425252916,-2.1871469497680662,-5.229506969451904,0.04030876249919435,2.16179866,-1.195219586,2.9108557100000003,1.0449475329999998,-0.6286757800000001,-1.55255614,0.9488153490000002,0.353415755,2.17441441,-4.609244179999999,2.95805624,1.14823849
5364.5,1.65139038,1.52235248,1.7545530999999996,0.0629093037,-0.96899737,0.01671537918,-0.989980807,0.9911629879999999,0.6079017240000001,-1.29728253,0.0516220149,-3.8746906099999996,0.204613872,0.386822017,101.6019453,0.2947963267564774,-2.1899502277374268,-5.301141405105591,0.040188615969232705,2.16384247,-1.11256062,2.91162925,1.022864197,-0.6494514889999999,-1.58046875,0.6904859250000001,0.29312510500000005,2.1820185899999998,-4.57052277,2.9643887599999994,1.1330241449999998
5374.5,1.65059458,1.5187168200000003,1.7559428799999999,0.0633425034,-0.9002556179999999,0.006646413627,-0.9901329380000001,0.993860718,0.6098675069999999,-1.3322788700000001,0.0651314041,-3.5316743169999993,0.20488208600000002,0.2885542245,131.2294206,0.16859649308025837,-2.2248714447021483,-5.321396207809448,0.04006791585663378,2.19865037,-1.24432039,2.91078736,1.0223688430000002,-0.6542135179999999,-1.61781933,0.7537691330000001,0.28542520800000004,2.21985059,-4.380045470000001,2.96917379,1.091571034
5384.5,1.6512054300000003,1.52133121,1.75522372,0.0631976309,-0.9585210199999998,0.01082913348,-0.9849657260000001,0.9941472650000002,0.607760312,-1.2999615400000002,0.06240675324999999,-2.933656076,0.205274277,0.2916554574,86.51030550000002,0.20509749576449393,-2.2052257299423217,-5.337409496307373,0.03994718951574721,2.17894708,-1.2040037099999998,2.92706989,1.041937945,-0.65763483,-1.5294072699999999,0.640178706,0.266616885,2.19487546,-3.7822330799999997,2.9760403,1.109360558
5394.5,1.65123544,1.5215720400000001,1.7551458999999998,0.06362202270000002,-0.980076212,0.0009681455000000002,-0.9837952499999998,0.9912845770000001,0.6034589799999999,-1.2760044600000002,0.0543867182,-2.952814269,0.20504134000000002,0.328876339,66.0535043,0.2362853430211544,-2.1793905973434446,-5.353343057632446,0.03982657847138876,2.15305634,-1.25178116,2.91079962,1.0626475100000001,-0.6610230290000001,-1.87600986,0.538133215,0.273616185,2.1675458,-3.8238685599999997,2.96893624,1.1614908
5404.5,1.6504576200000003,1.5202869099999998,1.7547864,0.06309565589999999,-0.931074526,0.0094291582,-0.9910004139999999,0.9940144,0.6044219,-1.2575044199999996,0.056813808199999996,-3.8529621300000003,0.20661791499999999,0.342009853,129.49876030000001,0.2376532956957817,-2.233159971237183,-5.304780530929565,0.03970624639029533,2.20756491,-1.17982843,2.9423699199999995,1.0291317000000002,-0.644412838,-1.85302827,0.5324205149999999,0.310400479,2.2105116899999997,-4.528206980000001,2.99473434,1.12460709
5414.5,1.65106653,1.5227887799999997,1.7540830800000002,0.0632314661,-0.9681483359999999,0.007406898660000001,-0.992433359,0.9955287800000001,0.6066671419999999,-1.29959686,0.0469651245,-3.8732288099999996,0.206356918,0.386825697,91.94625240000002,0.28420509546995165,-2.1989643573760986,-5.326215744018555,0.03958690789018286,2.1732447500000003,-1.1542186649999997,2.9300854000000003,1.06436662,-0.649513212,-1.54463433,0.893392665,0.34499376600000004,2.18302803,-4.54090701,2.97854271,1.1796428600000002
5424.5,1.6511380299999998,1.52494041,1.75479546,0.063582604,-1.001575017,0.005020660031999999,-0.9877781070000001,0.9911962559999999,0.600073042,-1.2729056,0.05489221890000001,-2.972784222,0.20518023800000001,0.32846188,70.01166309999999,0.23417186141014099,-2.1994395732879637,-5.349964666366577,0.03946773195662632,2.17356729,-1.14625374,2.9402347599999996,1.06262584,-0.655327167,-2.0860497,0.522477744,0.298040419,2.1899986999999994,-3.8723553100000006,2.99129498,1.1560235300000001
5434.5,1.6512813599999998,1.52096249,1.755016,0.0621508316,-0.9177398880000001,0.007852484000000002,-0.9895259409999999,0.992239286,0.611734977,-1.3294314200000001,0.06075033519999999,-3.54406366,0.20557237099999998,0.31881551100000005,110.47545970000002,0.2057742841541767,-2.224511647224426,-5.341516447067261,0.03934880047319088,2.19888106,-1.1884088149999998,2.94632003,1.05587509,-0.651169694,-1.5772016299999998,0.460879378,0.29744589,2.2166761400000006,-4.260608410000001,2.9947629499999997,1.13339242
5444.5,1.6511878699999998,1.52337601,1.75523141,0.0634341218,-0.94671834,-0.005229546400000001,-0.9899334390000002,0.99285975,0.607770704,-1.3026473900000002,0.0477501398,-3.2335982850000002,0.20565259,0.3568157274,74.2256778,0.28124816697090865,-2.217071533203125,-5.337466192245484,0.039230458573095636,2.19162804,-1.31198743,2.9694188500000003,1.076024037,-0.6483801189999999,-1.5889832700000002,0.430611473,0.310843789,2.1949179200000004,-4.22046496,3.0017907800000003,1.186612057
5454.5,1.65097628,1.5211469499999999,1.7549975,0.06362953110000001,-0.9281062409999998,0.0022369995600000003,-0.988209433,0.9919466649999998,0.6174115370000001,-1.33765499,0.05401790230000001,-3.2687690799999998,0.20513351200000002,0.329182675,82.0224719,0.23220857232809067,-2.1912087917327883,-5.334585380554199,0.03911241956959112,2.1659357900000002,-1.26623438,2.9483378200000003,1.0948461200000001,-0.6459634820000001,-1.6376369199999998,0.64877465,0.31124252399999996,2.18887451,-4.1107366999999995,2.9991981999999995,1.1770009000000001
5464.5,1.6518260200000003,1.5214909,1.75464059,0.0623849922,-0.928003686,-0.0010866835300000009,-0.9870240710000001,0.99284247,0.608962902,-1.2960432000000002,0.0612330244,-2.92397828,0.20494588100000005,0.2976111104,81.03253029999999,0.20092007257044314,-2.2168206691741945,-5.356239271163941,0.03899476661502666,2.1914227200000007,-1.2347811750000002,2.9445819299999996,1.056283505,-0.651111055,-1.7277966200000001,0.10312546460000001,0.255911659,2.20877555,-3.92919445,3.01297199,1.1437072440000002
5474.5,1.65083447,1.5204531799999998,1.7551593,0.06396097510000001,-0.9566205379999999,0.0282746561,-0.9912270339999999,0.9911258070000001,0.606114734,-1.2826935499999998,0.04439086960000001,-3.556777556,0.205683127,0.379326583,91.27613,0.31286403313279154,-2.209258031845093,-5.3258894920349125,0.038877793015970295,2.18436038,-1.33523599,2.97424496,1.09573032,-0.6402285670000001,-2.0594971499999994,0.05790737349999999,0.275846039,2.18018272,-4.587406140000001,3.02003971,1.21313511
5484.5,1.65158205,1.52157962,1.7553433699999998,0.0639094066,-0.9630456559999999,-0.00471267214,-0.9897797699999998,0.991342621,0.597834999,-1.26755839,0.035356562529999996,-3.8797547099999994,0.205017108,0.421832896,85.1672362,0.3473215073347092,-2.1526997089385986,-5.377954387664795,0.03876121906288098,2.1273138700000005,-1.38155541,2.9595483600000003,1.1381675999999998,-0.654737143,-1.4702702,0.638106368,0.288072139,2.15153361,-4.82838924,3.0080987200000004,1.2652297
5494.5,1.6512714199999998,1.52358578,1.7538084600000001,0.0624045643,-0.934464964,0.0005385115200000005,-0.9904093279999999,0.993700968,0.610866371,-1.31304545,0.055620480699999995,-3.5785471400000004,0.205323651,0.33813342700000004,108.89479980000002,0.2415126197040081,-2.235844683647156,-5.422049236297608,0.038644359534950976,2.2100706299999997,-1.14852468,2.9678473999999997,1.0736408,-0.66675708,-1.8971194900000004,0.2522426024,0.236688508,2.21623967,-4.368276229999999,3.02228654,1.1633234700000004
5504.5,1.65135541,1.52218826,1.7548925100000001,0.0636087259,-0.9695396259999999,-0.003807380639999999,-0.9866839430000001,0.9921607020000002,0.605203867,-1.2837020799999999,0.04196075949999999,-3.57457061,0.205806127,0.385156314,90.2112746,0.3074519753456116,-2.1763044595718384,-5.370699644088745,0.038527504891777684,2.15127545,-1.37649797,2.9568508099999997,1.1215390400000003,-0.649438323,-2.26836673,-0.13621502200000002,0.22885105499999997,2.17828936,-4.52328701,3.02721909,1.22978733
5514.5,1.65168337,1.5246855,1.7542797900000004,0.0628029764,-0.9861709250000003,0.017598394263,-0.990444865,0.994469973,0.6126350190000001,-1.3052356299999999,0.049075526999999994,-3.86082953,0.204889227,0.37944033400000005,102.4145819,0.2940615311264992,-2.2126452922821045,-5.383976554870605,0.03841151569862685,2.1875947800000004,-1.2102509,2.9906813800000003,1.09085375,-0.6519795479999999,-1.9783722700000002,0.164551114,0.249854047,2.1920246600000004,-4.73955712,3.0356689,1.2069284100000002
5524.5,1.6517297600000003,1.52128747,1.7547092100000001,0.06430314499999998,-0.9581085070000002,-0.0006650739999999995,-0.9870130959999999,0.9927639249999999,0.6031831610000001,-1.2995933100000001,0.044322589700000005,-3.5682223100000003,0.206214765,0.391728089,75.3340907,0.3141443558037281,-2.1702173948287964,-5.279272270202637,0.03829604172110116,2.14652867,-1.2635187499999998,2.99123804,1.1489982099999998,-0.618366769,-1.5174136800000002,1.2125239479999999,0.408181171,2.15182244,-4.43960954,3.02745603,1.25415272
5534.5,1.6512428700000001,1.5235467599999999,1.75428864,0.0628734645,-0.9304874730000001,-0.004271850144000002,-0.9895102339999999,0.99273276,0.61103675,-1.30423347,0.05566196830000001,-3.5613329760000005,0.20586779000000002,0.319508179,115.95936199999998,0.20859431028366088,-2.2021944761276244,-5.370934057235718,0.03818200924689156,2.1775616799999997,-1.240091144,2.9648467700000003,1.10837882,-0.644954218,-1.5615668499999997,1.0237404259999998,0.351136202,2.20039296,-4.420920499999999,3.02882738,1.18766128
5544.5,1.6504386,1.5199107,1.7555465899999998,0.0632273094,-0.9268240249999999,-0.0028305336299999993,-0.986210687,0.9910859399999999,0.6045589849999999,-1.29595144,0.0374928121,-3.8646620300000003,0.204786876,0.41702251300000004,83.6787083,0.3250718668103218,-2.202716660499573,-5.417966985702515,0.038067783070300426,2.17766677,-1.56221723,2.9714906199999995,1.1442605700000001,-0.657839594,-2.00866829,0.24318306520000005,0.264313674,2.20211404,-4.895547980000001,3.0232525700000004,1.2611725999999999
5554.5,1.6511258500000001,1.52097247,1.75446883,0.06257233450000001,-0.8973099619999998,0.004778384979999999,-0.9904565450000001,0.991551697,0.601038346,-1.27661297,0.053197243029999994,-3.56035714,0.206868215,0.3591778615,96.5542922,0.26298023499548434,-2.2368010759353636,-5.375258111953736,0.037953375987194844,2.2123798699999995,-1.3292608499999998,2.99848359,1.09587243,-0.643258482,-1.6184684699999998,0.5065085556000001,0.268499515,2.21707742,-4.53570802,3.03924474,1.20803194
5564.5,1.6519404999999998,1.5203815299999999,1.7551509800000002,0.0627172131,-0.9316093549999998,0.0083982083,-0.993724784,0.9943906659999999,0.6095048019999999,-1.31834703,0.059354033800000004,-2.629372574,0.204452915,0.2790896580000001,62.0913795,0.17883422914892436,-2.2163907527923583,-5.364883708953857,0.03783953180218284,2.19221978,-1.4425236700000001,2.9923984099999994,1.1233479100000001,-0.638582662,-1.38274377,0.8739460689999999,0.322584515,2.1990663599999998,-3.56350573,3.03555542,1.1880845800000002
5574.5,1.6515882599999998,1.5236465199999998,1.75437796,0.0623768777,-0.953319291,-0.0006336486299999992,-0.991519855,0.9923297850000001,0.608965978,-1.30695448,0.0680545867,-2.9570336060000004,0.203428565,0.272026794,95.7264097,0.15964048374444245,-2.24255952835083,-5.374243211746216,0.03772635560227482,2.21840978,-1.3067616599999998,2.9988874700000006,1.08837395,-0.6399393800000001,-1.4794284999999998,0.732785938,0.304564544,2.2339025299999995,-3.9576606299999995,3.0547109,1.15246382
5584.5,1.65080183,1.52510687,1.75458699,0.06266260450000001,-0.9535554430000002,0.013382558400000003,-0.9875660340000001,0.9914608340000001,0.6047419420000001,-1.29077346,0.05591090700000001,-3.5441322760000005,0.204883813,0.334127298,106.31914200000001,0.23003673199564217,-2.2367798328399657,-5.420806646347046,0.037613332971652785,2.21222423,-1.38960018,2.99550756,1.1103574699999998,-0.652639054,-1.8850117700000002,0.38704083,0.30861502399999996,2.23103862,-4.43953195,3.0517805700000005,1.19502481
5594.5,1.65109224,1.5244763799999999,1.7539627599999998,0.0622948292,-0.9295364019999999,0.011732618100000003,-0.985991963,0.9946104379999999,0.603433745,-1.2881767399999997,0.0609104149,-3.2758538019999994,0.204788775,0.31451145599999997,99.26838610000001,0.21492363922297955,-2.262215256690979,-5.400284624099731,0.03750044352644115,2.2380251899999997,-1.30892352,3.0135707500000004,1.0829358199999999,-0.6448718500000001,-1.34044412,0.82383151,0.3366787240000001,2.24391371,-4.23466422,3.06642251,1.16478154
5604.5,1.6515437099999999,1.5247153900000001,1.75384733,0.0635031322,-1.0206675940000003,0.00730629944,-0.987961142,0.9908432360000001,0.6023594950000001,-1.29883095,0.057927221900000006,-3.2266574059999997,0.20480383800000004,0.33381939899999996,77.5793797,0.23469854295253753,-2.2079405069351195,-5.4333902359008786,0.03738789599704774,2.1835023399999995,-1.3005501,3.00846104,1.12447297,-0.6534419060000001,-1.47490084,0.643885899,0.289174612,2.20068423,-4.20329143,3.06223998,1.2124241599999999
5614.5,1.6519987500000002,1.52404954,1.7547643500000003,0.06342520900000001,-1.0018373319999998,0.02088211563,-0.989532051,0.9945675639999999,0.614887602,-1.3286385799999998,0.0525582901,-3.5537714040000004,0.204969421,0.355447016,90.30564940000001,0.25822189450263977,-2.192909097671509,-5.438769340515137,0.037275317452848,2.1685395099999996,-1.42407524,3.00945888,1.1403347700000002,-0.653565427,-2.07045575,-0.0657448223,0.23737583000000004,2.18085998,-4.61921128,3.06151037,1.2358846900000002
5624.5,1.65055868,1.52041622,1.75487194,0.0642291096,-0.9376559120000001,0.013660969529999997,-0.991044926,0.9943216459999998,0.610490787,-1.30755924,0.05198189239999999,-2.940889897,0.20590803900000001,0.318029157,63.6604049,0.2188995134085417,-2.202061343193054,-5.373982620239258,0.03716341705498889,2.1785535400000002,-1.50020128,3.0151125700000003,1.16042073,-0.6323695319999999,-1.80777963,0.07749231009999999,0.280374764,2.18888971,-4.06703609,3.06540003,1.246043684
5634.5,1.6516419299999998,1.5198839100000001,1.7548107800000001,0.06379980719999999,-0.921827373,0.010417405550000002,-0.986676245,0.9897054190000001,0.609899473,-1.31494115,0.0561413733,-3.5451602199999996,0.206546699,0.338224101,111.80846609999999,0.24769234731793405,-2.208023190498352,-5.416455221176148,0.037052313543044876,2.18416266,-1.4840702399999999,3.01890406,1.15859587,-0.643777551,-1.54660565,0.7975723319999999,0.33387297999999993,2.1963256600000003,-4.60325271,3.07342351,1.24124031
5644.5,1.6511515500000002,1.52468986,1.7545919099999998,0.0631951678,-0.9361075940000001,0.006183342266,-0.9827455480000001,0.9921113570000001,0.6098038629999999,-1.30731653,0.04647571233,-3.8563163599999997,0.20553232700000001,0.375374241,107.76840339999998,0.27572961896657944,-2.2207576036453247,-5.428344011306763,0.036941422521505445,2.19689047,-1.43006821,3.0255214600000007,1.15062582,-0.645888028,-1.37935486,0.745721292,0.301812705,2.2109669500000004,-4.79805822,3.0772639699999997,1.2544349399999999
5654.5,1.65208954,1.5205829,1.75376839,0.06330869199999999,-0.9651403899999998,-0.008919053216,-0.994483404,0.9955968159999999,0.6186723589999998,-1.3161136299999998,0.05464909063000001,-2.971769045,0.20438491599999997,0.320321556,74.7030853,0.23077657632529736,-2.18564031124115,-5.511948299407959,0.03683030816791345,2.16096667,-1.423286307,3.03162031,1.17748325,-0.669716721,-2.0150137200000002,0.1609133848,0.22978787899999994,2.1770401500000003,-3.91729644,3.08108174,1.26002411
5664.5,1.6510723900000002,1.52219832,1.75444028,0.06313026320000001,-0.942353729,-0.0015578029500000002,-0.9861925539999999,0.994162295,0.6016145770000001,-1.2788855099999998,0.054482161400000007,-3.2386851759999993,0.204686417,0.339311154,78.50895240000001,0.24879946783185006,-2.237886440753937,-5.474572658538818,0.03671895092491056,2.21375922,-1.40769941,3.0334667800000004,1.13424992,-0.6568740569999999,-2.21527981,-0.0878793841,0.25084311699999995,2.21506392,-4.28757239,3.0681748899999994,1.2237776099999997
5674.5,1.65114094,1.5227238799999996,1.7546322499999998,0.0640451665,-1.004724798,0.00657173298,-0.9900434599999999,0.992810892,0.6076222619999999,-1.29836534,0.055758117399999994,-3.2300856060000007,0.204816618,0.3289855175,85.8876248,0.2273746281862259,-2.2121788024902345,-5.404252910614014,0.03660835056342322,2.18895863,-1.4772346200000002,3.0358451,1.17599868,-0.634096394,-3.0178996699999994,-0.12817111050000002,0.33196307299999994,2.19568127,-4.31359753,3.0807652,1.25968329
5684.5,1.6515609899999997,1.52262751,1.7544442399999998,0.06333922890000002,-0.9501064790000001,0.0010031581199999998,-0.980685516,0.9930288839999999,0.6008546260000001,-1.27486262,0.0470650845,-3.5485513999999996,0.20485923600000003,0.386969389,74.64692570000001,0.30175421610474584,-2.1873018741607666,-5.443039655685425,0.03649887912171537,2.16377812,-1.44417698,3.0342118,1.19375074,-0.644331428,-1.9247991,0.044322794700000015,0.260678775,2.1822866199999997,-4.61890019,3.08820661,1.30125231
5694.5,1.65198974,1.52222192,1.75466332,0.06237195050000001,-0.9403889939999999,-0.01055062935,-0.986526396,0.989779916,0.6098777879999999,-1.2977781,0.050214885929999994,-3.559860356,0.203728746,0.36909535800000004,89.79391890000001,0.2857440359890461,-2.2263262033462525,-5.530875873565674,0.03638935529707617,2.2019618899999998,-1.5777548,3.03879099,1.15992657,-0.6693534569999999,-1.6247895199999998,0.586334471,0.27283820400000003,2.2084890900000005,-4.60680752,3.08480678,1.26954248
5704.5,1.6507770999999998,1.52160011,1.7545008799999997,0.0630950807,-0.911334759,0.00440608451,-0.990100035,0.99462604,0.6201272690000001,-1.3443345599999998,0.0638699843,-3.2578298800000005,0.205719757,0.269382243,110.9924306,0.14808392506092788,-2.2498583793640137,-5.49435453414917,0.036279340069494535,2.2260225,-1.50726059,3.0375788,1.1446728499999999,-0.656817918,-1.61936739,0.7180951139999999,0.29939001899999995,2.24384127,-4.29019961,3.0890221,1.200125576
5714.5,1.65094708,1.5222749199999999,1.75482336,0.0632306297,-0.9302071149999996,0.009298790300000002,-0.981965031,0.9933183299999999,0.595523132,-1.26057075,0.0543800908,-3.58579231,0.204756202,0.347394253,96.0751883,0.24534889832139015,-2.2440916538238525,-5.523584461212158,0.03616960722323541,2.2200635699999998,-1.5038526200000002,3.06060056,1.1656763399999999,-0.664115013,-1.5861747100000003,0.361003945,0.24325212099999996,2.23473574,-4.69741177,3.1041598000000006,1.2505293199999998
5724.5,1.65210407,1.5232667800000002,1.7548996799999999,0.0629062813,-0.906629285,0.00165715192,-0.988974556,0.99424193,0.6180026809999999,-1.3627019400000002,0.0427871177,-3.5592791049999994,0.20536094700000002,0.388524924,82.91806699999998,0.33142946306616067,-2.2223857164382936,-5.538668441772461,0.036060053890422224,2.1983216000000003,-1.5932259800000002,3.06249427,1.1866803000000001,-0.6671342819999999,-1.9740409200000002,0.45302102099999997,0.257933676,2.20049735,-4.52450891,3.11154918,1.30185679
5734.5,1.6501984299999997,1.5217551499999997,1.7542131600000002,0.0635741415,-0.937726769,0.004776661769999998,-0.986170235,0.9920937779999999,0.601168712,-1.28251091,0.0465685109,-3.29253917,0.20473626700000006,0.36179883500000004,75.3086508,0.2834078326821327,-2.2171055555343626,-5.522260856628418,0.03595072985385149,2.19334629,-1.59003707,3.0441877299999995,1.19323018,-0.660680183,-1.44953989,0.579039194,0.252468959,2.2131060499999995,-4.28970507,3.1071479299999996,1.2865447300000001
5744.5,1.6520055799999998,1.52489923,1.7547700800000001,0.0628755778,-0.993506861,0.003546017050000002,-0.980735836,0.9942207959999998,0.608285042,-1.28561106,0.0672089274,-2.93385682,0.20497447700000002,0.27592492550000003,88.9646017,0.17593390289694072,-2.2296051025390624,-5.523747682571411,0.035841848778631336,2.20595607,-1.4603378799999998,3.06372538,1.1627788300000002,-0.6596131989999999,-1.9915143700000002,0.21918950129999998,0.243245456,2.21725519,-3.8816205600000004,3.1219701300000002,1.2210830799999999
5754.5,1.6513059399999999,1.5223215399999999,1.7555139700000002,0.0626538093,-0.953486425,-0.022369874100000003,-0.9872138250000001,0.990729709,0.608871665,-1.30559415,0.0561333278,-3.5692278699999997,0.204025902,0.345653719,104.25904,0.2525976672768593,-2.241697645187378,-5.546046161651612,0.035733448013656396,2.21793508,-1.5221112399999999,3.07443724,1.1745889999999999,-0.664796556,-1.9224223700000003,0.1938968188,0.24263813699999998,2.21837531,-4.659055780000001,3.1139813,1.2650268600000003
5764.5,1.65091723,1.52256061,1.7551092999999998,0.0636004755,-0.9167502919999999,0.006224538899999998,-0.9883229530000002,0.9948475699999999,0.604433797,-1.3006030100000001,0.0558407284,-3.2313812760000005,0.204102685,0.2948280164,96.5393756,0.1831700023263693,-2.2182195663452147,-5.538301420211792,0.03562525793993389,2.1946652700000002,-1.62228692,3.0590304799999997,1.205022,-0.6609619930000001,-1.93488243,0.11704846619999998,0.23917646,2.2157035400000002,-4.330098110000001,3.1138176799999995,1.2707702699999999
5774.5,1.6503230599999998,1.5239325499999998,1.7546341399999998,0.0631843939,-0.90537173,0.009515787080000001,-0.9878799310000002,0.9915558609999999,0.6086143959999999,-1.3032970999999998,0.0521698442,-3.57724696,0.204421974,0.340905351,106.2899281,0.23914172388613225,-2.247497534751892,-5.5483122825622555,0.03551745228655816,2.2239617000000003,-1.6268531800000001,3.0645105400000006,1.1829492300000002,-0.662452293,-1.77415302,0.07760167167000001,0.24857889100000002,2.2472476099999996,-4.70289157,3.12483037,1.26994724
5784.5,1.6511182000000002,1.52172278,1.75495968,0.06260206700000001,-0.8439325349999999,-0.014274197584,-0.9911932880000001,0.9923243490000001,0.617189258,-1.33371569,0.034701331099999996,-3.8696089699999994,0.20449907,0.43654243300000006,79.3030666,0.36572368294000623,-2.2516727209091187,-5.56723575592041,0.03540993306656156,2.2280607100000003,-1.6897237699999998,3.07866969,1.2106138899999999,-0.6666096990000001,-1.36967067,0.30126027805000005,0.249554393,2.24171925,-5.06154397,3.1272367900000004,1.34598912
5794.5,1.6514519499999998,1.5179847800000001,1.7558282699999999,0.0635467815,-0.951295765,-0.006052151729999999,-0.9867287600000001,0.9903858449999999,0.6226081160000001,-1.3517089800000002,0.0435357312,-3.8492910599999997,0.20414501899999998,0.373252133,106.19359549999999,0.2857662782073021,-2.1918400526046753,-5.565464067459106,0.03530269207514326,2.16837194,-1.92543647,3.07874213,1.23052793,-0.664565713,-1.53965437,0.40020726160000003,0.269861443,2.18561056,-5.07654013,3.13067239,1.33204595
5804.5,1.6503533100000003,1.5221780599999999,1.7553360000000002,0.0627121955,-0.894470207,-0.006068455727999999,-0.988995965,0.992450167,0.610196849,-1.32400082,0.039491417200000004,-3.86485286,0.204962548,0.407228062,95.71424049999999,0.32053766399621964,-2.2682209968566895,-5.513291454315185,0.03519596673135885,2.2454256399999997,-1.6939688800000003,3.0806684300000002,1.1942288799999998,-0.6474698739999999,-1.6433793299999997,0.3651307075,0.285888808,2.25340788,-5.09438636,3.1484253399999997,1.3210691799999998
5814.5,1.651127,1.5224644,1.75461608,0.061875475199999995,-0.8903486560000001,0.0007465166000000013,-0.9856281470000001,0.9892441599999999,0.612828105,-1.32596086,0.0671144776,-3.257630685,0.20496310300000004,0.27080764300000004,122.8765919,0.15988378822803498,-2.2870034694671633,-5.496107387542724,0.03509003038006184,2.26450859,-1.6052256,3.0985949699999997,1.18210049,-0.640858972,-2.2439171399999998,0.27563424200000003,0.329947456,2.27020687,-4.4037258999999995,3.14600849,1.23209266
5824.5,1.6514062000000003,1.52072927,1.7547785699999998,0.06345432599999998,-0.9266173569999999,0.0086809452,-0.986789327,0.9925500429999999,0.60347431,-1.27700344,0.052522520399999995,-3.8680044300000005,0.205943851,0.34180224300000006,113.9045126,0.2246616929769516,-2.217714023590088,-5.414847421646118,0.034985290528706865,2.19618628,-1.7214613399999998,3.09526085,1.24676972,-0.615153173,-1.5510434700000002,0.670461845,0.37380597200000004,2.20365495,-4.97340093,3.1404064800000002,1.32746762
5834.5,1.6524123399999997,1.5240985900000001,1.7540879699999998,0.0628810183,-0.951247371,0.0029625707300000017,-0.9916228199999999,0.991660379,0.60406688,-1.2916990899999998,0.0609564706,-3.5718446859999995,0.205546629,0.316601915,111.50395449999999,0.19744359888136387,-2.214513397216797,-5.4756875991821286,0.034881734303560716,2.19246685,-1.5762812499999999,3.0981417099999993,1.2309161299999998,-0.631854488,-1.500117,0.671940161,0.36778142,2.21000376,-4.652402450000001,3.1577880999999994,1.2999612299999999
5844.5,1.65131013,1.52336512,1.75439653,0.062149082499999994,-0.919931936,-0.006397113639999999,-0.9863603549999999,0.9926713040000001,0.6083327430000001,-1.2966904000000001,0.0483568824,-3.8766411299999994,0.20431414400000003,0.387382006,96.535007,0.29272773414850234,-2.2715805530548097,-5.526378631591797,0.03477815513694082,2.2491244,-1.68570918,3.1125623300000003,1.2050267200000002,-0.645505201,-1.5833629600000003,0.580212016,0.32137146199999994,2.25563816,-5.04315333,3.15487456,1.3091797
5854.5,1.65212035,1.5199874899999997,1.75550952,0.0638358785,-0.948869575,0.012510312369999999,-0.9873366989999999,0.9918074000000001,0.6114093749999999,-1.33171727,0.052984879900000004,-3.5475471159999996,0.205343162,0.33216622600000006,101.1504276,0.21827776581048966,-2.1787760972976686,-5.502392387390136,0.03467443112411142,2.1566852900000004,-1.81772075,3.1055612299999997,1.2711813500000002,-0.636906658,-1.37675673,0.8638845030000002,0.357379416,2.1718489500000002,-4.667401120000001,3.16068443,1.35009952
5864.5,1.6521236300000002,1.52559407,1.7540493300000002,0.0633796375,-1.01225019,0.0155700242,-0.987936196,0.9926194819999999,0.616625,-1.3331552500000001,0.0549784076,-3.5632574249999998,0.20423149899999998,0.34269769299999997,95.88168620000002,0.23395852856338023,-2.193985939025879,-5.534577512741089,0.03457090832106309,2.1716802399999997,-1.59632401,3.11087138,1.26816106,-0.645020828,-1.6887546800000002,0.5464991510000001,0.319294587,2.19476878,-4.6903531,3.1690676600000005,1.34019416
5874.5,1.65102589,1.52250401,1.75523049,0.06355931749999999,-0.9818334910000001,-0.0004767517430000003,-0.986232234,0.9947566489999998,0.607062839,-1.31226202,0.04972594949999999,-3.8663777700000006,0.205493942,0.370967508,110.7268689,0.266784006357193,-2.221401405334473,-5.588837432861328,0.03446726801162554,2.1986572500000006,-1.7581383000000002,3.1167619900000005,1.2425801,-0.659669906,-1.98427878,0.344922258,0.295869462,2.2193330000000002,-4.96845966,3.16580381,1.33583226
5884.5,1.6503114700000001,1.5236962299999999,1.75536309,0.06363267289999999,-0.9393657189999999,0.02609257344,-0.9830705639999999,0.987713982,0.6087690349999999,-1.30198155,0.040154621765,-3.53162601,0.20534106900000001,0.3857053105,73.424244,0.29324969798326495,-2.2388543605804445,-5.548325824737549,0.03436374291601198,2.2166432699999996,-1.8590697699999996,3.1080012600000004,1.2638836899999997,-0.646164576,-1.41151778,0.45806379399999997,0.299644419,2.23111634,-4.905140579999999,3.1640690899999995,1.3708271900000002
5894.5,1.6518805300000001,1.52363408,1.7552895,0.0630253128,-0.9519552820000001,0.01539231406,-0.9878478039999999,0.98959211,0.614520458,-1.32354792,0.0455870498,-3.5391056199999995,0.20527368800000004,0.38003558950000005,78.02260879999999,0.29466465562582017,-2.1892034292221068,-5.440502309799195,0.034260871273330606,2.1682034000000003,-1.8125411000000002,3.10704884,1.28565642,-0.612744516,-1.55993673,1.1133675999999997,0.41847500000000004,2.18822379,-4.846039420000001,3.16063846,1.39239267
5904.5,1.65131569,1.5240555300000003,1.7539110999999998,0.06289218330000002,-0.943080145,-0.014570184206,-0.9866295999999999,0.993182003,0.6158518470000001,-1.32632365,0.06458093949999999,-3.24707796,0.204905011,0.283741099,113.8216122,0.183781698346138,-2.2655505180358886,-5.393347120285034,0.034159501147185384,2.24513844,-1.58347215,3.11439226,1.197680304,-0.5973614909999999,-1.34405428,1.5562114700000003,0.49206042500000013,2.24957371,-4.46186855,3.16573907,1.26925016
5914.5,1.65097481,1.52510066,1.75544583,0.0632713436,-0.98502889,0.005817974049999999,-0.985637855,0.992507649,0.609332774,-1.31456186,0.0517773963,-3.8515326300000003,0.20573976200000002,0.354254599,107.7621784,0.24087653458118438,-2.2496134996414185,-5.410162544250488,0.03405976596041972,2.2291399899999997,-1.7177442900000002,3.1518960299999996,1.2524766500000002,-0.6009444949999999,-1.3254791400000001,1.2746233999999999,0.444766935,2.2286437,-5.30751877,3.1855232800000004,1.3432464899999998
5924.5,1.6515169399999998,1.52185404,1.7551741299999999,0.0633889796,-0.953385076,-0.021832134387,-0.991535335,0.993931216,0.6085320999999999,-1.30437267,0.04923685295,-3.2506948,0.204005218,0.3535238850000001,77.1366315,0.2632448125630617,-2.2174381971359254,-5.538958930969239,0.03395997801905087,2.19577736,-1.9120087900000002,3.12303424,1.2417719999999999,-0.637642033,-1.8406471100000001,0.8522935400000001,0.361634964,2.2105036599999996,-4.689589079999999,3.1802599099999997,1.3513086800000003
5934.5,1.6517272000000003,1.5251861899999999,1.7549382700000002,0.0632510083,-1.01028801,-0.006413941099999998,-0.9869212210000002,0.992250235,0.6141904380000001,-1.32271888,0.05689073969999999,-3.8444486600000003,0.205063856,0.354009453,116.60656139999999,0.25699902772903443,-2.2169028759002685,-5.5015472888946535,0.033859369557616495,2.1957285900000003,-1.7571557600000003,3.135627,1.27016156,-0.625160035,-1.32007984,1.12202371,0.38212788,2.21078762,-5.1857522199999995,3.1688023899999997,1.3548969800000001
5944.5,1.6531168,1.52199873,1.7552375699999998,0.0637323849,-1.007220672,-0.0027381309000000026,-0.989008533,0.993026223,0.606159596,-1.31624041,0.04444709293000001,-3.5640989059999995,0.20494399200000002,0.39369368800000004,74.8923784,0.3042085349559784,-2.1427962303161623,-5.511781883239746,0.03375921259780693,2.1216318100000002,-1.9703466900000002,3.1362270800000003,1.34950553,-0.626751312,-1.3658651400000001,1.3348729799999999,0.399874447,2.1467979300000004,-5.0585927,3.18897526,1.4469751
5954.5,1.6512086,1.5252148499999998,1.7547879899999999,0.0627185888,-0.9175878919999999,0.00992922098,-0.982124704,0.9933131099999999,0.6109101270000001,-1.32124462,0.0460953739,-3.8684767800000004,0.205495465,0.388181914,100.04482709999999,0.29233116656541824,-2.2513055562973023,-5.577369642257691,0.033658990457230656,2.22959985,-1.8870384900000001,3.1449575899999997,1.2720294199999997,-0.6446725860000001,-1.5323191899999997,0.8308367760000002,0.31267660399999997,2.248605,-5.23278395,3.18900046,1.37202752
5964.5,1.6522705299999998,1.52335142,1.75447125,0.0617006464,-0.8841776149999999,0.01201847679,-0.989940489,0.9898958030000001,0.613528669,-1.3200975099999999,0.056794363970000004,-2.93797384,0.20440250700000004,0.30735319800000005,80.9171657,0.21767267920076847,-2.275033116340637,-5.589298391342163,0.03355847922567161,2.25332329,-1.8401227599999999,3.1507776499999998,1.2613551600000001,-0.6467354820000001,-1.87511028,0.681238653,0.30016122599999995,2.25710933,-4.325822530000001,3.1985923400000007,1.3402762400000001
5974.5,1.6521487499999998,1.52078591,1.7551907199999999,0.0630359434,-0.892415687,0.01581908572,-0.9802815359999999,0.9895631229999999,0.5996841749999999,-1.2657299800000001,0.053500864599999996,-3.258184172,0.206364241,0.3416771976,84.928378,0.2481588227674365,-2.215132999420166,-5.640654611587524,0.03345776800151714,2.1930305700000003,-1.90556161,3.14156095,1.2997256099999999,-0.660400134,-1.56895127,0.332653502,0.252781955,2.210258820000001,-4.74307904,3.1917721300000004,1.39282409
5984.5,1.65103001,1.5222937199999997,1.7542962799999997,0.06308630559999999,-0.8962122639999999,-0.0002833991399999999,-0.988831113,0.9905256289999999,0.6088253640000001,-1.29248658,0.047686576700000004,-3.293005805,0.20620192200000004,0.350966837,78.7573478,0.2631101422011852,-2.2698208808898928,-5.614991140365601,0.03335691933428542,2.24808589,-1.80337124,3.1641429,1.29519674,-0.651380012,-1.9809505499999998,0.644632362,0.303240483,2.2469187699999997,-4.6130204400000006,3.194218420000001,1.3805665399999998
5994.5,1.65164625,1.51870985,1.7564883700000002,0.0637842964,-0.881857324,-0.011059610050000002,-0.9872382829999999,0.9924466950000002,0.6104827829999999,-1.32362282,0.04196130083,-3.5756995,0.20586782699999998,0.3870409230000001,78.5322326,0.30248077120631933,-2.2055263996124266,-5.576399183273315,0.03325665335153395,2.1842831,-2.0892151599999997,3.1533277799999997,1.32360965,-0.6385752259999998,-1.41077574,0.972010068,0.33780261599999994,2.2056876799999996,-5.15026643,3.21044373,1.42467502
6004.5,1.65120403,1.52134789,1.7554860900000002,0.0635187227,-0.930886892,0.027438989079999997,-0.992739945,0.9940590260000001,0.6102157260000001,-1.3006441499999999,0.046451023999999994,-3.566186834,0.20613914400000005,0.368682989,83.5288108,0.2815514771267772,-2.2205724000930784,-5.604885911941528,0.03315714045487711,2.1991633299999997,-1.9298062999999999,3.1481651800000003,1.29417873,-0.645495586,-1.8350156000000002,0.2317070023,0.26476977799999996,2.2237191800000002,-4.969820659999999,3.2042606900000004,1.39175753
6014.5,1.65143141,1.5235002500000001,1.7548898100000003,0.06397418269999999,-0.9921064489999999,-0.012603917300000003,-0.9899830459999999,0.9913782889999998,0.6069546610000001,-1.2833289500000002,0.05051145203,-3.57019542,0.20446001700000002,0.34606836859999995,100.8157353,0.2532402206212282,-2.2123367309570314,-5.588803720474243,0.033057856088193296,2.1911955,-1.9639715300000002,3.16080316,1.3248292799999999,-0.639331882,-1.5798964699999998,0.459540127,0.295844769,2.20402707,-4.8519105,3.20407097,1.4081773700000002
6024.5,1.6511934499999998,1.52041159,1.75650643,0.0643298605,-0.9464690680000001,0.0061793141,-0.9903685560000002,0.991805286,0.6078316899999999,-1.2988639199999998,0.0521464343,-3.56302041,0.20443851399999996,0.34411624099999993,96.21568719999999,0.23537673726677893,-2.2283342599868776,-5.59984335899353,0.0329589670492207,2.2071969699999996,-2.04545622,3.17711059,1.3319613000000001,-0.641127911,-1.53545924,1.146561973,0.370606882,2.20993462,-5.08216149,3.2165671700000003,1.4166150400000002
6034.5,1.6504380799999996,1.5238669999999999,1.75448537,0.0628161322,-0.902572545,-0.00988679473,-0.988714839,0.9918156760000001,0.610440819,-1.3223861000000001,0.059971437,-3.29007412,0.204998676,0.304250751,105.12425809999999,0.1965374255552888,-2.2965837955474853,-5.614436292648316,0.032860434865953254,2.2754166500000004,-1.8118974600000002,3.1611037599999996,1.25084825,-0.6439609959999999,-1.55474276,0.6453582250000001,0.2938869230000001,2.28254127,-4.62896227,3.2053575000000003,1.32052137
6044.5,1.65197088,1.5221937799999998,1.75553436,0.06294577859999999,-0.929997176,-0.025337761283,-0.9923520690000001,0.992093554,0.6065482550000001,-1.2848340900000002,0.039312531775,-3.8684717699999993,0.204624995,0.400906408,93.92060370000002,0.31546386182308195,-2.231596493721008,-5.683243465423584,0.03276188515806286,2.20988038,-2.05190061,3.1902742500000003,1.34908374,-0.662647211,-1.8469885099999996,0.24591069219999998,0.22107648200000002,2.21558019,-5.40038645,3.2288913999999997,1.45867777
6054.5,1.65178614,1.5253183199999998,1.7548540000000004,0.06284964380000001,-0.9929865400000001,-0.0036676669000000007,-0.990910582,0.992236038,0.607894427,-1.3134253399999998,0.06109238,-2.984107936,0.20494479999999998,0.2975794745,86.966625,0.199875608086586,-2.2251651763916014,-5.657580804824829,0.032663066672691775,2.2038071599999998,-1.9519421099999998,3.17279224,1.30977257,-0.6536817740000002,-1.9934477900000005,0.501757192,0.253584685,2.2292137199999997,-4.500213629999999,3.2275956100000003,1.3731042800000002
6064.5,1.6524760399999998,1.5197150600000002,1.7554682400000001,0.0632900216,-0.911911664,-0.010997039563000001,-0.9841935960000001,0.993738528,0.6145991449999999,-1.32842639,0.04861146295,-3.56214384,0.20579231400000003,0.36342022100000004,91.0342823,0.2811333013698459,-2.187558817863464,-5.638495302200317,0.03256470398960889,2.16649436,-2.08382266,3.1777064200000003,1.3683732100000001,-0.646649692,-2.0463013099999996,0.20070837999999996,0.23357430700000004,2.19355084,-5.11704423,3.2338633700000003,1.4503036200000001
6074.5,1.6513470400000003,1.5230229300000002,1.7549972699999998,0.06346514290000001,-0.9115823939999999,-0.018034527599999996,-0.9860069340000001,0.9923512840000001,0.611308481,-1.3230291200000002,0.05031634329999999,-3.8652157099999997,0.20468243400000002,0.358757081,110.13271850000001,0.24331380873918534,-2.229962968826294,-5.60513482093811,0.032466999632664195,2.20932508,-2.05013955,3.18698631,1.33714318,-0.6354694489999999,-2.28847221,-0.22404605800000002,0.24402758300000005,2.2236590300000003,-5.35010454,3.23203128,1.41835989
6084.5,1.6522813200000002,1.5228529400000002,1.75506612,0.06340875840000001,-0.9196138340000001,-0.01974806805,-0.989228254,0.9938025510000001,0.617138593,-1.3337911500000001,0.0625404104,-3.25075176,0.20542576200000004,0.29467341550000004,107.1042796,0.1835740886628628,-2.233798551559448,-5.6877659320831295,0.03236984513748398,2.21248856,-1.9723861,3.2074255899999997,1.34498578,-0.658130521,-1.5415412199999998,0.1356793261,0.208799804,2.2204156500000005,-4.72844532,3.24929806,1.40324772
6094.5,1.65313932,1.5212527900000001,1.7562176700000003,0.06330143220000001,-0.958040095,-0.009292828,-0.984224363,0.9899742220000001,0.610862853,-1.29213166,0.040337595069999996,-3.8635347099999997,0.205074799,0.414889586,95.48291720000002,0.3461618646979332,-2.1664914965629576,-5.704869413375855,0.03227236869840916,2.14513175,-2.18761358,3.1824204000000003,1.38949102,-0.66165731,-1.6761946799999996,0.14593429549999998,0.222476708,2.1600628199999994,-5.47350809,3.2295606999999995,1.5037675199999998
6102.5,1.6520198333333334,1.5211522333333332,1.7549657333333333,0.0625049765,-0.8757505700000001,0.0017357293333333332,-0.9907481333333333,0.9890973333333335,0.6151631916666667,-1.3122865000000001,0.062372504333333335,-3.374621266666667,0.2056560616666667,0.318817865,96.00377900000001,0.21463821983585754,-2.277949810028076,-5.584340890248616,0.032194534977480836,2.2578089833333332,-2.015231,3.2039723500000004,1.31328155,-0.6254067933333334,-2.025971466666667,-0.192105055,0.2550641633333333,2.259665866666667,-4.9018683166666674,3.2529996499999996,1.3820410166666666
9904.5,1.65551301,1.52501576,1.7582874599999996,0.0621488492,-0.760632816,-0.0714311431,-0.9896204990000002,0.9909340289999999,0.605338589,-1.2887359200000001,0.04257490132999999,-3.5896235400000003,0.20474789,0.39860589150000003,76.4461735,0.32271847650408747,-1.8817434430122375,-5.8195243835449215,0.010499747939975265,1.8788313900000002,-8.505530960000002,4.4239070499999995,3.2901064500000006,-0.277288745,-3.7683619399999997,1.241564403,0.760161847,1.8880174200000002,-11.307587000000002,4.46575643,3.3656804199999995
9914.5,1.65610559,1.5236761300000001,1.7582582299999998,0.06169197550000001,-0.7293091349999999,-0.0636434372,-0.990603177,0.985883655,0.605740296,-1.29841544,0.047459948300000006,-3.2964920699999993,0.20312321399999997,0.3629346345000001,72.5525797,0.2835309639573097,-1.8900304555892944,-5.83175139427185,0.01047302430482179,1.88710528,-8.55840576,4.4180135599999995,3.3091560599999994,-0.27925485200000005,-3.4096740199999998,1.2478862,0.8035180460000001,1.89645339,-11.173261799999999,4.45430373,3.36797746
9924.5,1.65598517,1.5236069300000001,1.7588792200000003,0.061394187799999986,-0.6979809379999999,-0.06459085369999999,-0.989166766,0.9955696960000001,0.5988963999999999,-1.2277563099999997,0.053745060420000004,-3.303611419,0.20432006500000002,0.3386176596,83.3083773,0.25664369873702525,-1.929650640487671,-5.6603203296661375,0.010446736600727449,1.9271325300000002,-8.4724568,4.42532151,3.2418703800000004,-0.240969773,-3.14847037,1.7178528199999998,0.8442934080000001,1.9303900499999997,-10.6088201,4.47405604,3.3037213000000003
9934.5,1.65600083,1.52339388,1.7582930399999999,0.0606777216,-0.672988714,-0.057994755499999995,-0.9889899740000001,0.9888336800000002,0.6066302969999999,-1.3128381,0.0497501369,-3.6407087,0.20476561899999995,0.355249926,101.67895750000001,0.2575973249971867,-1.9726339817047118,-5.526171445846558,0.010421225387590213,1.9704358399999997,-8.731899299999998,4.41511912,3.2543506199999994,-0.21089974159999997,-3.6247574200000003,2.2123889,0.8867553899999999,1.9935371100000001,-10.3237981,4.45839387,3.28478667
9944.5,1.6566362099999998,1.5262065600000003,1.75879437,0.06222245070000001,-0.7549728809999999,-0.05602712829999999,-0.984302835,0.9903762110000001,0.6077044930000001,-1.3028741799999999,0.0396101643,-3.5940181000000004,0.204541766,0.4064000470000001,78.0157796,0.32652406208217144,-1.7821975350379944,-5.773121547698975,0.010396018392743792,1.7794488499999996,-8.53431957,4.435910939999999,3.4435301000000003,-0.26434549899999993,-2.6892786299999996,3.41531648,0.9923136280000001,1.79808722,-11.1941257,4.479478629999999,3.49903142
9954.5,1.6552697900000002,1.52508501,1.7579297400000002,0.06156952,-0.7208741219999999,-0.06965506978,-0.990094064,0.9916208660000001,0.5989308529999999,-1.25754833,0.0654702095,-3.5997626400000002,0.20622675899999998,0.29248019500000005,133.79668690000003,0.18084787018597126,-1.991977322101593,-5.841498708724975,0.01037036472335704,1.98908691,-8.21363368,4.43368404,3.1658414399999995,-0.278634379,-2.2858651199999995,4.30674929,1.069782777,1.99696359,-10.440553269999999,4.47281441,3.1958866699999997
9964.5,1.65573938,1.52440628,1.7587327299999997,0.060556882,-0.616842439,-0.05440423848999999,-0.9866596769999999,0.9912504070000001,0.6043383729999999,-1.27296584,0.0554513249,-3.238696474,0.20559581600000004,0.31706664240000004,84.26658543,0.21481400094926356,-2.027309739589691,-5.907532978057861,0.010344537758341644,2.0242847299999998,-8.366798229999997,4.44374434,3.22116653,-0.29237594100000003,-2.5160899700000003,3.8574461700000002,1.040874206,2.01663722,-10.64482982,4.47226407,3.2777530599999998
9974.5,1.6560113900000002,1.52568707,1.7612361099999998,0.0617869149,-0.7301544350000001,-0.0588069135,-0.99081746,0.99183472,0.6058623590000002,-1.28459849,0.05411549788000001,-3.2417875439999997,0.204970321,0.32654158499999997,88.9813652,0.23152612932026387,-1.883839762210846,-6.020136833190918,0.010318340035444616,1.88057546,-8.707417699999999,4.447676169999999,3.3355297399999997,-0.316283835,-2.8774576400000003,2.5888389700000003,0.887216728,1.9085976499999997,-10.82239965,4.49602737,3.3712215399999996
9984.5,1.65575639,1.5262713600000002,1.7612442299999997,0.0612878214,-0.728142981,-0.061830819100000003,-0.9904402680000001,0.9859710459999999,0.600621433,-1.2827497300000001,0.04278585829999999,-3.8821494700000003,0.202833744,0.4149736719999999,86.926915,0.3181544438004494,-1.9282884478569031,-6.054051065444947,0.01029176472766745,1.9249638699999998,-8.89413394,4.454554760000001,3.29457067,-0.32295510299999997,-2.36017868,1.9709578099999998,0.794893316,1.9330569499999999,-12.172107550000002,4.48753049,3.3753585
9994.5,1.6556347800000002,1.5240018700000002,1.7610386300000003,0.06181537440000001,-0.6604070590000001,-0.07182713444000001,-0.991651092,0.9897746360000002,0.606399152,-1.27816358,0.0533683915,-3.5500781600000004,0.204322931,0.328842795,104.29966770000003,0.2085105527192354,-1.9353652238845824,-6.171516370773316,0.010264926515676103,1.9317935,-8.856721100000001,4.4606087699999994,3.3443833599999997,-0.34785836500000006,-2.58239898,1.5790222200000001,0.7697014640000001,1.9408983699999998,-11.735901700000003,4.490019380000001,3.38556227
10004.5,1.6569125399999998,1.52367226,1.76116639,0.06091665040000001,-0.668447246,-0.0705413475,-0.9865854439999999,0.99205217,0.6138269479999999,-1.30962173,0.0554657796,-3.88369993,0.20326748499999997,0.35360319099999993,126.80490690000002,0.25076606720685957,-1.8990275382995605,-6.267115306854248,0.010237710929146548,1.89525954,-8.936777150000001,4.45279162,3.29389266,-0.36794614899999994,-2.4231272400000003,2.03707524,0.785841239,1.90694468,-11.6040312,4.49793431,3.3432602000000005
10014.5,1.65622186,1.5267225,1.7592091399999998,0.06233251579999999,-0.7135090119999999,-0.08049846590000001,-0.9868122589999999,0.984902224,0.597549187,-1.2479350200000001,0.0564351551,-3.3123629800000005,0.20498727700000002,0.330109761,84.99084509999997,0.26141552701592446,-1.843637430667877,-6.1566314697265625,0.010210311647831325,1.8401337300000002,-8.616782000000002,4.44066676,3.3858503000000004,-0.34304682,-2.68934405,2.3402405399999995,0.847654281,1.8596225499999999,-10.631458749999998,4.48139965,3.4211895999999995
10024.5,1.6560573600000001,1.5251179900000003,1.7602132000000001,0.060827944,-0.6890060549999999,-0.07838444759999999,-0.984720645,0.993436881,0.606760951,-1.26946829,0.048343629939999994,-3.2826886859999993,0.20464479,0.34578191899999994,82.314358,0.26007009018212557,-1.9778837203979491,-6.203577280044556,0.010183139216295585,1.9742932899999999,-8.56614253,4.46383919,3.32033314,-0.35249512800000005,-2.33430734,2.7125661500000002,0.894956073,1.9813672500000004,-11.3445342,4.501279339999999,3.38493298
10034.5,1.65561748,1.52346288,1.75976503,0.06279536720000001,-0.722747095,-0.0632462224,-0.9911543170000001,0.987274779,0.5928701169999999,-1.23472016,0.0544317234,-3.605525096,0.20497880300000001,0.312512327,113.06101720000001,0.18815646767616273,-1.818628180027008,-6.032235193252563,0.010155933673065224,1.81543403,-8.65782938,4.4518878399999995,3.43485931,-0.31438503800000006,-2.32900096,3.94023938,1.047107973,1.8241326,-10.6437765,4.49099644,3.4680151500000003
10044.5,1.65621655,1.5284417099999998,1.7599386300000002,0.060732729500000006,-0.677012513,-0.07208653849999999,-0.9862540989999999,0.990190993,0.607565678,-1.2689107499999999,0.058606262799999996,-3.5672805949999997,0.20310050800000004,0.332173393,101.6636376,0.2058024562895298,-1.973693597316742,-5.688508605957031,0.010129518848989834,1.9712744,-8.451460099999998,4.45909305,3.2170657499999997,-0.23877137899999998,-2.19163395,5.15902806,1.1542667100000001,1.97299574,-11.1082632,4.49852948,3.27291212
10054.5,1.65616947,1.52901278,1.7606172299999998,0.06084551380000001,-0.748804733,-0.0634750691,-0.987658699,0.9868363519999999,0.599044183,-1.2658341499999999,0.05619453279999999,-3.3032644999999996,0.202723518,0.325292395,98.17141260000001,0.2296248223632574,-1.9779801726341248,-5.814779424667359,0.010104069355034793,1.9752963299999997,-8.480474700000002,4.47292152,3.2373472399999996,-0.265572802,-2.1529762900000002,4.783939439999999,1.06730522,1.97855065,-10.804589799999999,4.511338230000001,3.29424675
10064.5,1.6564749499999998,1.5247844599999998,1.7613107999999997,0.061430956999999994,-0.7228414320000001,-0.07327401279999998,-0.9899370550000001,0.988007695,0.604042435,-1.27955599,0.05086281345,-3.2750395500000002,0.20395270999999998,0.3462581349999999,82.12912930000002,0.2584862310439348,-1.8332260966300964,-5.942380619049072,0.01007856173758022,1.8302761200000002,-8.94804745,4.464084649999999,3.39971511,-0.29263702999999996,-2.5243043799999993,3.56170112,0.9883571420000001,1.8530583200000001,-11.69041695,4.50326556,3.4529307399999993
10074.5,1.6560806,1.5241712299999999,1.76083763,0.061400053600000004,-0.6963029209999999,-0.0622561809,-0.987626501,0.989466247,0.601270128,-1.2824638900000003,0.05597060660000001,-3.26984284,0.20374479499999998,0.31632657,90.8471066,0.19982729591429232,-1.9261959075927735,-5.910334873199463,0.010052775060984872,1.92333068,-9.0455694,4.45871262,3.33822888,-0.284952223,-2.37954848,3.93965108,1.0361205850000001,1.93807018,-11.0703361,4.50545526,3.38462587
10084.5,1.6565737500000002,1.5250282499999999,1.76097724,0.061114078399999994,-0.7504020409999999,-0.057832486599999997,-0.9906107260000001,0.9951212899999999,0.608768457,-1.28560221,0.050883131250000005,-3.90490463,0.204369647,0.364145172,124.3828174,0.26325024366378785,-1.9501059293746947,-5.86243462562561,0.010027059299024905,1.9473594600000006,-8.91918435,4.480766269999999,3.2760802000000004,-0.27382958059999996,-2.2095005999999997,4.57412356,1.10423775,1.94368221,-11.157563800000002,4.503185960000001,3.33457064
10094.5,1.6562504,1.52566472,1.7607901899999998,0.0611647615,-0.640182126,-0.06925517769999999,-0.9890359590000001,0.993928801,0.606553949,-1.2769701,0.050850969559999994,-3.8995793300000003,0.20451486300000005,0.369172665,117.36553889999998,0.26953154951334,-1.9617449402809144,-5.942358207702637,0.010001460421572532,1.95883918,-8.747474299999999,4.48485307,3.3004101299999995,-0.29047558700000004,-2.2310827,4.6500033400000005,1.03011032,1.9647555,-11.073224100000001,4.5135095,3.3565912499999997
10104.5,1.6566450999999998,1.52573486,1.7592406800000002,0.0601445476,-0.744940429,-0.0454762202,-0.9891495500000002,0.9903011389999999,0.611253243,-1.34322911,0.0748519147,-1.9830311760000001,0.205625319,0.20460845239999997,68.5755176,0.11682624500244856,-1.9755436897277832,-6.078879308700562,0.009975647039364485,1.9723567799999997,-8.36984,4.467298940000001,3.2616780800000003,-0.31938621,-1.91685893,4.3365331099999995,1.00793387,1.9873845199999998,-9.7326285,4.51362289,3.27262242
10114.5,1.6563288399999998,1.5270713500000002,1.7617513200000001,0.061297005599999996,-0.732025228,-0.07167798410000001,-0.9946113599999998,0.9904835390000001,0.60837259,-1.27710469,0.056660823400000004,-3.59157563,0.203533951,0.330350504,108.8716294,0.2262130357325077,-1.9485292077064513,-6.396616649627686,0.009949270059533971,1.94467225,-8.711704540000001,4.46865873,3.3235933500000003,-0.38755624399999994,-1.8651933299999999,4.252387659999999,0.9279093660000001,1.9429750700000004,-11.52948895,4.504683390000001,3.38132417
10124.5,1.6555666499999997,1.52573808,1.76086515,0.061844168,-0.7594086569999999,-0.0741334368,-0.9870882340000001,0.9927040929999998,0.6026308330000001,-1.26166999,0.05967434549999999,-3.564250304,0.20353314400000003,0.2992412320000001,124.88357950000002,0.18237440828233958,-1.9116899371147156,-6.326490068435669,0.009922231488159971,1.9080024599999998,-8.627139629999999,4.48600031,3.3744414899999997,-0.37153615700000003,-2.50903518,2.94426642,0.841009616,1.93223412,-10.610573499999997,4.527122790000002,3.4058476899999994
10134.5,1.65655748,1.52513224,1.7611867799999998,0.0622552732,-0.71830989,-0.0945710868,-0.9902511869999999,0.9833992220000001,0.6010750139999999,-1.2670633500000001,0.0460032824,-3.8915063100000005,0.20464114700000002,0.3924112300000001,93.0410804,0.2926419243216515,-1.828183662891388,-6.417908477783203,0.009894939293887925,1.8243184,-8.99835165,4.49067198,3.4711099000000005,-0.390525608,-2.38244282,2.11632905,0.761127722,1.83244182,-12.116509699999998,4.520295289999999,3.5351588899999995
10144.5,1.65655258,1.52116575,1.76224956,0.0621932115,-0.656056726,-0.0632494015,-0.9918451939999999,0.9887155059999999,0.6049438300000001,-1.27004385,0.048477291670000006,-3.2630204449999995,0.20368357799999998,0.35306491700000003,79.12562299999999,0.26415772531181575,-1.894580352306366,-6.485917234420777,0.009867447505005063,1.8905885800000004,-9.3661239,4.49289314,3.394746729999999,-0.4044178219999999,-2.8380342099999996,1.5149408599999998,0.726095256,1.88220481,-11.604800450000003,4.51846416,3.45979729
10154.5,1.6565332100000003,1.52268515,1.7620844500000001,0.0616057946,-0.6053131030000001,-0.0618899823,-0.9917957849999999,0.987380598,0.602055933,-1.2767389199999999,0.05012792949999999,-3.8638782199999993,0.205495347,0.38054453,101.085341,0.277954463660717,-1.878201174736023,-6.302620792388916,0.00983993829861961,1.87461946,-9.404487300000001,4.49133946,3.4817779300000007,-0.363899285,-2.7302883,1.3652052700000001,0.735823938,1.8900696,-12.302082299999999,4.53124276,3.5400013500000007
10164.5,1.6560544500000003,1.52421498,1.76158935,0.0627650317,-0.781862343,-0.0718680915,-0.9908849319999999,0.988186622,0.603339595,-1.2762748800000001,0.0442648982,-3.596021195,0.20442273600000002,0.383988494,83.509158,0.2813791148364544,-1.8239304184913636,-6.348571300506592,0.009812854842926485,1.82026937,-9.11166745,4.494946499999999,3.4339412400000002,-0.37301810500000004,-2.938769,1.538118456,0.7610700720000001,1.8389690600000002,-11.746221799999999,4.538509609999999,3.4970460799999996
10174.5,1.65616569,1.52867519,1.7605655500000001,0.0610573836,-0.71191294,-0.05288365583,-0.986030203,0.991744583,0.6011383469999999,-1.2754121500000002,0.060574882399999995,-2.993068236,0.20493497600000002,0.292515767,85.84619180000001,0.2062188107520342,-1.992127776145935,-6.421893119812012,0.0097856423432649,1.9883292300000002,-8.6601176,4.519103750000001,3.34704188,-0.388052977,-2.44599279,2.12010986,0.7885164340000002,1.983135,-10.7909305,4.5493111399999995,3.3914325399999994
10184.5,1.65681054,1.5232417400000002,1.7627020299999998,0.06102739850000001,-0.718726566,-0.0859214829,-0.9864925950000002,0.983721812,0.5962696029999999,-1.21880141,0.047838298200000004,-3.55294838,0.203418516,0.38361584,84.58977339999998,0.2954342134296894,-1.8961831331253052,-6.23397045135498,0.009758476360661652,1.8927994599999998,-9.48923945,4.50065301,3.36173259,-0.3466251509999999,-2.36860468,2.43936893,0.837347627,1.9046944799999999,-12.12299655,4.54340071,3.4303355000000004
10194.5,1.65646723,1.5267358899999999,1.7607263199999998,0.0613235005,-0.793464173,-0.056570444799999994,-0.987350224,0.9924675109999999,0.6030568620000001,-1.2761758699999999,0.051874784699999996,-3.304721155,0.204458963,0.34909163099999996,82.21050290000002,0.2599987018853426,-1.9262307167053223,-6.162009143829346,0.009731846605250614,1.9230154499999998,-8.82418375,4.52532455,3.3910674999999997,-0.330291565,-2.2406786100000002,3.43697737,0.945217879,1.9218966800000001,-11.2126026,4.55125841,3.4516277000000004
10204.5,1.6559146700000003,1.5269055599999999,1.76236813,0.0609298262,-0.6701963609999999,-0.09091080609999999,-0.9916249699999999,0.989339073,0.6004759350000001,-1.2383866100000003,0.054388180200000004,-3.238777774,0.203094827,0.32834574200000005,86.0972863,0.22919188663363457,-2.0171001315116883,-5.5933514595031735,0.009705986844980996,2.0150919800000002,-9.163084649999998,4.50382641,3.32476124,-0.20683135300000002,-2.41624789,4.545495149999999,1.1099955500000003,2.03551076,-11.7066208,4.54824888,3.37432789
10214.5,1.6569904899999996,1.5261064700000002,1.7615963399999999,0.0612489905,-0.7998640189999999,-0.06744633850000001,-0.988638176,0.9907322060000002,0.601915827,-1.2622709,0.05155892399999999,-3.8743999700000002,0.20464643300000002,0.3714394900000001,119.7071962,0.28067565262317656,-1.8631313562393188,-5.703887510299682,0.009681302861841524,1.8609037000000002,-9.229031500000001,4.495418339999999,3.3484720099999996,-0.23000617199999995,-2.19171345,4.986607209999999,1.204211534,1.8842322000000002,-12.400170099999999,4.536781830000001,3.4026306100000006
10224.5,1.65603105,1.52544337,1.7604962199999998,0.061602768100000004,-0.706863221,-0.0834600177,-0.9892513110000001,0.9919814760000001,0.603164517,-1.26685205,0.06391025089999999,-3.2938135199999996,0.20432008100000001,0.285696334,119.2026727,0.1784590534865856,-1.9134408831596375,-5.77570858001709,0.009657129660656448,1.91107613,-8.850410299999998,4.4918317000000005,3.3234579500000003,-0.24481441299999998,-2.14486116,4.77288663,1.161087064,1.91069407,-11.179152949999999,4.5436013,3.3687142800000003
10234.5,1.6568123499999998,1.5251883300000002,1.7600649499999999,0.062412106300000006,-0.7643825200000001,-0.07377819420000001,-0.9916642699999999,0.990683662,0.6019241559999999,-1.2857046899999998,0.05687042639999999,-3.6018853060000007,0.204252339,0.331038811,110.70335680000001,0.21392955258488655,-1.7850277304649353,-6.044837427139282,0.009632664757030502,1.7821168,-8.862710400000001,4.50788644,3.5298714799999997,-0.30211142,-2.58131501,3.7191672,1.0182088409999999,1.7833553299999998,-11.26047535,4.541691660000001,3.5734931100000003
10244.5,1.65735721,1.52652135,1.76156522,0.061519968599999995,-0.730716104,-0.0761547393,-0.986648102,0.986431227,0.602981974,-1.25474448,0.050501309400000007,-3.611757355000001,0.20374792999999997,0.354069757,93.00774419999999,0.25083428919315337,-1.854923176765442,-6.002127027511596,0.009607736843782268,1.8521153700000004,-9.19154996,4.5224241,3.4701550500000002,-0.29218699699999995,-2.55375934,4.2563635799999995,1.026190773,1.85145479,-11.7267982,4.54409425,3.52256443
10254.5,1.6563237699999998,1.52201849,1.7619829599999999,0.0620684565,-0.68975524,-0.0664462783,-0.988439329,0.992947865,0.59972124,-1.2554370700000004,0.045491107756,-3.607556426,0.20506261600000003,0.370351798,96.4472851,0.2880332175642252,-1.8502118349075318,-5.953851985931396,0.009582713514151398,1.8475177799999998,-9.371979,4.51548232,3.48149809,-0.281074874,-2.20205261,4.65301208,1.0596734929999998,1.8490216999999998,-11.54115505,4.549393139999999,3.54736753
10264.5,1.6576044499999998,1.5247487899999999,1.76240067,0.062450588800000005,-0.7096796700000001,-0.054971210400000005,-0.989610796,0.9888123710000001,0.6051499709999999,-1.28888556,0.04087562633,-3.91551276,0.204433924,0.42581351700000003,90.53904480000001,0.3563020914793015,-1.7617099165916443,-5.960844659805298,0.009557703656446552,1.7590153000000002,-9.337065250000002,4.51024877,3.5133254299999996,-0.28186084,-2.1142781200000003,5.2661698999999995,1.0852974529999997,1.7703709399999998,-12.186782399999998,4.556391710000001,3.5877375000000007
10274.5,1.6557677600000003,1.52716028,1.7618836500000001,0.0618870594,-0.7104918139999999,-0.0911319129,-0.9844716979999999,0.987013711,0.603548173,-1.27146362,0.0455005987,-3.6074192599999995,0.20435049100000002,0.374761958,92.2881613,0.2946010138839483,-1.9336268305778503,-5.9258873462677,0.009532732106818567,1.9310175700000003,-9.132678049999999,4.5240839,3.4414851000000004,-0.273630396,-2.13322984,3.9766445800000008,0.98818417,1.93497849,-11.841950399999998,4.562357969999999,3.5116739700000004
10284.5,1.65639987,1.5233421000000003,1.7623751000000003,0.0622479361,-0.7327242229999997,-0.08178472913000001,-0.9907676999999998,0.988162303,0.60907236,-1.2635239500000002,0.0453237713,-3.9028107100000007,0.20487063600000002,0.38927885500000003,99.85721140000001,0.2908172011375427,-1.8398109555244446,-6.128552198410034,0.009507804050650654,1.8368015100000001,-9.5157319,4.52964617,3.51817305,-0.316445319,-2.51396822,3.38708941,0.9643490400000001,1.8578792300000004,-12.11540725,4.56971578,3.56995956
10294.5,1.65635982,1.52572984,1.76153285,0.06127200070000001,-0.661993465,-0.07454068780000002,-0.9906111430000001,0.986167615,0.605822723,-1.30923645,0.051352457,-3.6026383059999993,0.203711904,0.3548995406,99.0859805,0.25377765819430353,-1.9674022197723389,-6.139399290084839,0.009482623665665948,1.9643858900000002,-9.199326,4.52879067,3.39661318,-0.31802156800000003,-2.79460721,4.15936641,0.984243978,1.9771548500000002,-11.7168243,4.5777737,3.4509568
10304.5,1.6566984899999997,1.52546189,1.76146991,0.062073907100000006,-0.699583911,-0.0664459355,-0.9885976949999999,0.9869694450000001,0.6035515509999999,-1.27435549,0.0459894011,-3.030981873,0.20384077600000006,0.35223894299999997,61.3040668,0.2745950624346733,-1.8572702407836914,-6.237748813629151,0.009457154451511242,1.8540693600000004,-9.34096205,4.538011330000001,3.56523519,-0.338367671,-2.4177913600000003,3.1220515300000007,0.913604005,1.85383004,-11.269090449999998,4.56698334,3.6151321199999997
10314.5,1.65719897,1.5256361699999998,1.76107008,0.0618944403,-0.658763561,-0.06630675999999999,-0.9912025309999999,0.992341297,0.6075027399999999,-1.28136506,0.053400245400000004,-3.2911642,0.20549879799999998,0.34480573499999995,74.3729163,0.23613606356084346,-1.787656593322754,-6.159702491760254,0.009431513929061875,1.7846296600000002,-9.14413072,4.52615885,3.55384271,-0.320852288,-3.06014533,2.9229548700000003,0.895968914,1.79222245,-11.45778495,4.5677159099999995,3.6049841900000006
10324.5,1.6563348699999998,1.5227346999999998,1.76198963,0.06142188950000001,-0.6452948110000001,-0.0745802293,-0.987752798,0.9898072969999999,0.605658324,-1.29298556,0.062099617100000004,-3.2617983180000003,0.204207745,0.30002253,97.09421599999999,0.19419563021510838,-1.9563356518745423,-6.052139234542847,0.00940603576769886,1.95354089,-9.343025,4.54183511,3.39362753,-0.29703737499999994,-2.9360244599999996,2.19537674,0.834885092,1.9672512100000001,-11.651046699999998,4.5828690199999995,3.42611378
10334.5,1.65670093,1.5276162699999998,1.76005738,0.062727415,-0.7624377280000001,-0.06801254385000001,-0.9915261750000001,0.9851737970000001,0.6014492229999999,-1.26508092,0.04301418268,-3.5911711260000003,0.203887306,0.370453265,93.2614738,0.29944584853947165,-1.7503299236297607,-6.032797479629517,0.009380859879229821,1.7475883700000001,-8.930260950000001,4.537079629999999,3.5718160699999997,-0.29215035500000003,-3.0096903399999997,1.76430038,0.8174347039999998,1.7643661400000004,-11.1876347,4.57393042,3.6262865399999997
10344.5,1.65621618,1.5260665000000002,1.7620554,0.06117395890000001,-0.739542012,-0.055453906,-0.9900493440000002,0.9905601770000001,0.605985571,-1.28032142,0.057871527469999996,-3.2641156899999997,0.20334971400000001,0.31125301600000005,97.29026100000002,0.23648467771708964,-1.9022820353507996,-5.91967248916626,0.009356118929774384,1.89978165,-9.451517200000001,4.52486922,3.4260535699999997,-0.267194224,-2.9831121,1.85030985,0.8438429020000001,1.9215491100000002,-11.41527,4.5740665499999995,3.46322026
10354.5,1.6569971899999998,1.52609745,1.76149364,0.06144738820000001,-0.702141047,-0.0801161779,-0.9927267799999999,0.9919026800000001,0.612026417,-1.2909135199999997,0.06114347960000001,-3.564222606,0.20533134100000003,0.31258257899999997,121.9430699,0.20246082879602909,-1.8815927624702453,-6.06190447807312,0.00933152216899227,1.87882126,-9.313915900000001,4.538632870000001,3.50608427,-0.296916742,-2.9821415499999997,2.42380368,0.8889521869999999,1.87919232,-12.012646399999998,4.57731268,3.55698526
10364.5,1.6570688699999998,1.5253039999999998,1.76134528,0.061466697800000004,-0.75542627,-0.0918448562,-0.988405977,0.990037099,0.610994407,-1.2737307199999999,0.04141293925,-3.9089169900000003,0.20560160100000005,0.40840782999999997,94.5847676,0.3290819302201271,-1.8114805698394776,-5.742219924926758,0.009306960933086608,1.8093594900000003,-9.31489423,4.55111778,3.55820686,-0.227829968,-3.0739596899999997,2.25814248,0.9197543620000002,1.82218262,-11.8723192,4.58241079,3.6190767100000008
10374.5,1.6567723399999998,1.52415042,1.76288462,0.06202125580000001,-0.7255144330000001,-0.07271736380000002,-0.9897308559999999,0.9872624479999998,0.6015399450000001,-1.27088357,0.0502416391,-3.8788332199999997,0.20427843400000004,0.368636602,112.40093089999998,0.26264720037579536,-1.8259202003479005,-5.704580688476563,0.009283001648897315,1.82388543,-9.6965204,4.5455172500000005,3.54376565,-0.21911160300000004,-3.0935254700000003,2.00371595,0.9022447530000001,1.83707267,-12.7053382,4.585363160000001,3.59304879
10384.5,1.65766229,1.52148842,1.7643593100000001,0.06190020780000001,-0.6985901699999999,-0.0770572019,-0.9918103840000001,0.9886559970000001,0.603573833,-1.2695016399999999,0.049374983,-3.5632003100000005,0.206389659,0.370532121,89.94028639999999,0.2925462737679482,-1.7630946516990662,-5.580111932754517,0.00925958540217467,1.76131751,-9.731908400000002,4.5408167200000005,3.61287254,-0.19186377999999998,-2.9948768500000003,2.8675805500000004,0.994906076,1.7706468899999996,-12.1265173,4.578909540000001,3.6687942799999993
10394.5,1.65816074,1.52611095,1.76431432,0.0622752934,-0.7897332429999999,-0.0772392662,-0.9920708140000001,0.9908528999999999,0.5898061010000001,-1.2032672299999998,0.0435399482,-3.58902416,0.20446200499999997,0.3998019884,75.1717348,0.3082974418997765,-1.7488778233528137,-5.338990020751953,0.00923672408368591,1.7475862899999999,-9.33305337,4.552304690000001,3.5555034600000006,-0.139763022,-2.59573448,4.78065933,1.19664789,1.7612385,-12.076617399999998,4.591528780000001,3.6251835100000003
10404.5,1.65581495,1.5271444200000002,1.76763962,0.06169679300000001,-0.72635394,-0.0460228582,-0.988103076,0.984554956,0.601313909,-1.2621616900000003,0.05402774450000001,-3.88711505,0.20368122800000005,0.338423433,118.3187189,0.22098371982574463,-1.9270637035369873,-4.602322125434876,0.009215040281673626,1.9272293999999999,-9.21787745,4.540871999999999,3.47279999,0.017997563799999998,-2.40452911,6.154818800000001,1.4840376000000002,1.93009798,-12.364923899999999,4.58324998,3.5293436
10414.5,1.6563345200000001,1.5259546099999999,1.7709047999999998,0.0600091355,-0.598547213,-0.09927137659999999,-0.9881184019999999,0.9929915609999999,0.6146288520000001,-1.29205708,0.05676016269999999,-3.6078817460000003,0.204691447,0.321388471,122.59064330000001,0.23231445476412774,-2.034027886390686,-4.1411386013031,0.009195587658935519,2.03510231,-9.2074276,4.555713389999999,3.39053149,0.1168108721,-2.17264255,8.08252312,1.7663575000000002,2.0497524,-11.209523549999998,4.60909941,3.4323474500000004
10424.5,1.65790447,1.5250401300000003,1.7715382299999998,0.061727421299999995,-0.7219571960000001,-0.0579964031,-0.9898817500000001,0.9882302299999999,0.6082790049999999,-1.2981406899999999,0.03990681619999999,-3.9345020699999997,0.20490535600000004,0.40503269,85.36308499999998,0.29866390973329543,-1.7861950635910033,-4.5231507301330565,0.00917749906366596,1.78652327,-9.697925999999999,4.562086819999999,3.63369669,0.0357443505,-2.5619328,7.868442799999999,1.61614033,1.79179037,-12.27569605,4.592534849999999,3.69974513
10434.5,1.6566430799999998,1.5255292200000001,1.77056206,0.06281667269999999,-0.708426054,-0.086446824,-0.9884829289999999,0.9826449549999999,0.607828581,-1.27159449,0.0574508331,-3.5785177500000005,0.204256612,0.30506085400000005,120.90420920000001,0.18585160411894322,-1.7787698984146119,-5.369672775268555,0.009158534153646801,1.7774486799999998,-9.4109887,4.5598478,3.64937915,-0.1442247394,-2.0571529899999996,6.33732439,1.3385139700000002,1.7875776199999998,-11.1415852,4.59296077,3.6766653499999995
10444.5,1.6579684800000003,1.5282661599999998,1.77476475,0.06246363749999999,-0.784400769,-0.0722430987,-0.9897419810000001,0.987462646,0.6035397520000001,-1.2594766300000002,0.044595706767000004,-3.6248717,0.20350769600000002,0.38436106899999994,98.2295859,0.3198019042611122,-1.6851223349571227,-5.518266677856445,0.009137804002228092,1.68352004,-9.37828085,4.541639249999999,3.60022194,-0.17532087300000002,-2.2588053599999998,6.4462486,1.32906668,1.6839620399999997,-11.7081847,4.57958921,3.6727967799999997
10454.5,1.6568896499999997,1.52456159,1.77203251,0.06208735260000001,-0.656341759,-0.09499111170000002,-0.987656724,0.9920299079999998,0.606828557,-1.26340133,0.03844469164000001,-3.6145533559999996,0.20421341499999998,0.403467712,81.11950449999999,0.3173711024224758,-1.8439639210700989,-6.085397529602051,0.009115546664667235,1.84126996,-9.70233705,4.57334301,3.5974055199999997,-0.295449155,-2.31344051,5.090408500000001,1.10125666,1.8479285299999997,-12.4323151,4.60363364,3.67050516
10464.5,1.65827765,1.5258952100000003,1.7726243399999997,0.06186836050000001,-0.734118072,-0.0648492282,-0.99093585,0.993713623,0.609847959,-1.2935514100000003,0.045492606000000005,-3.6173114500000003,0.204399042,0.39323537399999997,82.2466174,0.3129791900515556,-1.720188558101654,-6.380505084991455,0.00909165054693613,1.7169374000000002,-9.692158099999997,4.57492869,3.6344062200000002,-0.357515017,-2.48952262,3.74656,0.8909349569999998,1.7416457700000003,-11.936320499999997,4.61289071,3.6794291199999996
10474.5,1.65762749,1.52272757,1.7771475899999998,0.0621576814,-0.6318858279999999,-0.06891011629999999,-0.9929253619999999,0.989700959,0.606981227,-1.2889831299999999,0.0440265378,-3.9005371500000003,0.20436542900000002,0.400569929,91.02822139999999,0.2999929577112198,-1.7807665944099427,-6.540315437316894,0.00906629754443509,1.7772230399999998,-9.6762722,4.576307439999999,3.6609948599999997,-0.39070455000000004,-2.18434594,3.76932997,0.8932214100000001,1.7791383800000002,-12.6777238,4.609077839999999,3.7275711
10484.5,1.65717076,1.52605074,1.77653739,0.061050268000000005,-0.595178206,-0.059633449599999985,-0.9920001460000002,0.9921198820000001,0.6133638029999999,-1.30569705,0.05584631650000001,-3.604190196,0.20547372,0.34344234100000004,100.25960359999999,0.24150751829147338,-1.9118765950202943,-6.462255573272705,0.009040447058101163,1.9085011399999996,-9.613370649999998,4.57991439,3.52004533,-0.373265069,-2.4668201299999994,3.4525883,0.8217903310000001,1.9228131300000002,-12.494939599999999,4.62049939,3.56468044
10494.5,1.65524227,1.52482808,1.77174939,0.0614230478,-0.637940717,-0.0825810632,-0.990451172,0.984322615,0.6003204390000001,-1.28198398,0.0539807736,-3.9101318299999996,0.20430909800000002,0.368346329,107.66890349999998,0.26399558037519455,-1.99074866771698,-6.783126020431519,0.00901433577569736,1.9867760200000002,-9.6049796,4.5731606,3.4448533100000005,-0.44056748399999995,-2.56722976,2.9333317699999997,0.745680691,2.0136606,-12.1511541,4.623986790000001,3.48421375
10504.5,1.6574863200000003,1.52512931,1.77705387,0.0613994224,-0.6987247539999999,-0.0522510507,-0.9871297309999999,0.990633385,0.609485936,-1.32856945,0.037819728000000004,-3.9118459900000007,0.20258423000000003,0.423556227,88.15536230000001,0.34164281040430067,-1.83339421749115,-6.718233728408814,0.00898768573917153,1.8295654600000002,-9.8732398,4.5854064800000005,3.60823977,-0.425889409,-2.2669235599999995,2.7530787500000002,0.705607867,1.8322959,-12.4110871,4.62304266,3.6810178300000005
10514.5,1.6580731400000002,1.5252097499999997,1.7748458000000003,0.0620722915,-0.665215914,-0.0886075854,-0.9919231269999997,0.9895336350000001,0.5997158180000001,-1.2275041000000002,0.044809259,-3.917311610000001,0.20549141200000004,0.40485547000000005,84.8126882,0.307668125629425,-1.7714505434036254,-6.715399599075317,0.008960865329867498,1.76764636,-9.653447449999998,4.58455306,3.662617890000001,-0.4243895889999999,-2.80090827,2.21816241,0.7164151790000001,1.7766658,-12.220698500000001,4.62541959,3.7158355000000007
10524.5,1.6578696499999999,1.52439392,1.77497203,0.061342131200000004,-0.606585249,-0.07164256639,-0.990184856,0.9867738460000002,0.606049632,-1.2778113699999998,0.0630494393,-2.660047452,0.20429065,0.2759239194,70.33455769999999,0.1752057071775198,-1.8885259747505188,-6.488919401168824,0.008934291848351882,1.8851703,-9.7132974,4.582648709999999,3.5105838899999995,-0.37548102800000005,-2.7823315199999996,2.0878770199999996,0.7493534020000001,1.8867253599999998,-11.3868574,4.62047984,3.5478535
10534.5,1.6566974599999997,1.52524017,1.77846283,0.06152370100000001,-0.680946797,-0.0741927494,-0.994027526,0.98882655,0.6114279629999999,-1.27945836,0.043372445100000004,-3.953928329999999,0.20259425699999997,0.40318108499999994,90.65958939999999,0.2948344528675079,-1.9094001173973083,-6.495097494125366,0.008908200096766638,1.9060501200000002,-9.7756279,4.614369400000001,3.5515562499999995,-0.375938954,-2.5292823200000005,2.5728575499999997,0.821162237,1.91555566,-12.14686915,4.64304967,3.6090807399999996
10544.5,1.65724373,1.52612058,1.77115584,0.061931972999999994,-0.6884048070000001,-0.0973421578,-0.9918862589999999,0.99270981,0.6062300860000002,-1.26433881,0.05540697509999999,-3.309974826,0.20269824600000003,0.325454172,90.66275340000001,0.23275478668510913,-1.857541263103485,-5.9093711376190186,0.00888273364781371,1.85530985,-9.6773597,4.5952863200000005,3.5953110500000003,-0.251099736,-2.26657836,5.58627701,1.1384066270000002,1.85619004,-12.1394956,4.626907279999999,3.6464628599999998
10554.5,1.6570522699999999,1.5265354499999997,1.77660691,0.06289753280000002,-0.7407321230000001,-0.0870182832,-0.9918699249999999,0.9917120510000001,0.598760643,-1.2672698399999998,0.03524362547,-3.93362143,0.203243537,0.438654341,80.7529388,0.3625764146447182,-1.7516976237297057,-5.360758638381958,0.008859006579898953,1.7505077,-9.746074000000002,4.6069257,3.65325432,-0.1342951274,-2.03340301,6.06355085,1.3602835699999996,1.75117862,-12.762599400000001,4.63770959,3.7376269900000003
10564.5,1.6565901,1.5270511,1.7735228800000002,0.0634492924,-0.7934477400000001,-0.0983638925,-0.993279419,0.9933709539999999,0.6069505590000001,-1.2517537699999999,0.0542824164,-3.59798562,0.204325249,0.32953602,104.16386709999999,0.2180833850055933,-1.6909265875816346,-5.233681392669678,0.008836938482336357,1.68998229,-9.540605,4.58524201,3.7267525200000002,-0.106822841621,-2.07491648,7.44519104,1.4715832,1.6949259400000003,-11.8977491,4.616601049999999,3.7652925
10574.5,1.65676268,1.52541254,1.7750588099999998,0.060880464499999995,-0.5811415629999999,-0.0787979624,-0.995227807,0.991489459,0.6019383490000001,-1.2331661299999999,0.036811330760000004,-3.599043293,0.204034629,0.40487881900000006,83.8076411,0.32977523244917395,-1.9373287796974181,-5.043770790100098,0.008815961242528066,1.93674577,-9.79216825,4.59853059,3.5707692399999997,-0.0661192043,-2.0618402500000004,7.86115083,1.5081661600000003,1.9553136800000004,-12.298648400000001,4.64043646,3.6396039400000006
10584.5,1.65767907,1.52360958,1.7753052,0.0628011093,-0.731799702,-0.0913434977,-0.990352179,0.991145274,0.603514695,-1.24666611,0.0421758547,-3.3491812599999995,0.20617642100000003,0.37868892100000007,68.64738700000001,0.2911876656115055,-1.7037007451057433,-5.344647836685181,0.008795525335079952,1.70256463,-9.9030933,4.58869401,3.75876953,-0.12915984679999998,-2.18768432,7.09567543,1.4344943300000002,1.71690395,-11.84998425,4.63383236,3.81066003
10594.5,1.65815507,1.5242719399999998,1.7784997899999997,0.0623292195,-0.723406859,-0.07465277707,-0.9932120369999999,0.9913980050000001,0.6023377379999999,-1.248463,0.048263105699999996,-3.6050460049999997,0.20294547899999998,0.36832082400000005,90.04220480000001,0.2688757725059986,-1.776461899280548,-6.091367387771607,0.008774308150890187,1.77394979,-10.061875500000001,4.6120098700000005,3.6374308400000004,-0.286265664,-2.45222676,5.679146619999999,1.1900208199999998,1.77846709,-12.874710900000002,4.64144674,3.68901806
10604.5,1.6561855100000002,1.5262622499999998,1.7752701400000004,0.0610731858,-0.640424095,-0.0644756059,-0.989673533,0.9912746019999998,0.608052592,-1.2920166800000001,0.06664996100000001,-2.6349335560000005,0.20381043100000004,0.25766738400000005,79.810978,0.16542913299053907,-2.0003012895584105,-6.435796165466309,0.008751215468222799,1.9971653299999996,-9.5152293,4.61222536,3.491301129999999,-0.35825276100000003,-2.29793176,4.516010769999999,0.9406224729999998,1.9946506199999998,-11.249523700000001,4.65010859,3.5267147900000007
10614.5,1.65698504,1.5243939400000002,1.77403078,0.0628297756,-0.7134036460000001,-0.0785675089,-0.9900214559999998,0.9900013519999998,0.602901053,-1.23841172,0.064689396,-2.9609947290000003,0.204874366,0.27181839799999996,102.9190282,0.16055394299328327,-1.7918546199798584,-6.627617025375367,0.008726668240345847,1.7883810400000002,-9.8566289,4.59602631,3.66230501,-0.39791408200000006,-2.4015724799999996,2.6874214500000004,0.781340234,1.7907972300000001,-12.096192949999999,4.63671027,3.7025295500000004
10624.5,1.65720849,1.5270066400000002,1.7754749500000002,0.06159390730000001,-0.720391704,-0.0886750798,-0.9948868799999999,0.987093984,0.602466492,-1.2537041799999997,0.05825214902,-3.284033806,0.203264666,0.327793978,92.73564400000001,0.22125666309148073,-1.8544639825820923,-6.505011081695557,0.008701280735754383,1.85123244,-10.0017844,4.606276150000001,3.5804718900000005,-0.371221523,-2.19738277,3.69260747,0.894238329,1.86857592,-12.755215549999999,4.646118340000001,3.6243164799999996
10634.5,1.65742783,1.52194764,1.77803572,0.062469203699999996,-0.662749697,-0.0798826396,-0.992417197,0.9901918169999998,0.6077189599999999,-1.2364261500000002,0.046916868900000006,-3.6320693059999996,0.20452998400000003,0.37316410599999994,88.33858939999999,0.2798568192869425,-1.7503245949745179,-6.276238679885864,0.008676154174889799,1.74752832,-10.22847225,4.61086489,3.7000227699999995,-0.32218250800000003,-2.07068442,5.6343913400000005,1.09028445,1.76388743,-12.764197200000002,4.64552258,3.75830619
10644.5,1.6568209800000002,1.52635955,1.77531949,0.0620404701,-0.7112854709999998,-0.08311063815,-0.9908763370000001,0.9922474530000001,0.605719914,-1.2562422300000002,0.056872280500000004,-3.039356452,0.20410267500000004,0.3214208026,69.805057,0.23990521989762784,-1.8349251985549926,-6.419617700576782,0.008651580710611843,1.83188282,-9.849433900000001,4.611480600000001,3.58466685,-0.351571913,-2.39439519,4.74738745,0.9875376060000001,1.84322859,-11.85875945,4.6366175499999995,3.61550497
10654.5,1.65704155,1.5270869699999998,1.7754043999999998,0.062049981399999996,-0.7078300909999999,-0.09213204899999998,-0.992742859,0.9834177149999999,0.604779267,-1.27198673,0.042178779029999995,-3.9518263300000003,0.20351708300000002,0.421378452,85.5755919,0.3459994435310364,-1.833478045463562,-6.75878496170044,0.008626688551981006,1.8298355200000003,-9.8835847,4.6222639999999995,3.65025023,-0.42212185599999996,-2.76527738,3.47227175,0.798865584,1.8429912600000002,-12.065347500000001,4.65935491,3.70403665
10664.5,1.6562487300000002,1.52789623,1.7720781799999998,0.061895107500000004,-0.64472906,-0.085212185,-0.989495099,0.986426356,0.6076609879999999,-1.2667800699999998,0.051079393800000004,-3.9097442200000003,0.20465380500000002,0.369062243,119.68213090000002,0.2763333603739738,-1.871756947040558,-6.960566806793213,0.008600985124376457,1.8677677,-9.92761225,4.62957873,3.6109721200000005,-0.46366662100000006,-2.7012615799999997,2.4228660499999997,0.704734999,1.8785539999999998,-12.8744563,4.66067972,3.6579519499999997
10674.5,1.6577997899999999,1.52449922,1.77697205,0.062520771,-0.614067785,-0.1002385517,-0.991409702,0.9884523709999999,0.602746452,-1.26157298,0.05599941061,-3.5655944249999996,0.204316033,0.330815208,104.03657329999999,0.22291126977652312,-1.7930887579917907,-6.879826450347901,0.008574794056113822,1.7892653199999997,-10.0168582,4.63057781,3.6863790100000005,-0.445757823,-2.8543510500000004,1.9234359899999998,0.667571928,1.7974867500000002,-12.607784800000001,4.66140767,3.7254563
10684.5,1.65855605,1.5211629,1.77735218,0.06305894869999999,-0.652282853,-0.0907204423,-0.9884842629999999,0.988052622,0.5998340800000002,-1.2169448799999998,0.05007818399999999,-3.58883832,0.20544653899999998,0.35349560799999996,91.0866726,0.2710291050374508,-1.6392359614372254,-6.81572642326355,0.008548611743799072,1.63554718,-10.26960345,4.623832999999999,3.8502713199999996,-0.43137046300000004,-2.7881574000000007,1.1261970399999999,0.6409017699999999,1.63952068,-12.83162395,4.66256705,3.90787932
10694.5,1.65832677,1.5231213800000003,1.77690691,0.062211455799999996,-0.693192022,-0.10897638609999998,-0.9930573729999999,0.984488035,0.606210851,-1.2358794100000001,0.047631257999999996,-3.5961999139999996,0.20445802,0.37914630699999996,75.1098938,0.28912490475922825,-1.712022638320923,-6.5966267585754395,0.008522684065435378,1.70874475,-10.3114362,4.62325918,3.7763155900000003,-0.38447569699999995,-2.96912677,1.339770314,0.703573085,1.71946136,-13.155827499999997,4.651943939999999,3.8321816500000003
