JvanZyl1/RocketTrajectoryOptimisation/data/agent_saves/PyTorchSAC/LandingBurnPureThrottle/20250602_232313/learning_stats/sac_learning_stats.csv
step,state_mean,state_min,state_max,state_std,state_kurtosis,action_mean,action_min,action_max,action_std,action_kurtosis,reward_mean,reward_min,reward_max,reward_std,reward_kurtosis,critic_loss,actor_loss,alpha_loss,alpha_value,q_value_mean,q_value_min,q_value_max,q_value_std,log_prob_mean,log_prob_min,log_prob_max,log_prob_std,target_q_mean,target_q_min,target_q_max,target_q_std
0,1.6562836,1.5471647,1.7515444,0.05807076,-0.9741548,-0.04150919,-0.99556,0.9965462,0.6853219,-1.478791,-0.03311272,-5.979085,0.20187505,0.848132,44.19061,1.4858695268630981,-0.14894655346870422,-2.5002646446228027,0.1999400089994862,0.03824622,-0.028751828,0.094468944,0.04451377,-0.55350167,-1.2044547,1.2183652,0.64418286,0.15882793,-5.8686566,0.55122954,0.8614066
1,1.6523464,1.5472741,1.7486421,0.058512505,-1.0828228,0.007878825,-0.99961925,0.9965462,0.70146394,-1.4812678,0.005725655,-5.979085,0.20024785,0.660022,76.23382,0.9091331958770752,-0.253101646900177,-2.5721535682678223,0.19987999792840888,0.1335633,0.05857273,0.20972812,0.05102105,-0.59787107,-1.0387452,0.38576317,0.39966625,0.21443576,-5.8833137,0.5194276,0.6665311
2,1.651386,1.5471647,1.7515444,0.05975925,-1.1843193,-0.04947777,-0.99961925,0.9965462,0.69610393,-1.4567211,0.059704326,-5.978674,0.20187505,0.4006509,198.95174,0.3535805642604828,-0.4114023447036743,-2.7070870399475098,0.19981990933286525,0.27520797,0.18945983,0.34897316,0.05013239,-0.6813807,-1.1218724,-0.22219276,0.19707452,0.28485054,-5.6844907,0.72767186,0.4015219
3,1.6517206,1.5471647,1.7515444,0.05710474,-0.9917954,-0.08995802,-0.99928164,0.9965462,0.6857736,-1.4605922,0.05192777,-5.978674,0.20187505,0.40131384,196.5763,0.33756691217422485,-0.4460168778896332,-2.700356960296631,0.19975979083235287,0.31076124,0.22766231,0.38971815,0.041223034,-0.6768876,-1.7347522,-0.3653735,0.16923836,0.27741554,-5.7335725,0.47396332,0.40324593
4,1.6512959,1.5471647,1.7515444,0.05884052,-1.0083243,-0.0075761974,-0.99961925,0.9965462,0.7046267,-1.5733583,0.031475313,-5.978674,0.20187505,0.5463868,111.43532,0.6299915313720703,-0.40294286608695984,-2.653412342071533,0.1996997050663957,0.27361286,0.2140429,0.32375264,0.026115853,-0.6474276,-3.1219568,-0.28471303,0.2929488,0.2585947,-5.7226543,0.57747763,0.54545933
5,1.6507698,1.5474315,1.7492633,0.059759565,-1.14471,-0.03861528,-0.99961925,0.9965462,0.7394447,-1.5953479,0.027452191,-5.979085,0.20024785,0.5467173,110.87612,0.6136337518692017,-0.356961190700531,-2.6447200775146484,0.1996396570615763,0.22880904,0.18106464,0.26571226,0.019777434,-0.6417242,-3.1260426,-0.24056852,0.3337359,0.25275266,-5.720429,0.60812205,0.54482174
6,1.6553608,1.5471647,1.7515444,0.059763726,-1.0955393,-0.07084174,-0.9965608,0.9965462,0.6835953,-1.4761153,0.0042816186,-5.979085,0.19861764,0.66669655,73.04824,0.9292272925376892,-0.3171348571777344,-2.5795822143554688,0.19957971479537784,0.19715327,0.16482188,0.2250136,0.014273155,-0.6009907,-2.9723165,-0.21542728,0.33950034,0.22489148,-5.7666073,0.6806979,0.66889465
7,1.6513422,1.5471647,1.750404,0.058715113,-1.0252969,-0.084363416,-0.99961925,0.9965462,0.69557154,-1.4774092,0.07058196,-0.9378575,0.20024785,0.1581877,26.902481,0.06648758798837662,-0.3456587493419647,-2.5803816318511963,0.1995198534124545,0.22567372,0.18924107,0.25788406,0.016570758,-0.6011884,-3.2246938,-0.23384565,0.3998745,0.28783324,-0.72149783,0.59510154,0.16547705
8,1.6489079,1.5471647,1.7515444,0.05671501,-1.0479298,-0.12939984,-0.9965608,0.9965462,0.6752593,-1.4095176,0.05373672,-5.978674,0.19756639,0.39629945,207.04076,0.32128849625587463,-0.36258256435394287,-2.65959095954895,0.19945996376801886,0.23288815,0.17685565,0.2530009,0.019360337,-0.6500326,-2.455451,-0.2896855,0.4045616,0.27339733,-5.73601,0.56872374,0.39760765
9,1.6531923,1.5471647,1.7515444,0.060144816,-1.105807,-0.019318795,-0.99928164,0.9965462,0.6865906,-1.4753373,0.027807862,-5.979085,0.20187505,0.5514938,107.04997,0.6096108555793762,-0.31436824798583984,-2.606611728668213,0.19940012126412837,0.19132884,0.13390681,0.20917498,0.016226284,-0.61686265,-2.4662454,-0.35754555,0.30879182,0.25133193,-5.738366,0.6110856,0.55171484
10,1.6519245,1.5471647,1.750404,0.059296608,-1.0749004,-0.13341907,-0.99961925,0.9965462,0.65184605,-1.315474,0.058030218,-5.979085,0.20187505,0.39809507,203.9395,0.3316030502319336,-0.2990550100803375,-2.5967633724212646,0.1993403325047762,0.17733039,0.13075504,0.1927599,0.013243683,-0.610454,-1.5688257,-0.41931316,0.20602182,0.27650806,-5.748663,0.5568937,0.40023884
11,1.6507609,1.5471647,1.7515444,0.061657533,-1.1402867,0.014719845,-0.99961925,0.9965462,0.6909329,-1.4896101,0.017489502,-5.978674,0.20187505,0.55279964,105.26588,0.6241328716278076,-0.31772589683532715,-2.7485947608947754,0.19928040388431265,0.17733058,0.13640241,0.19555844,0.013279682,-0.70429945,-3.6613193,-0.48205566,0.4057583,0.24209864,-5.737871,0.7169579,0.5533817
12,1.6489128,1.5471647,1.7515444,0.06224292,-1.1863623,-0.064674556,-0.99928164,0.9965462,0.6599023,-1.3983381,0.0012826696,-5.978674,0.20024785,0.66431355,73.98708,0.8930706977844238,-0.31866422295570374,-2.6466736793518066,0.19922049421412444,0.1909661,0.16752923,0.210812,0.011231081,-0.6407961,-1.3538244,-0.5366893,0.10833085,0.22857797,-5.7482924,0.6775085,0.66610295
13,1.6491667,1.5472741,1.7515444,0.056554966,-1.0471377,-0.07953066,-0.99928164,0.9965462,0.6982643,-1.5072707,0.042903587,-5.979085,0.20024785,0.5387962,118.90055,0.5835386514663696,-0.33956339955329895,-2.6902740001678467,0.1991605484094186,0.20658067,0.13417134,0.23838057,0.026758594,-0.6675153,-1.6812906,-0.5868239,0.13936037,0.27364755,-5.713094,0.83554006,0.5364511
14,1.6502333,1.5474315,1.7515444,0.05885086,-1.0854013,-0.046788577,-0.9965608,0.9965462,0.70196587,-1.5312346,0.015811834,-5.978674,0.20187505,0.6587193,77.37276,0.8644866943359375,-0.3394656479358673,-2.705799102783203,0.1991005574731601,0.20466876,0.114959836,0.25027484,0.0387577,-0.6768253,-2.2323744,-0.58554447,0.14714997,0.24591385,-5.753187,0.5531343,0.6587519
15,1.6503745,1.5474315,1.7481215,0.05674991,-1.0668397,-0.111043915,-0.99961925,0.99618036,0.6869714,-1.4679086,0.08343506,-0.7962805,0.20187505,0.10948315,33.308216,0.049446094781160355,-0.3661819100379944,-2.71793270111084,0.19904051800161118,0.22999105,0.1393336,0.28199688,0.041344948,-0.6840305,-1.4457319,-0.49858105,0.12812296,0.3135349,-0.5883651,0.5754535,0.12271267
16,1.6499509,1.5471647,1.7515444,0.05986466,-1.0716636,-0.03588779,-0.99961925,0.9965462,0.70101017,-1.5018728,0.042614922,-5.978674,0.20187505,0.40372595,190.6621,0.34431952238082886,-0.4065362215042114,-2.689250946044922,0.1989804810692939,0.27398562,0.18393509,0.32477233,0.04245145,-0.6659478,-1.8936017,-0.3935809,0.16642877,0.27654725,-5.8113427,0.56493604,0.41286722
17,1.647676,1.5471647,1.750404,0.059648182,-1.158689,-0.0070202313,-0.99961925,0.9965462,0.7053917,-1.5422184,0.025492512,-5.979085,0.20024785,0.5488551,109.016624,0.6247275471687317,-0.4431082606315613,-2.7005443572998047,0.19892043554799432,0.3092678,0.21507414,0.3561894,0.040264685,-0.67263126,-1.7194324,-0.28418744,0.21343993,0.25244248,-5.80581,0.5857943,0.5516301
18,1.653862,1.5471647,1.7515444,0.056846667,-1.0287762,-0.06497025,-0.99961925,0.9965462,0.6834642,-1.4769908,0.041477706,-5.979085,0.20187505,0.54542553,113.02119,0.6069977283477783,-0.46532291173934937,-2.690126419067383,0.19886040175963338,0.33286828,0.24073571,0.3641203,0.031440124,-0.6658673,-1.213316,-0.18025148,0.22562028,0.26991522,-5.7058487,0.7263348,0.5459672
19,1.651582,1.5471647,1.750404,0.05761075,-1.0415994,-0.02900197,-0.9965608,0.9965462,0.7338597,-1.6376625,0.03624217,-5.979085,0.20187505,0.5453501,112.69885,0.6435978412628174,-0.44967636466026306,-2.640778064727783,0.19880045212237135,0.32339948,0.25073734,0.35073295,0.028506812,-0.6350026,-2.802359,-0.09639621,0.329603,0.25958133,-5.865961,0.5872747,0.5590687
20,1.6472633,1.5471647,1.7515444,0.05890629,-0.8511003,-0.0561701,-0.99961925,0.9909677,0.6725526,-1.4323919,0.024728311,-5.979085,0.20024785,0.54381806,113.092926,0.6105654835700989,-0.42477530241012573,-2.648890495300293,0.19874056671311524,0.29759884,0.22979434,0.3216533,0.023336036,-0.63971925,-1.5330691,-0.048568487,0.30036506,0.2536761,-5.8276477,0.545705,0.54867935
21,1.6465372,1.5474315,1.7492633,0.058013637,-1.0994128,-0.043968704,-0.99961925,0.9965462,0.67479676,-1.4323723,0.081375904,-0.7962805,0.19861764,0.09745344,33.269672,0.03846166655421257,-0.3999921679496765,-2.6633362770080566,0.19868071922829916,0.27113795,0.21339016,0.29717386,0.021827908,-0.64835393,-1.1782463,-0.038551092,0.30353922,0.29810357,-0.46158072,0.6332655,0.13607465
22,1.648552,1.5471647,1.7515444,0.06091641,-1.152015,-0.0024022488,-0.99928164,0.9965462,0.6779636,-1.4380087,-0.005654284,-5.979085,0.1969858,0.6656043,73.05787,0.9090651273727417,-0.3625544607639313,-2.6966171264648438,0.19862085951752162,0.22970846,0.17980802,0.25974366,0.020967498,-0.66864073,-1.5344241,-0.051771164,0.31387866,0.21823725,-5.8673587,0.5920599,0.671585
23,1.6486572,1.5471647,1.7515444,0.061474994,-1.1987882,-0.084601626,-0.99928164,0.9965462,0.6832491,-1.4600475,0.053704068,-5.978674,0.20024785,0.39138687,217.61942,0.3153892755508423,-0.34818124771118164,-2.7034096717834473,0.19856098327380436,0.21460237,0.15965371,0.24055484,0.019170769,-0.6725321,-2.0507436,-0.088056326,0.28431222,0.28862387,-5.652991,0.67951906,0.3936431
24,1.6502756,1.5471647,1.7515444,0.05974416,-1.055161,-0.05956067,-0.9965608,0.9965462,0.68422633,-1.4963356,-0.022369403,-5.979085,0.20187505,0.76643866,54.035103,1.145975947380066,-0.3205086886882782,-2.6818151473999023,0.1985011289425157,0.18968429,0.14498018,0.22083023,0.020867687,-0.6588626,-1.5525613,-0.14691687,0.27890512,0.20730564,-5.713204,0.56125844,0.7579762
25,1.6479337,1.5484847,1.7513723,0.05765438,-1.0249819,-0.025120508,-0.99961925,0.9965462,0.6828115,-1.4860827,-0.017216317,-5.979085,0.20187505,0.7563878,57.305744,1.1718883514404297,-0.3041345477104187,-2.6741864681243896,0.19844130898876775,0.17434749,0.13359593,0.20731412,0.019476613,-0.6538354,-1.6688538,-0.22720587,0.25438204,0.21354431,-5.833314,0.6355212,0.766626
26,1.6478655,1.5471647,1.750404,0.05886884,-1.0810096,-0.08777935,-0.99961925,0.9965462,0.69529873,-1.4571902,0.054961007,-5.979085,0.20024785,0.39327615,213.72272,0.3433109521865845,-0.3192819058895111,-2.682608127593994,0.198381509802038,0.18856177,0.15223816,0.21778429,0.016481878,-0.65873444,-2.4484503,-0.3255371,0.23051324,0.28746182,-5.786631,0.5823801,0.4016396
27,1.6472172,1.5471647,1.750404,0.058235466,-0.9832693,-0.0031385683,-0.99961925,0.9965462,0.68685913,-1.4955721,0.07635507,-0.9378575,0.19861764,0.11634558,36.89773,0.05845988541841507,-0.35402151942253113,-2.690199851989746,0.19832172076147303,0.222471,0.19261572,0.24808192,0.014659432,-0.66311884,-1.0655968,-0.43061066,0.12725034,0.3075914,-0.66376317,0.51799417,0.12968992
28,1.6503325,1.5471647,1.7515444,0.05938121,-1.0678122,-0.08090344,-0.9965608,0.99618036,0.6660998,-1.411066,-0.0026548104,-5.979085,0.20187505,0.6657577,73.1288,0.8793346285820007,-0.38948482275009155,-2.712794780731201,0.19826190939481292,0.2552657,0.22539578,0.2768824,0.012989085,-0.67677474,-1.4808547,-0.53533363,0.10513954,0.23771757,-5.7316904,0.51847446,0.6637947
29,1.6464677,1.5471647,1.7515444,0.058109116,-0.940185,-0.076168545,-0.99961925,0.9965462,0.65714324,-1.364586,0.050011028,-5.978674,0.19861764,0.39412475,211.10822,0.3133929669857025,-0.4232097566127777,-2.7009034156799316,0.19820210099354524,0.29055,0.25755584,0.31307945,0.014177442,-0.6691136,-1.1617773,-0.57472193,0.06892081,0.2876473,-5.6906962,0.5200972,0.39323473
30,1.6499302,1.5471647,1.7515444,0.059671797,-1.157142,-0.058879267,-0.99961925,0.9965462,0.68149924,-1.4671818,-0.019661384,-5.979085,0.20187505,0.76224166,55.39945,1.1581766605377197,-0.4412384033203125,-2.718642234802246,0.19814227119472086,0.306508,0.2515694,0.33350414,0.019127887,-0.6797627,-3.1619735,-0.503548,0.2350428,0.22418001,-5.7388744,0.48207515,0.7600797
31,1.6484879,1.5471647,1.7515444,0.058808286,-1.0816555,-0.07276595,-0.99961925,0.9965462,0.6882982,-1.468948,0.031097699,-5.979085,0.20187505,0.5465433,111.312035,0.5963218808174133,-0.4444066882133484,-2.70059871673584,0.19808245520591075,0.31198764,0.23722273,0.34284174,0.030008007,-0.6683029,-1.4949243,-0.4457581,0.15590273,0.27629513,-5.7054467,0.5226102,0.54536426
32,1.6520171,1.5472741,1.7486421,0.057699744,-1.1312566,-0.07256895,-0.99928164,0.9909677,0.6816645,-1.4690932,0.067020535,-5.979085,0.20024785,0.39065328,221.24277,0.30539757013320923,-0.4399831295013428,-2.6895320415496826,0.19802267286518954,0.30901963,0.2256423,0.34632474,0.0327496,-0.66115665,-1.2920072,-0.39550805,0.15259245,0.31461462,-5.72281,0.54538333,0.3924079
33,1.648631,1.5471647,1.750404,0.05803639,-1.0610025,-0.02369846,-0.99928164,0.9965462,0.6805209,-1.4447658,0.07830301,-0.9378575,0.19756639,0.1293197,37.690067,0.04164408519864082,-0.4390175938606262,-2.6751151084899902,0.1979629470547592,0.30991793,0.22238633,0.34934917,0.03281884,-0.65194404,-1.8863969,-0.33353043,0.20779885,0.32723778,-0.67895746,0.5687665,0.13662145
34,1.646469,1.5472741,1.7492633,0.059301477,-1.021179,-0.11407928,-0.99961925,0.99618036,0.69214517,-1.3981498,0.023021655,-5.979085,0.20187505,0.5450335,111.948425,0.5944477319717407,-0.4333629012107849,-2.693645715713501,0.19790324435451093,0.3020981,0.21513063,0.34287667,0.03292106,-0.6630775,-2.1715798,-0.2768309,0.29248038,0.27005124,-5.7443633,0.5775491,0.54734564
35,1.6434295,1.5474315,1.7492633,0.054655474,-0.67156065,-0.028437752,-0.99961925,0.9965462,0.67858225,-1.4568329,0.074635446,-0.7962805,0.19861764,0.099366546,35.17436,0.029022015631198883,-0.43719610571861267,-2.682008743286133,0.19784358463131602,0.30745375,0.22379862,0.34195173,0.029492069,-0.6555846,-2.589189,-0.26378047,0.2798241,0.32202974,-0.5121493,0.6369006,0.11186859
36,1.6484855,1.5471647,1.7515444,0.057150472,-0.9840148,-0.023397423,-0.99928164,0.99618036,0.6978605,-1.5587374,-0.015252748,-5.979085,0.20024785,0.7593568,56.447495,1.1626255512237549,-0.4236164093017578,-2.6684255599975586,0.1977839886383021,0.29563278,0.21874702,0.32836685,0.024371753,-0.6468932,-1.5499966,-0.2621318,0.22510062,0.23595272,-5.708075,0.7278525,0.75691
37,1.6478398,1.5471647,1.7515444,0.05896712,-1.0010703,-0.07167938,-0.99961925,0.98879385,0.6829564,-1.4872599,0.022642173,-5.979085,0.20187505,0.54890853,108.745125,0.6015961170196533,-0.40688106417655945,-2.695861339569092,0.19772440659737497,0.27564812,0.20632355,0.30448994,0.024337359,-0.6635165,-1.8106198,-0.27813375,0.2538918,0.27189416,-5.723221,0.57095426,0.5488703
38,1.648633,1.5471647,1.7515444,0.05908065,-1.050601,-0.10482131,-0.99961925,0.9965462,0.67662835,-1.4310497,0.0076408843,-5.979085,0.19861764,0.66115206,75.795265,0.868309736251831,-0.37922459840774536,-2.6308183670043945,0.19766494917040342,0.2560266,0.18832085,0.28097448,0.020362929,-0.62307936,-1.2465336,-0.30583477,0.20367432,0.25936142,-5.694161,0.5085567,0.6586883
39,1.6485195,1.5471647,1.7515444,0.056698643,-0.90986794,-0.059626278,-0.99961925,0.99618036,0.7001975,-1.5160882,0.037119396,-5.978674,0.20024785,0.41029602,178.07365,0.34253689646720886,-0.372949481010437,-2.7200393676757812,0.19760545462853504,0.23896968,0.16514947,0.26886165,0.02249786,-0.6778127,-1.8664145,-0.36507106,0.20641175,0.29104254,-5.706043,0.7038738,0.41047165
40,1.6485447,1.5472741,1.7515444,0.059051745,-0.9975014,0.01853844,-0.99928164,0.99618036,0.6704497,-1.4567535,0.039303932,-5.978674,0.20024785,0.4033308,190.97874,0.32828572392463684,-0.3717106878757477,-2.709150552749634,0.19754594914418983,0.23915973,0.18004428,0.26586956,0.0204722,-0.6707859,-3.2498584,-0.41441107,0.23465317,0.29240125,-5.709918,0.48673815,0.40249938
41,1.6497288,1.5472741,1.7515444,0.05939784,-0.9416938,0.011638436,-0.99961925,0.9965462,0.6587461,-1.3597755,0.01383446,-5.979085,0.20187505,0.6574053,77.91764,0.8616686463356018,-0.37680160999298096,-2.7236251831054688,0.19748641299468794,0.24258873,0.17696586,0.27017304,0.021240631,-0.6794007,-2.5461864,-0.472682,0.18188822,0.2689454,-5.7130404,0.62353665,0.65692514
42,1.6462994,1.5474315,1.7515444,0.05552595,-0.7437298,0.023205146,-0.9965608,0.99618036,0.6626212,-1.416772,0.052572187,-5.978674,0.20187505,0.388309,224.39587,0.30720317363739014,-0.3936220109462738,-2.7053916454315186,0.1974268843276238,0.26173115,0.21110478,0.2873308,0.01740196,-0.66784775,-1.7930491,-0.53722453,0.11421437,0.30325454,-5.6928053,0.6470102,0.38762265
43,1.6503427,1.5471647,1.7515444,0.05942658,-1.0168282,-0.111301936,-0.99928164,0.9908895,0.679442,-1.4152782,0.03561486,-5.978674,0.20187505,0.5437774,113.95663,0.5908321738243103,-0.4179038405418396,-2.738879442214966,0.19736730866048358,0.2820388,0.22799358,0.31225693,0.017903762,-0.6881789,-2.3944159,-0.5837889,0.17029671,0.28660733,-5.7281938,0.5185518,0.54308033
44,1.6490594,1.5471647,1.7515444,0.05885301,-1.0499187,-0.05955006,-0.99961925,0.9965462,0.68968356,-1.4588275,-0.05212471,-5.979085,0.20187505,0.84949076,43.29686,1.4483323097229004,-0.4128366708755493,-2.7223727703094482,0.19730772345947165,0.2790823,0.22883849,0.3125618,0.021747101,-0.67769253,-1.9248767,-0.5558744,0.121742256,0.20355223,-5.7611933,0.68721443,0.84910196
45,1.6475047,1.5471647,1.750404,0.0589906,-1.0210919,-0.0041517764,-0.99961925,0.9965462,0.691892,-1.4622113,0.06734282,-0.9378575,0.20187505,0.12990817,25.093645,0.04116681590676308,-0.4152027368545532,-2.708937406539917,0.19724815663903486,0.2831837,0.22385073,0.3126613,0.02385966,-0.6691022,-1.8485451,-0.5071049,0.12979697,0.32001543,-0.6283895,0.69504297,0.13522775
46,1.6449549,1.5472741,1.7486421,0.05406744,-0.8304223,-0.12163355,-0.99928164,0.9965462,0.65540236,-1.3177029,0.0569139,-5.979085,0.20187505,0.38445497,234.3581,0.2994254231452942,-0.4199935495853424,-2.7241110801696777,0.19718858343688647,0.2862318,0.22337362,0.31589368,0.026091918,-0.6781393,-1.8039184,-0.47275412,0.17193252,0.30629194,-5.697706,0.59617805,0.38661325
47,1.6509105,1.5471647,1.7515444,0.05857067,-1.0685716,-0.117850944,-0.99961925,0.99618036,0.65496284,-1.337738,-0.0019994602,-5.979085,0.19756639,0.66793764,72.181725,0.8871703147888184,-0.4121769368648529,-2.736727237701416,0.1971289864139159,0.27698493,0.21055925,0.3068632,0.026959995,-0.6855975,-2.276851,-0.44065404,0.18763015,0.25329092,-5.7315125,0.640312,0.6665934
48,1.6490523,1.5471647,1.7515444,0.058247276,-1.0525972,-0.066334665,-0.9964825,0.9965462,0.6883996,-1.5108018,-0.02586443,-5.979085,0.20024785,0.7629272,54.94723,1.16001296043396,-0.38659602403640747,-2.6726841926574707,0.1970694838526349,0.25928104,0.19911337,0.28450176,0.02360187,-0.645846,-1.3854167,-0.41192305,0.15814583,0.22137119,-5.726497,1.035273,0.7605236
49,1.6466212,1.5474913,1.7515444,0.05278304,-0.6856991,-0.022843665,-0.99928164,0.9965462,0.67062414,-1.3915825,0.0129457265,-5.979085,0.20187505,0.6566506,78.24179,0.8672247529029846,-0.3714883327484131,-2.704522132873535,0.19701001244489263,0.24040908,0.18075112,0.2677907,0.022947889,-0.6651423,-2.1669014,-0.40020096,0.23403467,0.26592314,-5.7873726,0.8150893,0.66032755
50,1.6470432,1.5472741,1.7486421,0.059006337,-0.9735203,-0.07194313,-0.9965608,0.99618036,0.66860557,-1.4424055,-0.025229922,-5.979085,0.20187505,0.76014686,55.820442,1.1571860313415527,-0.35978221893310547,-2.692952871322632,0.19695059247753172,0.23020658,0.17767511,0.25464728,0.01863151,-0.65771097,-1.8530371,-0.40215474,0.20211865,0.23126826,-5.779774,0.6586781,0.76351786
51,1.6476833,1.5474913,1.7515444,0.05654732,-0.8713739,-0.03931861,-0.99961925,0.9965462,0.7041061,-1.5364574,-0.015730785,-5.979085,0.20187505,0.7595544,56.36637,1.140270709991455,-0.3460268974304199,-2.6848134994506836,0.1968912358598743,0.21753752,0.17204998,0.24420568,0.017533965,-0.6523939,-2.3523705,-0.4142524,0.245027,0.23373982,-5.7359514,0.6063122,0.7575107
52,1.6480174,1.5484848,1.7511672,0.056452427,-0.97679627,-0.049760964,-0.99928164,0.9909677,0.69471383,-1.4960665,0.03624629,-5.978674,0.19861764,0.541203,116.223755,0.5999909043312073,-0.34302037954330444,-2.682875871658325,0.19683194210183194,0.21486482,0.16527115,0.24518652,0.018517809,-0.6508951,-1.6708283,-0.4488665,0.15224917,0.2941895,-5.7555046,0.59710974,0.54230607
53,1.6487865,1.5471647,1.7515444,0.056221478,-0.80414456,-0.031545006,-0.99961925,0.99618036,0.6655611,-1.4223604,-0.0015890598,-5.979085,0.20187505,0.662145,74.8512,0.8646260499954224,-0.346853107213974,-2.6939847469329834,0.19677268746634882,0.21745116,0.16507377,0.24978884,0.018483121,-0.6574236,-1.5474567,-0.49547046,0.12686788,0.25445694,-5.738618,0.5667947,0.66041666
54,1.6461694,1.5487021,1.7513723,0.052976284,-0.87590796,-0.09627047,-0.99928164,0.9965462,0.67306423,-1.4563642,0.06163776,-5.978674,0.19861764,0.38566002,232.0973,0.3212456703186035,-0.37712377309799194,-2.7183265686035156,0.1967134272643979,0.24487488,0.19904105,0.27798134,0.019151246,-0.6720898,-1.5682478,-0.55044824,0.112785205,0.32140708,-5.73313,0.62758887,0.38977847
55,1.6470488,1.5471647,1.750404,0.054789893,-0.7095314,-0.05438578,-0.9965608,0.9965462,0.6631575,-1.4214469,0.07551988,-0.9378575,0.20024785,0.11231312,41.945656,0.040821950882673264,-0.4237799048423767,-2.720559597015381,0.196654161451257,0.2913616,0.25177288,0.32322782,0.01832767,-0.6731533,-1.5453308,-0.5890767,0.082460254,0.33669683,-0.63327223,0.5571455,0.11696319
56,1.649285,1.5472741,1.7515444,0.05800949,-0.9864477,-0.072516724,-0.99961925,0.99618036,0.6640216,-1.3957523,-0.079070814,-5.979085,0.19861764,0.99223626,31.181915,1.9686857461929321,-0.4469439685344696,-2.752171754837036,0.19659483740902117,0.31080395,0.25909042,0.34440368,0.020060183,-0.6922815,-2.6043468,-0.5237441,0.15636045,0.18612096,-5.724443,0.58945215,0.9894186
57,1.6459234,1.5474315,1.7492633,0.05606474,-0.9713572,-0.0035837311,-0.99928164,0.9909677,0.6613556,-1.4478717,0.060345005,-5.979085,0.20187505,0.38583088,231.54013,0.2980812191963196,-0.4643174409866333,-2.719226360321045,0.19653552444591707,0.33226204,0.27378654,0.36741322,0.023076776,-0.67171353,-1.3575706,-0.45963037,0.11658481,0.32703832,-5.7026815,0.54372114,0.3871686
58,1.6470076,1.5472741,1.7492633,0.055440933,-0.8712184,-0.03093,-0.99961925,0.9965462,0.6670352,-1.4482079,0.06176625,-5.979085,0.19861764,0.38607085,231.18208,0.29718536138534546,-0.4671005308628082,-2.7122256755828857,0.19647623736731618,0.3359916,0.24670544,0.36222768,0.02517497,-0.66710037,-1.236862,-0.43520582,0.12321386,0.33043498,-5.686809,0.6680195,0.38637155
59,1.646772,1.5472741,1.7492633,0.0588161,-0.99344623,-0.06695027,-0.9964825,0.99618036,0.6791954,-1.4603859,0.050943375,-5.979085,0.20024785,0.39129886,217.42009,0.3071616291999817,-0.4596675634384155,-2.732611656188965,0.19641693980436972,0.32619745,0.2302452,0.35194638,0.025590325,-0.6793194,-1.9269776,-0.4195248,0.16687882,0.32019687,-5.7098126,0.85142845,0.39427108
60,1.6467459,1.5471647,1.7515444,0.057816744,-0.9588946,0.03147494,-0.99556,0.9965462,0.6822092,-1.4496747,0.011630082,-5.979085,0.20187505,0.6595115,76.78808,0.8719092607498169,-0.4390251040458679,-2.7111973762512207,0.19635767521991426,0.30824083,0.21093695,0.33537003,0.028191943,-0.6658503,-1.3272538,-0.45879257,0.11010266,0.28128266,-5.6976194,0.51456845,0.65891623
61,1.6452508,1.5471647,1.7515444,0.0574157,-0.7880423,-0.12640111,-0.99961925,0.99618036,0.66900957,-1.3929703,-0.04946021,-5.979085,0.19861764,0.84574264,44.197075,1.4355721473693848,-0.39743682742118835,-2.7362451553344727,0.1962983978046316,0.2637312,0.17975646,0.29642433,0.029504173,-0.6809288,-1.668303,-0.501544,0.10020846,0.21756086,-5.732315,0.58445555,0.84410983
62,1.6476372,1.5471647,1.750404,0.05731365,-0.78875214,-0.033195037,-0.9965608,0.9965462,0.6637287,-1.4261839,0.041306317,-5.979085,0.20187505,0.400155,197.58124,0.314778208732605,-0.38015997409820557,-2.7348246574401855,0.19623911508332817,0.24672723,0.15237242,0.27945092,0.03207662,-0.67974454,-1.5943899,-0.515234,0.10447983,0.309568,-5.667326,0.5989761,0.3983588
63,1.6476594,1.5472741,1.7481215,0.054132674,-0.69357705,-0.083071664,-0.9965608,0.9965462,0.640949,-1.3928589,0.080090314,-0.44824827,0.20187505,0.08132107,12.941263,0.036242760717868805,-0.3960784673690796,-2.724912643432617,0.1961798492339256,0.26394165,0.16840145,0.2949975,0.029542657,-0.67334616,-2.277564,-0.52466804,0.13328713,0.34963882,-0.17257583,0.5151487,0.088849716
64,1.6475024,1.5471647,1.750404,0.056883603,-0.95142096,-0.11614787,-0.99961925,0.9908895,0.66701937,-1.374526,0.07919866,-0.9378575,0.20187505,0.11454296,47.015816,0.05117730423808098,-0.4138668477535248,-2.7223222255706787,0.1961206065703936,0.2821428,0.21110305,0.3172912,0.02179169,-0.67144537,-1.3129365,-0.52428675,0.09611743,0.35095206,-0.676085,0.88217103,0.12407226
65,1.6484525,1.5472741,1.7492633,0.05401804,-0.82352626,-0.017329577,-0.99928164,0.9965462,0.6772909,-1.4637408,0.0101551935,-5.979085,0.20187505,0.65962815,76.660484,0.8492991328239441,-0.41748881340026855,-2.7171454429626465,0.19606139742984233,0.28648853,0.21856962,0.32243553,0.022786038,-0.6679576,-1.3045013,-0.51853395,0.12012071,0.28273916,-5.703822,0.67941463,0.65927
66,1.6465228,1.5471647,1.7515444,0.05797898,-0.8968376,-0.07447185,-0.99961925,0.9965462,0.6828638,-1.4227031,-0.010715933,-5.979085,0.20187505,0.6676866,71.86889,0.8793567419052124,-0.41956841945648193,-2.733186721801758,0.1960021920207308,0.28673804,0.21292529,0.3235175,0.023921724,-0.67749393,-2.049665,-0.51681125,0.16149485,0.26133224,-5.711782,0.50291675,0.6664201
67,1.6448091,1.5472741,1.7492633,0.055954196,-0.794505,0.020154411,-0.99928164,0.99618036,0.6599996,-1.3865752,0.07782821,-0.57764584,0.20024785,0.07805098,20.066956,0.024700084701180458,-0.43515729904174805,-2.7143430709838867,0.19594302804565453,0.3046944,0.2193496,0.34071204,0.025762212,-0.66561973,-1.9046829,-0.50639796,0.15323009,0.35282245,-0.2281067,0.6187989,0.088043295
68,1.6461725,1.5471647,1.7515444,0.052397236,-0.7053268,0.028910603,-0.99961925,0.9965462,0.6625563,-1.4117386,0.05026876,-5.978674,0.19861764,0.39382833,211.7941,0.3134969472885132,-0.4563632011413574,-2.706716775894165,0.19588391832141996,0.3269169,0.24824797,0.36133882,0.022987347,-0.6606324,-1.384062,-0.5068077,0.1113336,0.3253544,-5.6748943,0.75184715,0.39347264
69,1.6473519,1.5472741,1.7515444,0.057922263,-0.9175208,-0.0035699476,-0.99928164,0.9909677,0.6724281,-1.426774,-0.0037278105,-5.979085,0.20187505,0.66093767,75.28855,0.8752209544181824,-0.46593427658081055,-2.725407838821411,0.19582482556356814,0.33434135,0.24168502,0.37061134,0.025884524,-0.67179036,-2.0051234,-0.51069665,0.1551806,0.2694711,-5.705219,0.50431824,0.65999776
70,1.6477563,1.5471647,1.750404,0.05415463,-0.89115757,-0.07669362,-0.99928164,0.9909677,0.64562047,-1.3605117,0.050424293,-5.979085,0.20187505,0.4003059,198.45648,0.3172285258769989,-0.45504510402679443,-2.745129346847534,0.19576571476335097,0.32118392,0.22957873,0.3500952,0.028394695,-0.68357605,-2.8370953,-0.499609,0.1916936,0.328721,-5.689541,0.603519,0.40121567
71,1.6452798,1.5471647,1.7515444,0.056627683,-0.8263557,-0.01696596,-0.99961925,0.99618036,0.6433324,-1.3232254,0.043318354,-5.978674,0.20187505,0.39752245,203.00974,0.3020722270011902,-0.43187519907951355,-2.724001407623291,0.19570663047974754,0.30065167,0.19781068,0.3305453,0.027380351,-0.67030895,-1.3199606,-0.49250758,0.101711035,0.32049,-5.495709,0.536077,0.38671783
72,1.6482699,1.5471647,1.750404,0.05515272,-0.897943,-0.050750565,-0.99961925,0.9965462,0.673471,-1.4398235,0.0797428,-0.9378575,0.20024785,0.1232809,43.654152,0.04033453017473221,-0.4379529356956482,-2.7502386569976807,0.19564752446292744,0.3036815,0.21696948,0.33272576,0.025870029,-0.6860852,-2.6200466,-0.4804262,0.19996458,0.35951313,-0.66415113,0.5721981,0.12745307
73,1.649081,1.5471647,1.7515444,0.054733574,-0.7658684,0.016520116,-0.99961925,0.9965462,0.64567477,-1.3871291,0.025110018,-5.978674,0.20024785,0.54987735,108.124855,0.6082887649536133,-0.4435093402862549,-2.737780809402466,0.1955884257147207,0.31083354,0.2169518,0.33851612,0.024255848,-0.67813694,-1.4880996,-0.4888208,0.12298175,0.30653158,-5.7131896,0.75414824,0.5507957
74,1.646467,1.5471647,1.7515444,0.055768035,-0.89709896,0.0058051683,-0.99961925,0.9965462,0.6598988,-1.4206944,0.028941788,-5.979085,0.20187505,0.5419233,115.04978,0.5819297432899475,-0.44957977533340454,-2.732325553894043,0.19552934700548913,0.31765866,0.242237,0.3474454,0.023252737,-0.6744832,-1.3711691,-0.50630414,0.10931992,0.30773425,-5.6809525,0.6125,0.5414844
75,1.6479447,1.5472741,1.7492633,0.056368858,-1.0151923,-0.034992866,-0.99928164,0.9965462,0.67315567,-1.445436,0.062687926,-5.979085,0.20187505,0.38715392,228.7208,0.3000818192958832,-0.46494027972221375,-2.7619011402130127,0.1954702344701307,0.3295763,0.2535474,0.3653575,0.026613433,-0.69229496,-2.7647557,-0.5289353,0.16357438,0.34420264,-5.70167,0.5961532,0.38897705
76,1.6469709,1.5483754,1.7513723,0.056147553,-0.77433217,0.015093499,-0.9948489,0.9965462,0.6377627,-1.3593544,-0.025241211,-5.979085,0.20187505,0.7582188,56.405796,1.140536904335022,-0.445574015378952,-2.7467076778411865,0.19541112369807387,0.31213158,0.23949146,0.35144752,0.0251791,-0.6826738,-2.2406256,-0.5463121,0.14749204,0.2547052,-5.685266,0.5277454,0.7559229
77,1.6516113,1.5471647,1.7515444,0.05603428,-0.94433016,-0.014472303,-0.99961925,0.99618036,0.678498,-1.4412004,0.032783225,-5.979085,0.20024785,0.5452619,112.48927,0.5751828551292419,-0.4238511919975281,-2.7177464962005615,0.19535207209156857,0.2939764,0.2196882,0.3325593,0.022563037,-0.6646232,-1.1468165,-0.54569805,0.072613955,0.31886074,-5.710461,0.539677,0.5385961
78,1.6470355,1.5472741,1.7486421,0.055214703,-0.91006756,-0.0350489,-0.99556,0.99618036,0.6699329,-1.453254,0.032931812,-5.979085,0.20187505,0.54168,115.57593,0.581417441368103,-0.4183887541294098,-2.7363686561584473,0.19529304164752226,0.2863856,0.23231548,0.3250298,0.02283195,-0.67571926,-1.351325,-0.56590843,0.09490604,0.31643552,-5.7125616,0.7997329,0.5433365
79,1.648889,1.5471647,1.750404,0.05557841,-1.014919,0.0040126946,-0.99928164,0.99618036,0.6482647,-1.3674271,0.07750414,-0.9378575,0.20187505,0.11308844,30.804955,0.04233372211456299,-0.4258521795272827,-2.7336580753326416,0.195234038514012,0.2942736,0.22403257,0.33442658,0.023163922,-0.67374945,-1.6229215,-0.56221616,0.10669699,0.3599127,-0.6789875,0.5476899,0.11904155
80,1.646431,1.5472741,1.7469801,0.053313352,-0.7579057,-0.023937533,-0.99961925,0.9965462,0.63006496,-1.312607,0.090255566,-0.15903735,0.20187505,0.059017945,1.091641,0.024236232042312622,-0.45767104625701904,-2.7407259941101074,0.1951750498109441,0.32534796,0.26179862,0.3640101,0.022726025,-0.6777665,-1.6815178,-0.5724985,0.108833924,0.37482655,0.148487,0.6025302,0.072468124
81,1.6490493,1.5471647,1.7515444,0.055816133,-0.8973812,-0.015830455,-0.99961925,0.9909677,0.68488985,-1.4773939,0.010462843,-5.979085,0.20024785,0.6626195,75.256935,0.8638784885406494,-0.4765685796737671,-2.721155881881714,0.19511611409142793,0.3466838,0.27715468,0.38550216,0.022438971,-0.6654784,-1.8207996,-0.5708901,0.102357656,0.2984353,-5.6913466,0.5337497,0.6598967
82,1.6472551,1.5471647,1.7515444,0.057079647,-1.0189698,0.0019493401,-0.99961925,0.9965462,0.66975635,-1.4026335,0.056471825,-5.978674,0.20187505,0.3948773,210.46613,0.3146135210990906,-0.49686336517333984,-2.7394051551818848,0.19505719451883166,0.36489895,0.29302326,0.40184456,0.023850676,-0.6763379,-2.4863784,-0.57629967,0.14215966,0.3463897,-5.656217,0.74541956,0.39642584
83,1.6506362,1.5471647,1.750404,0.05570734,-0.931702,-0.029285662,-0.9965608,0.99618036,0.6391192,-1.3392011,0.04067167,-5.979085,0.19756639,0.40981326,179.37381,0.3328407406806946,-0.4923531711101532,-2.7282052040100098,0.194998313735258,0.3618256,0.30058876,0.39516097,0.024162048,-0.66917574,-1.2701664,-0.5863561,0.079385936,0.32864976,-5.6633873,0.8657196,0.40929753
84,1.6502296,1.5471647,1.7515444,0.054414265,-0.9953413,-0.015266045,-0.9964825,0.99618036,0.6721737,-1.5047644,0.05916304,-5.978674,0.20187505,0.39452916,211.53401,0.31184446811676025,-0.48715585470199585,-2.7293219566345215,0.1949394686599664,0.35659456,0.29257208,0.3888374,0.02314311,-0.6695508,-1.8865225,-0.5819052,0.102825865,0.34887755,-5.6909704,0.5295634,0.39556205
85,1.6478256,1.5472741,1.7515444,0.05526288,-1.008616,-0.06112148,-0.99961925,0.9965462,0.6500669,-1.3626245,0.05826508,-5.978674,0.20024785,0.3925793,215.62598,0.30817192792892456,-0.4802989959716797,-2.7369697093963623,0.19488064421057144,0.3489254,0.28454217,0.38296318,0.023909336,-0.67391986,-1.21066,-0.56073684,0.084531926,0.3475359,-5.657913,0.62120724,0.39266735
86,1.6518788,1.5472741,1.7515444,0.05726532,-1.0378714,-0.029482564,-0.99961925,0.99618036,0.6622808,-1.4016249,0.014547603,-5.979085,0.20187505,0.6590707,77.15023,0.8599156141281128,-0.46874088048934937,-2.75541090965271,0.19482180660225637,0.33526963,0.26476145,0.36767602,0.025179083,-0.6848873,-1.8863542,-0.52725863,0.15450925,0.30706674,-5.7048173,0.6491338,0.6580604
87,1.6489547,1.5471647,1.7515444,0.054658554,-0.9288945,0.039723482,-0.99961925,0.9965462,0.6794148,-1.4241838,-0.009643249,-5.979085,0.20024785,0.75848264,56.950073,1.1340972185134888,-0.4358021318912506,-2.707888603210449,0.19476305043242173,0.30809206,0.23062485,0.34091562,0.024319451,-0.65552247,-1.6435583,-0.49833858,0.13810961,0.2786572,-5.7062116,0.6363296,0.7556603
88,1.64794,1.549783,1.7488861,0.053521566,-1.0669304,-0.013698477,-0.9965608,0.9965462,0.64741147,-1.3311222,0.067737356,-5.979085,0.20024785,0.3852062,234.22226,0.29769167304039,-0.43148791790008545,-2.7291338443756104,0.19470432972851964,0.30134654,0.22751792,0.333254,0.024894407,-0.66820383,-1.6862214,-0.50984794,0.14223196,0.35402006,-5.6440153,0.5810263,0.38467178
89,1.6473423,1.5472741,1.747483,0.053195037,-0.84348166,-0.08248316,-0.99928164,0.9965462,0.62090886,-1.2384614,0.08724667,-0.7962805,0.19861764,0.08051596,54.776955,0.030515342950820923,-0.4369683265686035,-2.756667137145996,0.19464559168099993,0.30364978,0.2297799,0.34327644,0.023608522,-0.684723,-3.3298893,-0.5368299,0.23792867,0.37524807,-0.46483943,0.54483557,0.08991501
90,1.6503999,1.5471647,1.7515444,0.057862673,-0.9365763,-0.11544067,-0.99928164,0.9908895,0.6584354,-1.4488549,-0.011027072,-5.979085,0.20187505,0.6689256,71.295,0.8773876428604126,-0.42717087268829346,-2.743633270263672,0.1945868661440445,0.29550317,0.21858257,0.33548352,0.023881268,-0.67644835,-2.4791386,-0.58252054,0.16143331,0.2819578,-5.6823487,0.6082455,0.6671136
91,1.6491265,1.5471647,1.750404,0.056258015,-0.9891264,-0.0048699724,-0.9965608,0.9909677,0.6593519,-1.4471529,0.083863616,-0.9378575,0.20187505,0.10315476,44.34779,0.04023582488298416,-0.4423338770866394,-2.743175983428955,0.19452815586180497,0.31082043,0.25061372,0.35013485,0.023997901,-0.6758599,-2.4590828,-0.5896102,0.15906675,0.38135684,-0.6174879,0.63190705,0.10883558
92,1.6476079,1.5484847,1.7479495,0.054553382,-0.9488142,-0.083216496,-0.99961925,0.9965462,0.67145836,-1.436881,0.08613529,-0.7962805,0.20187505,0.08839102,41.364704,0.029373154044151306,-0.4734092950820923,-2.7337183952331543,0.1944694803553615,0.34311932,0.2714806,0.38295266,0.02351435,-0.66977435,-2.30925,-0.5422613,0.19226488,0.38054925,-0.48660955,0.5574668,0.0947533
93,1.6463637,1.5471647,1.750404,0.054033898,-0.9927363,-0.06331158,-0.9965608,0.9965462,0.6179444,-1.2884043,0.08375229,-0.9378575,0.1969858,0.091440454,60.943123,0.023638524115085602,-0.5105688571929932,-2.715580463409424,0.19441087350066213,0.38253203,0.32464293,0.41859454,0.023660617,-0.65839005,-2.001749,-0.5107638,0.172169,0.37719396,-0.6375524,0.5669313,0.09656445
94,1.6515113,1.5471647,1.7515444,0.057541516,-1.1412385,-0.044729307,-0.99961925,0.98879385,0.6561217,-1.4418935,-0.0055578556,-5.979085,0.20187505,0.75886047,56.99454,1.153281569480896,-0.5203531980514526,-2.7067227363586426,0.19435234778807742,0.39346585,0.32098398,0.43388954,0.023600629,-0.65267634,-1.404865,-0.51232314,0.107165344,0.29063058,-5.6799674,0.53615254,0.75822514
95,1.6496462,1.5471647,1.7515444,0.05450994,-0.8669436,0.04352408,-0.99961925,0.9965462,0.6367907,-1.3959666,0.054980587,-5.978674,0.20187505,0.3937495,212.63202,0.3125409781932831,-0.5204585790634155,-2.736016273498535,0.19429384161913754,0.39019287,0.30536422,0.4176109,0.022764469,-0.67025554,-1.8747234,-0.5241877,0.1629258,0.35613167,-5.6569047,0.7585901,0.39463937
96,1.6483634,1.5471647,1.7515444,0.056602698,-1.180236,-0.103362314,-0.99961925,0.9965462,0.67644113,-1.4106058,0.05220353,-5.978674,0.1969858,0.39854822,202.15442,0.3125983476638794,-0.49246594309806824,-2.741751194000244,0.19423534502006606,0.36161897,0.2744088,0.3910319,0.023684239,-0.6734489,-2.1622415,-0.5397072,0.15714814,0.35064325,-5.579619,0.56040686,0.39390412
97,1.6498009,1.5471647,1.7515444,0.052673936,-0.9854659,-0.03214975,-0.99928164,0.99618036,0.6662548,-1.4206861,0.015966719,-5.979085,0.20187505,0.65997934,76.798775,0.8640421628952026,-0.4542471170425415,-2.7409887313842773,0.1941768614915886,0.32358968,0.24152792,0.35718882,0.024040792,-0.67267597,-1.8362408,-0.55766165,0.11445396,0.31720752,-5.67422,0.78693426,0.66069865
98,1.6467338,1.5471647,1.750404,0.05426008,-0.84822047,-0.03346263,-0.99961925,0.98879385,0.6505917,-1.4294097,0.012338674,-5.979085,0.20187505,0.65925115,76.96531,0.8501200675964355,-0.4265238642692566,-2.7529296875,0.19411836994209475,0.29455075,0.20670252,0.3250417,0.025294263,-0.6796542,-1.7866571,-0.582113,0.119604155,0.31017232,-5.6724834,0.5329405,0.6575215
99,1.650091,1.5472741,1.7486421,0.053680282,-1.033786,0.026009575,-0.99928164,0.99618036,0.6570173,-1.4602637,0.0480095,-5.979085,0.20024785,0.5391306,119.02815,0.5792115330696106,-0.4155588746070862,-2.752732753753662,0.1940598747530804,0.28370872,0.18753397,0.31423813,0.02622895,-0.67922556,-2.5723076,-0.57120395,0.1478669,0.34749636,-5.69845,0.58118284,0.54126006
100,1.6485733,1.5472741,1.7486421,0.05586277,-1.1479886,0.041217525,-0.9965608,0.9965462,0.6469545,-1.3583441,0.0702872,-5.979085,0.20024785,0.384042,237.48772,0.3059954047203064,-0.4306662380695343,-2.751187562942505,0.19400138241600004,0.2990986,0.20274237,0.3351228,0.029333547,-0.67797446,-1.5611706,-0.55227673,0.116551965,0.37042987,-5.670659,0.7068502,0.3860465
101,1.6507025,1.5471647,1.7515444,0.053449266,-0.92092586,-0.062224492,-0.99928164,0.9965462,0.6619828,-1.4362257,0.0570763,-5.978674,0.20187505,0.40177137,196.42621,0.3363818824291229,-0.4464644491672516,-2.758746862411499,0.19394288135044027,0.31410205,0.22784898,0.354688,0.027032768,-0.68227565,-1.2425549,-0.5495352,0.088225126,0.3619936,-5.6515374,0.8489939,0.4043585
102,1.6506599,1.5483752,1.7513723,0.057911683,-1.2225666,-0.11309748,-0.99961925,0.9965462,0.6623618,-1.463569,0.021978624,-5.978674,0.20187505,0.6604258,76.88864,0.870690107345581,-0.45702874660491943,-2.7625770568847656,0.19388436838464676,0.3243134,0.2386839,0.3657115,0.027753888,-0.68430144,-2.302547,-0.5563521,0.16187835,0.33029595,-5.7018943,0.81971866,0.659627
103,1.6530337,1.5471647,1.7515444,0.056684338,-0.94985896,-0.02874263,-0.99928164,0.9965462,0.6757523,-1.4536494,0.004215326,-5.979085,0.19861764,0.66744745,72.70672,0.8788919448852539,-0.4668062925338745,-2.7597784996032715,0.19382585337565703,0.33452177,0.25134146,0.37571332,0.024066778,-0.6822856,-2.4549918,-0.5864579,0.1692714,0.31202745,-5.6508083,0.60500884,0.66560006
104,1.6486416,1.5474315,1.7486421,0.057928782,-1.1547837,-0.07367146,-0.99961925,0.9909677,0.65520823,-1.3831375,0.060220763,-5.979085,0.19861764,0.39035943,220.90593,0.3005715012550354,-0.48668915033340454,-2.767773151397705,0.19376732450204173,0.35356015,0.25462258,0.39348933,0.025995756,-0.68684864,-1.6421096,-0.58417016,0.12538947,0.36639687,-5.642876,0.606417,0.3900216
105,1.650434,1.5471647,1.750404,0.054930884,-1.0702546,-0.035299122,-0.99961925,0.9965462,0.649114,-1.3924323,0.08130665,-0.9378575,0.20187505,0.13006784,31.238014,0.041734084486961365,-0.510527491569519,-2.7464160919189453,0.1937088273565081,0.38002053,0.2976219,0.42083934,0.024062488,-0.67352426,-1.3477094,-0.5505333,0.11165396,0.38929802,-0.6077072,0.6372479,0.13577707
106,1.6523848,1.5471647,1.750404,0.05652473,-1.0524209,-0.004272069,-0.99928164,0.9965462,0.6677217,-1.5090716,0.055208996,-5.979085,0.20024785,0.39737085,204.96495,0.31295469403266907,-0.5320236682891846,-2.717487096786499,0.19365041709405226,0.40502974,0.33114085,0.44347522,0.023722095,-0.6555919,-2.0758393,-0.49317765,0.14940864,0.3648225,-5.6517673,0.79454637,0.39797413
107,1.6490219,1.5483752,1.7513723,0.056479238,-1.1715118,-0.043595027,-0.99928164,0.9965462,0.6609489,-1.4794692,0.014273007,-5.979085,0.20024785,0.66246223,75.52347,0.8754284381866455,-0.5143860578536987,-2.730098009109497,0.19359206323768163,0.38600177,0.2843522,0.4176877,0.024259353,-0.66296947,-1.3662958,-0.43443823,0.14083871,0.3220927,-5.676463,0.5489185,0.6615644
108,1.6493415,1.5474315,1.7515444,0.057245813,-1.1078186,-0.0064182933,-0.99961925,0.99618036,0.6711878,-1.4765732,0.014847949,-5.978674,0.20187505,0.65923846,77.07506,0.8744874000549316,-0.47897791862487793,-2.7473549842834473,0.19353372968888083,0.3486568,0.24815038,0.3810338,0.026174719,-0.6731738,-1.8660762,-0.38832915,0.19854717,0.32804483,-5.6964087,0.5848351,0.66065377
109,1.6507437,1.5471647,1.750404,0.05660266,-1.0100098,-0.07261341,-0.9964825,0.99618036,0.6339931,-1.302392,0.090449974,-0.9378575,0.19861764,0.09631243,52.254765,0.030133960768580437,-0.45590001344680786,-2.7186625003814697,0.19347547236742713,0.32905877,0.24166515,0.36805195,0.029184788,-0.655396,-2.4455633,-0.36399472,0.24274006,0.40116277,-0.6089064,0.54055274,0.10336561
110,1.6516213,1.5474315,1.7492633,0.055287205,-1.0525825,-0.049521763,-0.99928164,0.9908895,0.63623095,-1.3876977,0.09832959,-0.57764584,0.20024785,0.07904504,24.14198,0.02762189880013466,-0.4669087827205658,-2.7005250453948975,0.19341732087354035,0.3423008,0.26347274,0.38177544,0.029302428,-0.6440506,-2.3812253,-0.38215303,0.20323229,0.40997958,-0.27663606,0.56021047,0.08540146
111,1.6528267,1.5483353,1.7490035,0.05625855,-0.9896255,-0.092471644,-0.99961925,0.9909677,0.6600716,-1.382598,0.09204115,-0.57764584,0.19756639,0.08998307,18.420944,0.03111919015645981,-0.5048655271530151,-2.7256832122802734,0.19335921833323763,0.37739128,0.3045772,0.4132113,0.026806531,-0.659063,-2.2102494,-0.4517038,0.14403875,0.40830404,-0.23603022,0.5912971,0.09508937
112,1.6519789,1.5471244,1.750404,0.05998306,-1.1899099,-0.029202865,-0.99961925,0.99618036,0.6365087,-1.3466533,0.06714939,-5.979085,0.20187505,0.39206806,218.12994,0.31105923652648926,-0.5290632247924805,-2.7645745277404785,0.19330108768560586,0.39710957,0.3207655,0.44186804,0.027898753,-0.68242764,-2.4953985,-0.53211737,0.16711311,0.3885853,-5.6372094,1.063785,0.39512572
113,1.6513636,1.547782,1.7513723,0.057239532,-1.1065078,-0.0323258,-0.99961925,0.9965462,0.64925987,-1.4238752,0.05846282,-5.978674,0.20187505,0.39946356,201.13443,0.3163244128227234,-0.5384440422058105,-2.768873691558838,0.19324292671482685,0.40608382,0.32759297,0.44661492,0.025821006,-0.6847357,-2.566564,-0.5628337,0.18258244,0.3755045,-5.6301527,0.5721181,0.3991199
114,1.648476,1.5471244,1.750404,0.059587255,-1.1847355,-0.04737702,-0.99961925,0.97153884,0.6347693,-1.3427579,0.08157368,-0.9378575,0.20024785,0.110699795,33.67636,0.033361729234457016,-0.5385462045669556,-2.7723488807678223,0.19318473507037554,0.405877,0.33681935,0.44710445,0.027480757,-0.6865415,-1.8258502,-0.46573305,0.17729218,0.39243263,-0.60133517,0.5953813,0.116795175
115,1.6520132,1.5458786,1.7515444,0.057828885,-1.0138942,0.010689054,-0.9964825,0.98879385,0.64639556,-1.3739859,0.05695033,-5.978674,0.20271866,0.39533374,209.44026,0.3333722949028015,-0.5302355885505676,-2.726785182952881,0.19312660667268813,0.40301973,0.3384556,0.44434,0.025506966,-0.6585191,-1.7036407,-0.3823067,0.19121298,0.37404788,-5.748991,1.1913359,0.40647483
116,1.6506475,1.5458786,1.7515444,0.058192555,-1.0370644,-0.01678104,-0.9965608,0.9965462,0.6541323,-1.408476,0.062248174,-5.978674,0.20271866,0.3953934,210.11838,0.314979612827301,-0.5196235179901123,-2.707031726837158,0.19306857569005803,0.39482445,0.32300946,0.43717548,0.025701348,-0.64620316,-1.3166934,-0.32430184,0.20828764,0.37278703,-5.609113,0.61099946,0.3956473
117,1.6498945,1.5477552,1.7512846,0.057049755,-1.0824208,-0.023355551,-0.99928164,0.9965462,0.6810326,-1.4605045,0.04477768,-5.978674,0.20187505,0.540146,117.82209,0.5991071462631226,-0.49947071075439453,-2.6859052181243896,0.19301067522716683,0.37724727,0.29155317,0.41674545,0.026120637,-0.63305724,-1.8531995,-0.29724395,0.23044129,0.3555111,-5.739121,0.75163037,0.54974484
118,1.6521018,1.5468152,1.7515444,0.056753293,-1.0653276,-0.036353085,-0.9965608,0.9909677,0.6834662,-1.5273238,0.023058308,-5.979085,0.20024785,0.6603044,77.01874,0.8891385793685913,-0.46719682216644287,-2.691422700881958,0.19295288337267555,0.34442014,0.24195887,0.38816714,0.033199698,-0.6361134,-1.6105187,-0.30235207,0.23196192,0.3469229,-5.755794,0.69268715,0.6698129
119,1.650146,1.5460827,1.7515444,0.06271251,-1.1793065,-0.090452224,-0.99928164,0.99618036,0.64913255,-1.3217442,-0.0025569163,-5.979085,0.20187505,0.6662337,72.92877,0.8711704015731812,-0.43288546800613403,-2.7359514236450195,0.19289510528868561,0.30498093,0.19648555,0.34972703,0.03507043,-0.6628798,-1.6309962,-0.3277979,0.22233133,0.31923565,-5.6127334,0.72328466,0.66402596
120,1.6532986,1.5462561,1.7515444,0.058932588,-1.0817425,-0.020339757,-0.99961925,0.9965462,0.6544691,-1.3625861,0.014497777,-5.979085,0.20187505,0.66467214,74.49833,0.8751083612442017,-0.4106677770614624,-2.7172138690948486,0.1928373783505157,0.28505632,0.18939087,0.32909754,0.030468281,-0.65119064,-1.4204803,-0.36080468,0.18478419,0.33058837,-5.7127075,0.69330347,0.6660109
121,1.6552331,1.5454848,1.7515444,0.056629658,-0.9721806,-0.11061685,-0.99928164,0.9965462,0.6393273,-1.302569,0.014076212,-5.979085,0.20271866,0.6649997,74.31987,0.8847408294677734,-0.40893059968948364,-2.7334489822387695,0.1927796684382537,0.28151244,0.1791737,0.3253479,0.031700086,-0.66075444,-1.6696038,-0.3954693,0.19374774,0.33547527,-5.682755,0.62505776,0.6661903
122,1.6529331,1.5454848,1.7509856,0.060219858,-1.1728731,-0.11087761,-0.99928164,0.9965462,0.6576455,-1.3559154,0.019728007,-5.979085,0.20187505,0.66162306,76.19801,0.8862276077270508,-0.42603886127471924,-2.7213945388793945,0.19272199967794923,0.30012864,0.19909239,0.34036025,0.028201623,-0.65312994,-1.478226,-0.4268204,0.1460489,0.33739004,-5.711789,0.6287637,0.66249496
123,1.6496031,1.5454848,1.7515444,0.059904438,-1.0658935,0.02409827,-0.99928164,0.99618036,0.6609908,-1.4256653,-0.035716943,-5.978754,0.20271866,0.8470297,44.341595,1.4199669361114502,-0.4338458180427551,-2.7624619007110596,0.19266429112770403,0.30322433,0.21498635,0.34891075,0.03101704,-0.67777157,-2.1947246,-0.45919025,0.1920137,0.28564686,-5.69951,0.79574,0.8487384
124,1.6501389,1.5454848,1.7515444,0.05884394,-1.1678348,-0.057034217,-0.99961925,0.9965462,0.6460906,-1.3844833,-0.010325408,-5.979085,0.20187505,0.762457,55.692448,1.155768632888794,-0.43954455852508545,-2.775514602661133,0.19260652469241757,0.3074939,0.22479534,0.35228074,0.03322716,-0.6853924,-2.3894053,-0.4952551,0.1988274,0.31029418,-5.71434,0.71288365,0.764597
125,1.6515983,1.5465713,1.7515444,0.059036747,-1.0115929,-0.011945181,-0.99928164,0.9965462,0.696334,-1.5355914,0.029341193,-5.979085,0.19947167,0.5503488,108.063736,0.6027621030807495,-0.45664048194885254,-2.751615524291992,0.192548755500531,0.32748318,0.2432174,0.3702076,0.028890355,-0.670576,-1.7516072,-0.5163865,0.12878144,0.35404375,-5.6409645,0.69059163,0.54975766
126,1.6548482,1.5455,1.7515444,0.06202791,-1.1618841,-0.14414126,-0.9964825,0.99618036,0.6307935,-1.2175331,0.029523076,-5.979085,0.20187505,0.55789053,102.267815,0.6192830801010132,-0.48042821884155273,-2.7801036834716797,0.19249093177704174,0.34803855,0.26923656,0.3972687,0.03218789,-0.6875645,-2.2390933,-0.5432327,0.15402263,0.35868227,-5.664479,0.9087655,0.55901265
127,1.6474704,1.5458786,1.7515444,0.061836354,-1.1961963,-0.08050636,-0.99961925,0.9908895,0.629578,-1.291895,0.037312172,-5.978674,0.20271866,0.54059166,116.83249,0.5782370567321777,-0.5112760663032532,-2.7552490234375,0.19243311020543766,0.38188896,0.29969653,0.4255964,0.030231567,-0.6721725,-1.3782411,-0.5588007,0.08950789,0.36415255,-5.6798496,0.6684015,0.54247624
128,1.6495377,1.5458786,1.7492633,0.061621323,-1.1919916,-0.015565144,-0.99928164,0.99618036,0.65509075,-1.3923101,0.058030482,-5.979085,0.20271866,0.39422444,211.98514,0.3084210455417633,-0.5425041913986206,-2.766040325164795,0.19237527265123158,0.41195455,0.3350219,0.45629904,0.029890826,-0.6784156,-1.1673284,-0.562999,0.07448425,0.38747478,-5.616776,0.5674324,0.39415038
129,1.6478089,1.5454848,1.7509856,0.06313431,-1.0934477,-0.10771867,-0.99928164,0.9965462,0.6611894,-1.3410509,0.03594022,-5.978754,0.20187505,0.40717182,183.47072,0.3419607877731323,-0.554401159286499,-2.7991623878479004,0.19231735996475904,0.4200839,0.3265533,0.45899457,0.02834516,-0.69820416,-2.0401106,-0.55579495,0.1558276,0.36460567,-5.61422,0.6691228,0.40791425
130,1.6495595,1.5455,1.750404,0.060207076,-1.175852,-0.06878953,-0.9965608,0.9909677,0.64915913,-1.3253529,0.082395226,-0.9378575,0.20109527,0.13081735,34.31134,0.04324159026145935,-0.5532723665237427,-2.7704334259033203,0.19225943861264874,0.4224066,0.33392122,0.45834845,0.0270459,-0.68046796,-1.5393457,-0.56089354,0.1021281,0.40880543,-0.6261288,0.63432634,0.13546781
131,1.6513482,1.5455,1.7515444,0.05746374,-0.93523693,-0.046627603,-0.99961925,0.9965462,0.6747146,-1.4634331,0.010142068,-5.979085,0.20187505,0.66571116,73.79922,0.8888756036758423,-0.5306216478347778,-2.7716870307922363,0.19220151014186457,0.39970812,0.32219407,0.4401934,0.02745305,-0.6809211,-1.851896,-0.5810724,0.11136475,0.34620035,-5.6668854,1.0827838,0.6682246
132,1.6505888,1.5466956,1.7512846,0.06097684,-1.0587142,0.037187796,-0.99961925,0.9965462,0.6358343,-1.3297827,-0.048159763,-5.979085,0.20271866,0.8462003,44.12973,1.4430941343307495,-0.4863283634185791,-2.7764463424682617,0.19214356919462933,0.35495868,0.2642289,0.39280134,0.028788999,-0.68349975,-1.3232901,-0.5719856,0.08647605,0.2856089,-5.6543975,0.6891984,0.845057
133,1.6492801,1.5458786,1.7515444,0.060227603,-1.0542688,-0.05966048,-0.9965608,0.9965462,0.65719575,-1.3778253,0.051025204,-5.978674,0.20271866,0.3959318,207.31477,0.31606101989746094,-0.4546477794647217,-2.7837791442871094,0.19208560605728758,0.3225226,0.23380837,0.36199084,0.028523516,-0.6876377,-1.8207614,-0.5824033,0.14547898,0.38282156,-5.653067,0.82036054,0.39772853
134,1.649996,1.5458786,1.7492633,0.059723787,-1.1327001,-0.061121613,-0.9965608,0.9908895,0.6515992,-1.467574,0.08422089,-0.57764584,0.20271866,0.099834554,13.538765,0.04524323344230652,-0.4560631811618805,-2.77768874168396,0.19202763795935712,0.3247463,0.23539773,0.3623788,0.026602734,-0.68363726,-2.4677598,-0.59452426,0.17342262,0.41881877,-0.2176396,0.8165315,0.10595596
135,1.651164,1.5454848,1.7509856,0.06060519,-1.117363,0.03155012,-0.9948489,0.9965462,0.6587491,-1.4419156,0.031020958,-5.979085,0.20187505,0.5473913,110.587204,0.5995014309883118,-0.4591093063354492,-2.757974624633789,0.19196970655345605,0.3301854,0.2607209,0.3741664,0.027501134,-0.6713821,-2.604052,-0.60409784,0.16504392,0.3632867,-5.642315,0.7716939,0.5471489
136,1.6510137,1.5454848,1.7515444,0.05769082,-0.9925934,-0.089232184,-0.99961925,0.9965462,0.64870787,-1.3974593,-0.0046442635,-5.979085,0.20271866,0.7594651,56.837452,1.1257917881011963,-0.4599902629852295,-2.7352471351623535,0.1919118548348558,0.3338074,0.26889142,0.3713023,0.022248296,-0.65730596,-2.013075,-0.582206,0.1306064,0.3303896,-5.673235,0.640254,0.75550485
137,1.6504401,1.5466956,1.7510414,0.057068944,-0.96094674,-0.04632477,-0.99961925,0.98879385,0.6507009,-1.4159535,-0.013502346,-5.979085,0.20271866,0.7606637,56.115044,1.1505035161972046,-0.4582827091217041,-2.7245311737060547,0.1918540979732372,0.3334418,0.2510164,0.3691743,0.024520017,-0.6505116,-1.4310236,-0.5524142,0.10170251,0.3207654,-5.6747403,0.62461567,0.7637587
138,1.6494557,1.5455,1.7498477,0.059706956,-1.1253085,-0.006110668,-0.9965608,0.9965462,0.6455827,-1.3992007,0.08677593,-0.6598914,0.20109527,0.104355864,24.820906,0.04363197833299637,-0.483692467212677,-2.7550015449523926,0.1917963699290008,0.35540608,0.28176647,0.395764,0.024354704,-0.6686663,-1.9665039,-0.5251801,0.14951245,0.42117187,-0.3033997,0.6887848,0.110119365
139,1.6515398,1.5455,1.7498477,0.060297646,-1.2254574,-0.060468066,-0.99556,0.9909677,0.68122196,-1.5022721,0.084129415,-0.6598914,0.20271866,0.10491852,17.986948,0.04168828949332237,-0.5230703353881836,-2.762439250946045,0.19173865621621272,0.39401704,0.3140285,0.4342529,0.025302915,-0.67286617,-1.5978525,-0.49102855,0.13960685,0.42103183,-0.37821984,0.8852288,0.115798
140,1.6512117,1.5458786,1.750404,0.058863275,-1.0261233,-0.03287159,-0.99928164,0.98879385,0.64499164,-1.3869064,0.07216175,-5.979085,0.20271866,0.39015776,223.21632,0.3053562641143799,-0.5652363896369934,-2.7538723945617676,0.19168097479046128,0.43727493,0.34751114,0.4775266,0.025486454,-0.6673745,-1.3559673,-0.4697489,0.12102749,0.40760797,-5.6543555,0.58141136,0.39295635
141,1.6486291,1.5454848,1.7515444,0.05938725,-1.0741594,-0.112241715,-0.99961925,0.99618036,0.63692325,-1.3353097,0.030448899,-5.978754,0.20109527,0.5483834,109.73821,0.6075804233551025,-0.5917161703109741,-2.8173069953918457,0.19162320282373685,0.45649073,0.3642491,0.4952314,0.025982898,-0.7054714,-2.6859846,-0.46253037,0.22447194,0.36385888,-5.624412,0.73018444,0.5466255
142,1.6476954,1.5458786,1.7492633,0.060066808,-1.1007657,0.015124633,-0.9965608,0.9909677,0.6464245,-1.4117482,0.06351333,-5.979085,0.20271866,0.38773385,227.46375,0.30563467741012573,-0.5810350179672241,-2.775993585586548,0.1915654327170681,0.4507014,0.35512364,0.48575288,0.024089675,-0.6801554,-1.2651887,-0.46033585,0.1099882,0.4055583,-5.624522,0.94116235,0.39086553
143,1.6508963,1.5455,1.750404,0.059765108,-1.1420839,-0.11299203,-0.99961925,0.9965462,0.62529683,-1.2314081,0.056245632,-5.979085,0.20271866,0.40434122,191.33577,0.321785032749176,-0.5600361824035645,-2.778754949569702,0.19150766199243202,0.42948058,0.3164053,0.46722713,0.027375648,-0.68151975,-1.0255461,-0.46339202,0.093257554,0.3995117,-5.5951552,0.6696638,0.40197495
144,1.6499681,1.5455,1.7498477,0.059646364,-1.1174905,-0.04488564,-0.99556,0.99618036,0.622536,-1.3561164,0.08179033,-0.7962805,0.20187505,0.11440673,23.186457,0.03429053723812103,-0.5385724306106567,-2.7741878032684326,0.1914499025810468,0.40864417,0.30783898,0.45030478,0.027491312,-0.67844963,-2.3337483,-0.4660709,0.15145406,0.42404562,-0.40379727,0.5896073,0.1211567
145,1.6486651,1.5454848,1.7509856,0.062892824,-1.2259365,-0.0706137,-0.99928164,0.9908895,0.659752,-1.4440674,0.0492074,-5.978754,0.20271866,0.3988293,201.10518,0.32227784395217896,-0.52510666847229,-2.8020992279052734,0.19139210253003625,0.39204368,0.2752912,0.42994714,0.029927516,-0.69502765,-1.8248262,-0.50183475,0.12990963,0.38851553,-5.6013227,0.59099317,0.3983649
146,1.6486294,1.5454848,1.7515444,0.056804754,-0.95399106,-0.059778035,-0.9964825,0.99618036,0.65864295,-1.4003223,0.03312332,-5.978754,0.20187505,0.5430751,114.346,0.5850362777709961,-0.5035528540611267,-2.8009772300720215,0.19133427147537585,0.3707192,0.26335445,0.40988898,0.028208459,-0.6940393,-1.8443413,-0.4946916,0.1559592,0.37738052,-5.590195,0.5927124,0.540169
147,1.6511662,1.5454848,1.7515444,0.06032691,-1.0679115,-0.0886547,-0.9965608,0.99618036,0.6477668,-1.3400872,0.0098494105,-5.978754,0.20271866,0.6619434,75.5189,0.8822689056396484,-0.4820900559425354,-2.7784295082092285,0.19127645933484314,0.3519645,0.2428607,0.3889506,0.027624864,-0.6800954,-0.98156285,-0.4749111,0.08712636,0.35412848,-5.664707,0.5949988,0.663525
148,1.648295,1.5454848,1.7515444,0.061892416,-1.1537126,-0.07096486,-0.99961925,0.9908895,0.6700439,-1.5009629,-0.00517385,-5.978754,0.20109527,0.66876906,71.64657,0.8918733596801758,-0.4514950215816498,-2.777766227722168,0.19121866849432362,0.3215442,0.22138827,0.35770127,0.026292995,-0.67938745,-1.1980412,-0.47021472,0.09862953,0.33894682,-5.6730733,0.5816442,0.66975045
149,1.6492454,1.5454848,1.7509856,0.06117267,-1.1676297,-0.062939405,-0.99961925,0.9965462,0.65991294,-1.3904569,0.060811054,-5.978754,0.20271866,0.39634275,207.90979,0.3345779776573181,-0.4471624791622162,-2.7929954528808594,0.19116087045319918,0.3155493,0.22598273,0.35385832,0.026441727,-0.68828624,-1.4476094,-0.48304796,0.11455553,0.40921772,-5.6195016,0.630743,0.39670447
150,1.6492543,1.5458786,1.750404,0.05879505,-1.1254594,-0.11306985,-0.99928164,0.9965462,0.65254736,-1.3618631,0.07990309,-0.9378575,0.20271866,0.12341599,30.63884,0.06020336225628853,-0.4734664857387543,-2.7640907764434814,0.19110312483907554,0.3452914,0.26975477,0.37880751,0.021235654,-0.67050886,-1.2732959,-0.47192442,0.10037548,0.42912924,-0.58232963,0.7154167,0.12756354
151,1.6503978,1.5455,1.7498477,0.05994367,-1.1046424,0.009264607,-0.99556,0.9965462,0.639471,-1.3751816,0.04956346,-5.979085,0.19947167,0.39710087,204.69357,0.312616765499115,-0.5119055509567261,-2.791829824447632,0.19104537569049104,0.38062435,0.29903388,0.41683176,0.022323117,-0.68696535,-1.7592573,-0.4750806,0.14332962,0.39798996,-5.6085668,0.5928384,0.3963029
152,1.6499757,1.5454848,1.7515444,0.06290078,-1.2168213,-0.040628575,-0.99961925,0.9908895,0.6546938,-1.4089878,-0.00021346658,-5.979085,0.20187505,0.6660757,73.10884,0.8843952417373657,-0.5351880788803101,-2.7464375495910645,0.190987714021134,0.40924442,0.344219,0.44417936,0.020883359,-0.65923405,-1.2099378,-0.46854055,0.09927308,0.34697706,-5.657451,0.5746701,0.6676971
153,1.6484548,1.5454848,1.7515444,0.05864203,-0.9979625,-0.044616662,-0.99556,0.9563241,0.6202414,-1.2807567,0.007705641,-5.978754,0.20271866,0.6618938,75.44012,0.880348801612854,-0.5519446730613708,-2.7803704738616943,0.19093006811866822,0.42218232,0.33473894,0.45657516,0.021776203,-0.67942786,-1.8368123,-0.47466338,0.13018791,0.35739133,-5.6524134,0.579507,0.6627068
154,1.6466644,1.5454848,1.7515444,0.060431585,-1.0684607,-0.012385998,-0.99961925,0.99618036,0.6566383,-1.4275378,-0.03840915,-5.979085,0.19784728,0.8435669,45.03752,1.4265553951263428,-0.5242608785629272,-2.7698779106140137,0.19087245959088872,0.395806,0.33485946,0.42666653,0.020702759,-0.67278504,-2.4361076,-0.47315335,0.14665951,0.31238994,-5.6443286,0.8977685,0.84490734
155,1.6471562,1.5454848,1.7509856,0.058009498,-1.089379,-0.0830121,-0.99961925,0.9909677,0.641182,-1.3256596,0.013925048,-5.979085,0.20271866,0.6604251,76.472496,0.8678205013275146,-0.48449090123176575,-2.7620246410369873,0.19081490263513964,0.35703805,0.2968566,0.38860455,0.019981595,-0.6677383,-1.0410922,-0.47883224,0.08972852,0.3643535,-5.647284,0.5794985,0.66079855
156,1.6464255,1.5454848,1.7509856,0.063455224,-1.2117305,-0.026566438,-0.9964825,0.99618036,0.6462397,-1.4107991,0.011511831,-5.978754,0.20271866,0.6572728,77.85325,0.8603242635726929,-0.45568370819091797,-2.7786002159118652,0.19075736281086658,0.3264178,0.2587152,0.3605455,0.023015568,-0.67744136,-2.275095,-0.47278023,0.13771048,0.36546865,-5.645182,0.58949196,0.65600497
157,1.6490946,1.5454848,1.7515444,0.059432022,-1.0249522,-0.03825835,-0.99961925,0.9965462,0.6540043,-1.4046427,0.0366766,-5.978754,0.20187505,0.5416684,115.84016,0.5958629846572876,-0.4507601857185364,-2.7869889736175537,0.1906998251450013,0.3206256,0.2310587,0.3543618,0.022717234,-0.6821994,-1.4894526,-0.51194954,0.10081399,0.3924892,-5.6508207,0.6937877,0.5432716
158,1.6516094,1.5467106,1.7501442,0.058573358,-1.0452485,-0.00889075,-0.99928164,0.9965462,0.64295626,-1.4212288,0.074193865,-0.9378575,0.20271866,0.1389312,26.13231,0.06195033714175224,-0.4761214852333069,-2.789478063583374,0.19064228764429608,0.3457981,0.27266464,0.38262773,0.02201809,-0.6833954,-1.1495047,-0.5504062,0.0764462,0.42813498,-0.5664877,0.5942561,0.14158064
159,1.6482933,1.5455,1.750404,0.056808315,-1.0799052,-0.04070474,-0.9965608,0.9965462,0.6392919,-1.3831676,0.05407602,-5.979085,0.19784728,0.39725602,205.07758,0.3184375762939453,-0.5153002142906189,-2.814284324645996,0.19058470557556542,0.38222122,0.30978817,0.4173324,0.02234722,-0.69805616,-1.9564981,-0.51381695,0.13945264,0.4064793,-5.6179233,0.59456384,0.39848846
160,1.650978,1.5454848,1.7509856,0.059441723,-1.1180928,-0.034636673,-0.99961925,0.9965462,0.6583538,-1.4115664,0.058512725,-5.978754,0.20024785,0.39289758,214.87067,0.31697016954421997,-0.5375555753707886,-2.777696371078491,0.1905271572360039,0.4087823,0.3299039,0.44858643,0.023226088,-0.6756747,-1.5990629,-0.49725986,0.10729463,0.4170776,-5.629703,0.5933808,0.39467245
161,1.6498749,1.5458786,1.7515444,0.062257282,-1.1693072,-0.028688706,-0.99961925,0.9965462,0.63555574,-1.354487,0.013674064,-5.979085,0.20271866,0.6614988,75.949425,0.8796724081039429,-0.5572023391723633,-2.7885513305664062,0.19046962119065183,0.42727873,0.34161103,0.46579447,0.02499906,-0.6819166,-1.7494597,-0.4918903,0.12145921,0.36778775,-5.694028,0.8925234,0.66733265
162,1.6480173,1.5460827,1.7515444,0.057386488,-0.93384224,-0.048416853,-0.99928164,0.9965462,0.6283076,-1.3196319,0.037204556,-5.979085,0.19947167,0.5431543,114.63468,0.5907672643661499,-0.5674879550933838,-2.7947793006896973,0.19041208721005348,0.4369466,0.339831,0.4731308,0.025775444,-0.6853659,-3.0133872,-0.5044117,0.19706121,0.39528677,-5.646066,0.59719706,0.5447528
163,1.6498488,1.5465713,1.750404,0.059155148,-1.1119127,-0.02064829,-0.9948489,0.99618036,0.653899,-1.4155331,0.05425012,-5.979085,0.19947167,0.3998513,199.83058,0.31687259674072266,-0.5682709217071533,-2.784698009490967,0.1903545775620949,0.43898478,0.34610125,0.4762092,0.023147266,-0.6789807,-1.9368825,-0.53995806,0.12539509,0.41128546,-5.596744,0.7893964,0.40010694
164,1.6487423,1.5458786,1.7515444,0.060429376,-1.0990379,0.01235398,-0.9965608,0.98879385,0.65323323,-1.4348717,0.01408845,-5.978674,0.20271866,0.5535193,104.443726,0.6231492757797241,-0.5512951612472534,-2.774106502532959,0.19029711311734593,0.42332172,0.31530082,0.46448478,0.027295666,-0.67229,-2.5580044,-0.5735068,0.15155035,0.37899774,-5.6437078,1.0150295,0.5566598
165,1.6462913,1.5454848,1.7515444,0.060462076,-1.0498626,-0.030358315,-0.99961925,0.98879385,0.66240907,-1.4127008,0.00015745685,-5.978754,0.20271866,0.6635566,74.277054,0.884531557559967,-0.5152684450149536,-2.777372360229492,0.1902396858187637,0.38701692,0.29214668,0.42523322,0.02540367,-0.673954,-1.7316983,-0.5817622,0.12549987,0.3587088,-5.633731,0.6621773,0.664494
166,1.6464709,1.5454848,1.7509856,0.05883696,-1.0153222,0.006311153,-0.9948147,0.99618036,0.6542481,-1.4253603,0.03629889,-5.979085,0.20271866,0.5401205,117.189674,0.5835976600646973,-0.4812539219856262,-2.7816920280456543,0.19018228642368973,0.3526038,0.24411145,0.390379,0.022844445,-0.6762527,-1.8787544,-0.53050095,0.1504393,0.401621,-5.6433816,0.72413164,0.54310006
167,1.6500403,1.5455,1.7515444,0.060372755,-1.0891495,0.008831649,-0.99348384,0.9908895,0.6222405,-1.3960032,0.03225498,-5.979085,0.20271866,0.5476424,110.47677,0.5918228626251221,-0.46314018964767456,-2.775947093963623,0.19012492604089515,0.33524516,0.22443776,0.37401295,0.024849296,-0.6724868,-2.023013,-0.4843102,0.14480217,0.3967187,-5.5999684,0.7438035,0.5475337
168,1.6496639,1.5454848,1.7509856,0.061666228,-1.1937466,-0.05796259,-0.99961925,0.99618036,0.67137235,-1.4920449,0.04429211,-5.978754,0.20271866,0.5416503,116.45903,0.5957009792327881,-0.468048632144928,-2.7462029457092285,0.19006766080182755,0.34365642,0.2540492,0.38300532,0.026557298,-0.6542656,-1.8658097,-0.4262249,0.1727298,0.4074015,-5.594193,0.6224334,0.5402453
169,1.648607,1.5455,1.7498477,0.058109358,-1.0479591,0.0283571,-0.9964825,0.9965462,0.62740767,-1.3483446,0.0796687,-0.6598914,0.20109527,0.102942765,20.136997,0.04692724347114563,-0.5065819025039673,-2.7758848667144775,0.1900104263712965,0.3788864,0.28169203,0.4190479,0.025833763,-0.6718421,-2.1044729,-0.39416027,0.21429169,0.44376674,-0.27951652,0.8162819,0.111279115
170,1.6506358,1.5454848,1.7509856,0.05747629,-1.0343972,-0.023206793,-0.9965608,0.9965462,0.6546581,-1.4125556,-0.028160805,-5.979085,0.20271866,0.84571844,44.880028,1.4075641632080078,-0.5182077884674072,-2.761871337890625,0.18995324938657912,0.3922118,0.27814624,0.4329109,0.024795001,-0.6631003,-3.0299907,-0.38246477,0.24031594,0.33466798,-5.6045604,0.81667024,0.8442692
171,1.649275,1.5455,1.7498477,0.059875943,-1.151873,-0.045567732,-0.99961925,0.9908895,0.6330053,-1.3607901,0.08827574,-0.6598914,0.20271866,0.10050639,23.169483,0.036900199949741364,-0.5433831810951233,-2.751122236251831,0.18989614734474086,0.41871163,0.32569224,0.4568611,0.023716744,-0.65632755,-1.5528069,-0.39201307,0.18115418,0.45284212,-0.35061228,0.58923125,0.10661851
172,1.6489044,1.5462561,1.748709,0.05976045,-1.162439,-0.06463296,-0.99961925,0.96458626,0.65671474,-1.3703347,0.080024585,-0.44824827,0.20024785,0.09201735,9.023343,0.02581905573606491,-0.5729449987411499,-2.752009630203247,0.18983911343588955,0.44826645,0.35402542,0.48537743,0.024695158,-0.65656185,-1.4610374,-0.4280547,0.15643354,0.4437345,-0.12815765,0.5792233,0.097566895
173,1.6489741,1.5454848,1.7515444,0.058415122,-1.041806,-0.080062374,-0.99961925,0.9909677,0.6519281,-1.4082619,0.040091384,-5.978754,0.19947167,0.5399267,117.64437,0.5843538045883179,-0.5936850309371948,-2.7599380016326904,0.18978212797903973,0.4681949,0.39512247,0.5049858,0.023965994,-0.6610339,-1.5764523,-0.47557783,0.116449066,0.40729707,-5.5907106,0.6421365,0.53854203
174,1.6475716,1.5454848,1.7509856,0.05604601,-0.79363745,0.016945072,-0.99961925,0.9909677,0.6589419,-1.4548612,0.060012933,-5.978754,0.20271866,0.3890221,223.8895,0.3081474006175995,-0.6052032113075256,-2.7810771465301514,0.1897251479386903,0.47739372,0.37840366,0.51433766,0.025044233,-0.67345387,-1.8143137,-0.51336515,0.12561746,0.42844355,-5.591255,0.6853184,0.389022
175,1.6467335,1.5460827,1.748709,0.056649435,-0.9871744,-0.06993176,-0.99961925,0.97153884,0.65352887,-1.4546704,0.03886437,-5.979085,0.20187505,0.5394632,117.99189,0.5785689353942871,-0.5998703241348267,-2.8290343284606934,0.18966808333817062,0.4666826,0.3641184,0.50548804,0.027023874,-0.7020036,-3.0326967,-0.53833663,0.1911568,0.40767336,-5.6120076,0.6899384,0.5398609
176,1.6500611,1.5465446,1.750404,0.059309922,-1.0879495,0.038771197,-0.99961925,0.9965462,0.6717261,-1.433191,0.076515496,-0.9378575,0.20109527,0.12577757,27.838192,0.03780043125152588,-0.5737239718437195,-2.7986955642700195,0.18961100436906225,0.44409597,0.3278067,0.4858576,0.026775008,-0.6834465,-1.4099848,-0.5527469,0.09269014,0.44544265,-0.5890147,0.70510197,0.12957563
177,1.6481352,1.5454848,1.7515444,0.057896845,-0.89687717,-0.022192981,-0.99961925,0.9909677,0.6376562,-1.3749732,-0.0016893521,-5.978754,0.20271866,0.75652134,57.88239,1.1569510698318481,-0.5305202007293701,-2.7888970375061035,0.18955393429571707,0.4021063,0.3175172,0.44313365,0.024673708,-0.6772489,-1.8592305,-0.53936183,0.10980572,0.36763817,-5.6616297,0.6438053,0.7585625
178,1.6467149,1.5454848,1.7509856,0.060746085,-1.0314336,-0.07268225,-0.99928164,0.99618036,0.6374797,-1.3908045,0.047777876,-5.978754,0.20271866,0.3987831,201.01253,0.3260592818260193,-0.5022242665290833,-2.804795980453491,0.1894968445215085,0.3720945,0.28954148,0.41014582,0.024526197,-0.6865052,-1.5071893,-0.510224,0.109904766,0.42020088,-5.669021,0.62355375,0.40347022
179,1.6487839,1.5454848,1.7509856,0.057407,-0.96310914,-0.027990032,-0.9948147,0.9965462,0.630039,-1.3839465,0.031689752,-5.978754,0.20109527,0.5450055,112.58921,0.5978965759277344,-0.48227912187576294,-2.7928466796875,0.18943976302797752,0.3536077,0.24969864,0.39202368,0.025003798,-0.6790161,-0.8256731,-0.48288536,0.089058384,0.40509057,-5.6392493,0.67741305,0.5469695
180,1.6503253,1.5455,1.750404,0.056626886,-0.9242378,0.0068406183,-0.99961925,0.9909677,0.64591235,-1.3745885,0.06790714,-0.9378575,0.20187505,0.16016692,21.732367,0.07018508017063141,-0.4916123151779175,-2.792311668395996,0.18938269289549967,0.3630982,0.2667788,0.40193886,0.024404144,-0.6783904,-1.4319744,-0.4711101,0.11723282,0.446225,-0.5887633,0.83017135,0.1644877
181,1.6487796,1.5454848,1.7509856,0.05922915,-1.1587226,0.034642316,-0.99348384,0.99618036,0.67030656,-1.5366961,0.041088294,-5.979085,0.20271866,0.5417885,116.110405,0.582586944103241,-0.5117290616035461,-2.787869930267334,0.18932564438359886,0.3838167,0.28822356,0.42525238,0.025912577,-0.6754173,-0.9052057,-0.494637,0.10373913,0.4132955,-5.606791,0.6068208,0.54059315
182,1.6493181,1.5454848,1.7509856,0.05911954,-0.9903839,-0.08186375,-0.99961925,0.99618036,0.62861544,-1.326142,0.024026873,-5.978754,0.20187505,0.5473283,110.10261,0.5915782451629639,-0.5259142518043518,-2.7890148162841797,0.1892686159263542,0.39796764,0.30667302,0.43913934,0.0248645,-0.67580193,-1.0494838,-0.49861145,0.1028411,0.3989804,-5.569607,0.6147795,0.545463
183,1.6473525,1.5455,1.7498477,0.056551374,-0.95352656,-0.032604754,-0.99556,0.96458626,0.60012317,-1.364961,0.07385937,-0.6598914,0.20187505,0.105440944,18.559454,0.032460205256938934,-0.5557981133460999,-2.8039865493774414,0.18921157957375698,0.42624512,0.34517547,0.46390954,0.024055611,-0.6844928,-1.8770351,-0.47078013,0.1400995,0.45242634,-0.3304544,0.73085123,0.112766445
184,1.6486143,1.5469701,1.748709,0.056785993,-0.94075835,0.041762605,-0.99928164,0.9965462,0.66081595,-1.3946738,0.08407177,-0.7962805,0.19861764,0.09856171,28.503672,0.024728350341320038,-0.5899460911750793,-2.793419361114502,0.1891545593896039,0.46169078,0.3674147,0.4995015,0.022895942,-0.6778407,-1.7959867,-0.47255814,0.15375423,0.46329898,-0.39331567,0.6199839,0.09985795
185,1.647981,1.5454848,1.7509856,0.05830555,-0.99371934,-0.04965125,-0.99961925,0.9908895,0.65270394,-1.4004335,0.02995907,-5.978754,0.20271866,0.5481131,109.90301,0.6033221483230591,-0.6089068651199341,-2.781752109527588,0.1890975789950438,0.48207295,0.4065018,0.51704264,0.021671692,-0.6705306,-1.685569,-0.4852903,0.13438268,0.4088995,-5.60845,0.6122748,0.5481255
186,1.648907,1.5458786,1.750404,0.06081722,-1.1691351,0.035954207,-0.99928164,0.9965462,0.6314057,-1.3541996,-0.018320324,-5.979085,0.20271866,0.7613429,55.72799,1.1567021608352661,-0.5930041074752808,-2.745945453643799,0.1890407058652239,0.47033098,0.38811764,0.5048439,0.023100449,-0.6487292,-1.3160949,-0.49985373,0.09411639,0.36142465,-5.6026335,0.61632437,0.76099944
187,1.6472709,1.5455,1.750404,0.055986173,-0.9727557,-0.0057133194,-0.9964825,0.99618036,0.67233735,-1.4800773,0.0796208,-0.9378575,0.20187505,0.11319146,35.60852,0.02993178740143776,-0.5791183710098267,-2.7887628078460693,0.18898384927635867,0.4516793,0.37601355,0.4901645,0.023444777,-0.6741353,-2.4570963,-0.5291917,0.19641626,0.4619255,-0.5716985,0.6753204,0.116649754
188,1.647955,1.5466957,1.7508136,0.056875143,-0.9324367,-0.013020806,-0.99961925,0.9965462,0.6381403,-1.4271291,0.052240454,-5.978754,0.20109527,0.3945941,210.33376,0.31254491209983826,-0.5513676404953003,-2.7691221237182617,0.18892704803536842,0.4262519,0.34176826,0.4633745,0.024999896,-0.6620446,-1.3067198,-0.5449296,0.09448441,0.4340893,-5.6148825,0.69282377,0.3959756
189,1.6456828,1.5460827,1.7492633,0.05981428,-1.0072092,-0.08580265,-0.9965608,0.98879385,0.606288,-1.2978588,0.08125318,-0.57764584,0.20109527,0.08775592,16.704538,0.026138782501220703,-0.5418959856033325,-2.801243782043457,0.18887023747214185,0.41323268,0.30375272,0.45650202,0.028385626,-0.68102103,-1.5973141,-0.55762327,0.118694566,0.4632057,-0.23594862,0.7284904,0.093985125
190,1.6473157,1.5460827,1.7481215,0.055264857,-0.91165394,-0.062585756,-0.9964825,0.98879385,0.6188985,-1.3474388,0.08169605,-0.7962805,0.19756639,0.09993478,29.764847,0.028292234987020493,-0.5473499298095703,-2.803241729736328,0.18881341759260944,0.41855618,0.3330595,0.46138757,0.02456933,-0.6819164,-1.8500488,-0.5587679,0.14379987,0.46473873,-0.45420438,0.6819708,0.10427625
191,1.6480323,1.5454848,1.7515444,0.057848644,-1.0510032,-0.0049284566,-0.99928164,0.98879385,0.6446011,-1.4041752,0.03020813,-5.978754,0.19861764,0.54863673,109.49573,0.6045322418212891,-0.5495122671127319,-2.795365571975708,0.18875660735131997,0.42170677,0.32235914,0.46433318,0.027253889,-0.676888,-1.3701539,-0.53070164,0.08536253,0.41361773,-5.6258874,0.67045856,0.5519209
192,1.6477004,1.5462561,1.7515444,0.059026062,-1.1449354,0.06382131,-0.99928164,0.9908895,0.63806766,-1.3718264,0.0640578,-5.978674,0.20109527,0.391435,219.03621,0.3088979125022888,-0.5609009861946106,-2.8141136169433594,0.18869977266080712,0.43106854,0.30823225,0.4709965,0.02697337,-0.6878299,-1.2548609,-0.5030441,0.0986149,0.44646418,-5.579699,0.6124653,0.39033812
193,1.6479998,1.5460827,1.750404,0.058611646,-1.0268342,-0.07014847,-0.99928164,0.9908895,0.63020647,-1.302234,0.08263601,-0.9378575,0.19784728,0.10212966,41.029377,0.029547125101089478,-0.5724409818649292,-2.8031978607177734,0.18864293992083608,0.44394034,0.35007638,0.48278102,0.026300238,-0.68097943,-1.8059776,-0.44932806,0.13844995,0.46821943,-0.5218539,0.63853925,0.104697905
194,1.6519593,1.5466957,1.7513723,0.059905767,-1.1812615,-0.03295101,-0.99961925,0.9965462,0.6862326,-1.5101837,-0.025899144,-5.978754,0.20187505,0.84697044,44.66534,1.4388749599456787,-0.5587184429168701,-2.7834835052490234,0.18858614960451692,0.43254355,0.3397593,0.4725069,0.027162373,-0.6688559,-1.1551056,-0.3960011,0.12811477,0.360871,-5.6368327,0.6181066,0.84691375
195,1.6494931,1.5458786,1.7515444,0.057566933,-1.0220321,-0.044592723,-0.99928164,0.9965462,0.66442126,-1.4734247,-0.016646635,-5.979085,0.20271866,0.76350594,55.131077,1.160110354423523,-0.5412038564682007,-2.7904014587402344,0.1885293868481408,0.4143416,0.3394097,0.45079315,0.02312997,-0.6727017,-1.4789834,-0.36699128,0.15713997,0.37252888,-5.6506357,0.61196995,0.7652753
196,1.6462538,1.5454848,1.7509856,0.055893462,-0.91221607,-0.037907973,-0.99928164,0.99618036,0.6245883,-1.3589715,0.06210438,-5.978754,0.20271866,0.3918181,217.96489,0.31037479639053345,-0.5307198762893677,-2.772251844406128,0.188472686387815,0.4060036,0.32101306,0.44075617,0.022380123,-0.66152203,-1.3878903,-0.3453083,0.15859485,0.45238405,-5.6011267,0.70038754,0.39300305
197,1.6485916,1.5460827,1.7515444,0.054191668,-0.8837625,-0.0151688615,-0.9965608,0.99618036,0.63879406,-1.4482582,0.04236798,-5.978674,0.20187505,0.54161865,116.3603,0.5839676856994629,-0.5319995880126953,-2.8053770065307617,0.1884159810286235,0.40363607,0.33480498,0.44036254,0.021476796,-0.68107224,-1.9381151,-0.3488307,0.16582136,0.43047595,-5.5855527,0.6156527,0.54088247
198,1.6465898,1.5455,1.7515444,0.055995718,-0.9239393,0.0030174237,-0.9948489,0.99618036,0.6346626,-1.4022335,0.058386218,-5.978674,0.20187505,0.3903665,220.54263,0.3143184185028076,-0.5374791622161865,-2.782681465148926,0.18835931760390082,0.41177332,0.3377507,0.44743022,0.021643557,-0.6671717,-1.8565412,-0.3594048,0.16994104,0.44487494,-5.644342,0.7241923,0.39450458
199,1.6448623,1.5466955,1.7513723,0.058723602,-0.9175554,0.011135369,-0.99961925,0.9965462,0.6641334,-1.4790256,0.02657681,-5.978754,0.20109527,0.5474476,110.22213,0.6070287823677063,-0.5481683015823364,-2.7980597019195557,0.1883026650759318,0.42082176,0.3481182,0.4570615,0.024165828,-0.6760831,-1.3326073,-0.41909206,0.11199273,0.41957262,-5.6452074,0.8886977,0.5531841
200,1.6476641,1.5454848,1.7515444,0.056319382,-0.9413898,-0.13207902,-0.99928164,0.99618036,0.65917605,-1.3241484,0.019097341,-5.979085,0.20109527,0.6570214,78.3934,0.859473466873169,-0.5500277280807495,-2.791799545288086,0.18824603711630625,0.4234823,0.34652075,0.4645033,0.023828162,-0.67203194,-1.3240497,-0.47613704,0.09488346,0.40923855,-5.6098156,0.6375664,0.6594368
201,1.6471679,1.5454848,1.7509856,0.05511809,-0.79673886,-0.04214617,-0.99928164,0.99618036,0.6367308,-1.336763,0.058146484,-5.978754,0.20187505,0.389828,221.76996,0.30372244119644165,-0.5638967156410217,-2.814344882965088,0.18818939082961722,0.43490478,0.3519855,0.47850266,0.025349472,-0.68523085,-2.0513692,-0.5471924,0.11294219,0.4484715,-5.5643163,0.6160678,0.38936248
202,1.6450895,1.5462561,1.750404,0.053773053,-0.83291876,-0.00064822007,-0.99961925,0.9884451,0.6580372,-1.4508688,0.082769684,-0.9378575,0.19861764,0.09669644,51.38182,0.026805497705936432,-0.5882968306541443,-2.8138680458068848,0.18813273192403956,0.45945454,0.39032468,0.49985263,0.022722056,-0.6846417,-2.0283108,-0.549183,0.12548801,0.47592425,-0.56907713,0.61718106,0.10095354
203,1.6493776,1.5458786,1.7515444,0.05748821,-0.94431007,-0.0410266,-0.99961925,0.9965462,0.6525379,-1.4134874,0.04752184,-5.978674,0.20271866,0.4051974,188.60347,0.32235991954803467,-0.6002487540245056,-2.8110551834106445,0.18807606998660892,0.4718191,0.40689564,0.5192395,0.026202023,-0.68265426,-1.4423921,-0.50665295,0.120427564,0.4462917,-5.542877,0.74536115,0.40420982
204,1.6490672,1.5454848,1.7515444,0.057523604,-1.0004531,0.037705224,-0.99556,0.9965462,0.63570046,-1.3716965,-0.01198998,-5.979085,0.19947167,0.76171017,55.858616,1.1626523733139038,-0.5932921767234802,-2.815178871154785,0.1880194003418665,0.46449414,0.38567713,0.5129933,0.026148383,-0.68481886,-2.1386852,-0.48157477,0.1553044,0.3796326,-5.659297,0.6883532,0.7630757
205,1.6483438,1.5454848,1.7509856,0.05898534,-1.03176,-0.11346763,-0.99961925,0.99618036,0.64693046,-1.3436112,0.001991259,-5.979085,0.20271866,0.66106063,75.53296,0.880669116973877,-0.5666518211364746,-2.795214891433716,0.18796276485400393,0.44019574,0.3616995,0.4862475,0.025843963,-0.67256933,-1.5054014,-0.46983832,0.12959033,0.39346364,-5.6429715,0.62153393,0.6637311
206,1.64496,1.5455,1.7498477,0.058081616,-1.0150068,-0.07466702,-0.99961925,0.9908895,0.6410896,-1.3439504,0.07415415,-0.7962805,0.20024785,0.117921874,25.620872,0.035142283886671066,-0.5519274473190308,-2.8075931072235107,0.1879061391495087,0.42417416,0.3413164,0.46869546,0.025995275,-0.6796733,-1.3182142,-0.45925426,0.13837291,0.46784252,-0.3753121,0.6288399,0.123811364
207,1.6459361,1.5462561,1.750404,0.05694133,-0.97044575,0.00336385,-0.9965608,0.98879385,0.6426848,-1.4315182,0.0772374,-0.9378575,0.20187505,0.112281136,42.36868,0.03594787046313286,-0.5482038855552673,-2.7975683212280273,0.1878495442326597,0.4216727,0.3481223,0.46336237,0.027045185,-0.6733743,-1.9124882,-0.44275427,0.17452143,0.470864,-0.6301063,0.6579013,0.11848059
208,1.6498265,1.5454848,1.7509856,0.057441276,-0.9873036,-0.04256478,-0.99556,0.99618036,0.6556104,-1.4326708,0.037522916,-5.979085,0.20024785,0.54267544,115.04609,0.583191990852356,-0.5511191487312317,-2.8178536891937256,0.18779294099634472,0.4224038,0.35026646,0.46586177,0.026919657,-0.6852044,-2.225379,-0.43589628,0.21570131,0.4349875,-5.56862,0.79851305,0.5425491
209,1.6519779,1.5454848,1.7509856,0.059062235,-1.0272613,-0.029157836,-0.99961925,0.9965462,0.63563514,-1.3971463,0.026379969,-5.978754,0.20109527,0.55055076,107.65727,0.6008729934692383,-0.551217794418335,-2.785529136657715,0.1877363949277855,0.42622805,0.35438487,0.47265965,0.026438892,-0.6655726,-1.1643591,-0.44635904,0.11541586,0.42101446,-5.5745816,0.6237209,0.54982215
210,1.6443285,1.5455,1.7515444,0.054563794,-0.8197278,-0.01813059,-0.99961925,0.9965462,0.62456954,-1.3183013,0.059174284,-5.978674,0.20109527,0.38669038,229.2415,0.2993878126144409,-0.5702069997787476,-2.8154022693634033,0.18767984583632105,0.44195837,0.36081827,0.47907743,0.023086993,-0.6831317,-2.128374,-0.4483645,0.19010754,0.45639062,-5.5601435,0.7920644,0.3875206
211,1.6495022,1.5454848,1.7509856,0.057027288,-1.0675275,-0.042978838,-0.99961925,0.99618036,0.65561175,-1.442592,0.014179707,-5.978754,0.20024785,0.66013783,76.60959,0.8626471757888794,-0.5702979564666748,-2.8057146072387695,0.18762331540191116,0.44323152,0.37839437,0.48379782,0.024242297,-0.67703825,-1.2956142,-0.46140695,0.107085,0.41548774,-5.5558057,0.7613708,0.65872705
212,1.6442654,1.5458786,1.750404,0.054513898,-0.85439634,-0.013838909,-0.99961925,0.9965462,0.65582734,-1.4245534,0.07371801,-0.9378575,0.20271866,0.11278886,34.065945,0.03028837963938713,-0.5838728547096252,-2.8043365478515625,0.18756680715863458,0.45705587,0.37241504,0.49521554,0.023200493,-0.67591274,-1.8419805,-0.46104372,0.13393249,0.47301364,-0.51283276,0.63599443,0.112601236
213,1.6468686,1.5454848,1.7509856,0.058448046,-1.0801585,-0.053665787,-0.9965608,0.9965462,0.6107977,-1.28382,0.030664854,-5.979085,0.20271866,0.54776365,110.2609,0.5941188335418701,-0.5865139961242676,-2.8134407997131348,0.18751030427303214,0.4587714,0.38459596,0.49954858,0.025147785,-0.68105096,-1.2164564,-0.48108983,0.10658924,0.43160903,-5.5826344,0.6299757,0.548749
214,1.6481421,1.5455,1.7515444,0.05927371,-1.1976745,-0.087504506,-0.99928164,0.9909677,0.6429386,-1.3794824,0.03131018,-5.978674,0.20024785,0.54729396,110.66633,0.5952021479606628,-0.5876504182815552,-2.843766927719116,0.18745375126540678,0.45660597,0.35052007,0.49770832,0.026407987,-0.6988653,-2.0718064,-0.517997,0.12592785,0.43558317,-5.581252,0.7858151,0.54810333
215,1.6481804,1.5454848,1.7509856,0.05904991,-1.0639658,-0.06388047,-0.99961925,0.96458626,0.6363484,-1.3785634,0.010172095,-5.978754,0.20271866,0.6627043,75.190285,0.881523847579956,-0.5745061635971069,-2.830089807510376,0.1873971823951875,0.44509,0.37279072,0.48631322,0.024944382,-0.69039,-1.8257208,-0.4901104,0.11751104,0.41447604,-5.606034,0.6322124,0.6655688
216,1.649751,1.5455,1.7515444,0.060795434,-1.1792153,-0.044477865,-0.99961925,0.9909677,0.61483866,-1.3230504,0.0589324,-5.978674,0.20271866,0.3961756,207.89029,0.31492406129837036,-0.561782717704773,-2.8088889122009277,0.1873406426523369,0.43483537,0.34537485,0.47879362,0.02758593,-0.6774243,-1.5911589,-0.4623816,0.1270871,0.46196032,-5.5602117,0.9195454,0.39747536
217,1.6490322,1.5466957,1.7508136,0.05756204,-1.0824776,0.07292982,-0.9965608,0.9965462,0.6319204,-1.334676,0.057967465,-5.978754,0.20187505,0.3952981,209.72054,0.3118915557861328,-0.5695842504501343,-2.8280632495880127,0.18728409537557802,0.44058704,0.3751821,0.4835385,0.025360253,-0.6885706,-1.495856,-0.47963572,0.103864804,0.46387935,-5.554135,0.6326143,0.39476722
218,1.647436,1.5462561,1.7515444,0.057748027,-1.1325259,-0.05827676,-0.9965608,0.9766043,0.6366528,-1.4023415,0.06054384,-5.978674,0.20187505,0.3928523,215.34277,0.3129745125770569,-0.5780520439147949,-2.818911552429199,0.18722756171636631,0.45017385,0.37477523,0.4924294,0.025534933,-0.68280303,-1.665348,-0.5017561,0.10775085,0.46677727,-5.60144,0.6258704,0.3957713
219,1.6477444,1.5454848,1.7509856,0.05339997,-0.881253,-0.052808933,-0.99961925,0.9965462,0.6460075,-1.3955983,0.06586564,-5.978754,0.20271866,0.38566414,232.73846,0.30003201961517334,-0.5927854776382446,-2.8208346366882324,0.18717103951598457,0.46478784,0.38382256,0.5066274,0.024344957,-0.6836476,-1.9753065,-0.5212636,0.12628843,0.47677785,-5.566012,0.63913035,0.38608637
220,1.6491023,1.5454848,1.7509856,0.05551415,-1.0010884,0.030573938,-0.99961925,0.99618036,0.6256066,-1.3613725,0.07179721,-5.978754,0.20271866,0.3862217,232.30266,0.29883378744125366,-0.6106944680213928,-2.829531669616699,0.18711451395963344,0.4818207,0.39596027,0.5248275,0.025273887,-0.68853444,-1.6373777,-0.5542411,0.12832879,0.4795993,-5.562048,0.705059,0.3862113
221,1.6504139,1.5467108,1.750232,0.057048358,-1.129122,-0.038250577,-0.9965608,0.9909677,0.638683,-1.3728771,0.08438167,-0.9378575,0.19947167,0.12270095,29.491955,0.03457624465227127,-0.6301770210266113,-2.8248848915100098,0.18705799718678665,0.50191796,0.43212909,0.54461503,0.024126122,-0.6854576,-2.2964678,-0.55501795,0.15002303,0.4952427,-0.52064,0.6450251,0.12436415
222,1.6495461,1.5460827,1.748709,0.05500091,-0.90722895,-0.0626146,-0.99928164,0.9884451,0.6173792,-1.352058,0.09433826,-0.37861833,0.20187505,0.07363574,8.58181,0.015559897758066654,-0.6463103294372559,-2.8038575649261475,0.18700153120629195,0.52049327,0.4383992,0.5657128,0.025669685,-0.67261016,-1.6379774,-0.56839335,0.105485514,0.50565016,0.038224697,0.6780282,0.07531945
223,1.6498843,1.5460827,1.750404,0.058121458,-1.122479,-0.07261309,-0.9965608,0.9965462,0.64356107,-1.454612,0.06211095,-5.979085,0.20187505,0.3947217,211.59511,0.31711021065711975,-0.6531611680984497,-2.811312198638916,0.18694509942354842,0.526607,0.4561902,0.56866693,0.025283456,-0.6767552,-1.8230731,-0.5665426,0.13830377,0.47550204,-5.5891304,1.1236752,0.39902353
224,1.6513568,1.5454848,1.7509856,0.05831606,-1.1522837,-0.06038632,-0.9940675,0.9965462,0.6637131,-1.4299151,0.06751189,-5.978754,0.20024785,0.3897675,223.26146,0.3105005621910095,-0.6481428742408752,-2.8305842876434326,0.18688866453142441,0.5195348,0.430723,0.5620376,0.025689118,-0.6879457,-2.2723746,-0.5599169,0.16953824,0.48117986,-5.5820346,0.7737522,0.3912667
225,1.6479636,1.5455,1.7498477,0.057281237,-1.1192304,0.08330129,-0.99928164,0.9965462,0.6514747,-1.3808262,0.0811262,-0.7962805,0.20271866,0.112286896,34.105663,0.029325921088457108,-0.6343264579772949,-2.81246280670166,0.18683226421090376,0.50783324,0.44760683,0.5481683,0.025111122,-0.67683756,-1.4971409,-0.53745854,0.118992634,0.49467614,-0.41207734,0.62977237,0.114660814
226,1.6501048,1.5455,1.7498477,0.05984631,-1.1756783,-0.053562872,-0.9965608,0.97153884,0.65983456,-1.4461358,0.04897033,-5.979085,0.20271866,0.40133485,196.10367,0.32062846422195435,-0.609930157661438,-2.806119918823242,0.1867759097849746,0.48423782,0.41332853,0.5226628,0.025130205,-0.672755,-2.887011,-0.5137173,0.17547837,0.4640791,-5.598192,0.62326646,0.4030384
227,1.647327,1.5469701,1.750404,0.05484204,-1.0513133,0.0031167734,-0.9964825,0.9908895,0.66716844,-1.4565343,0.08477704,-0.9378575,0.20024785,0.115964316,47.126476,0.031340520828962326,-0.598842978477478,-2.825218915939331,0.1867195630530537,0.4711187,0.40570593,0.50889874,0.022574713,-0.68383706,-2.8254242,-0.51864445,0.18762283,0.50289416,-0.5278591,0.6561778,0.116364
228,1.6458322,1.5455,1.7498477,0.05458755,-0.97219354,-0.044336885,-0.99961925,0.9965462,0.6410489,-1.3795578,0.08721219,-0.6598914,0.19590458,0.08383507,29.55983,0.02010723575949669,-0.593975841999054,-2.8295092582702637,0.18666321796339103,0.46586925,0.39051938,0.5042825,0.023884712,-0.68609107,-2.622519,-0.49953747,0.15368003,0.50494266,-0.22898668,0.69216835,0.08322939
229,1.6478307,1.5454848,1.7509856,0.057155937,-1.0816307,-0.03521076,-0.99928164,0.9909677,0.6543079,-1.4563459,0.068058476,-5.978754,0.19861764,0.3853648,233.8141,0.2976306080818176,-0.5955218076705933,-2.8233494758605957,0.18660688893849037,0.4681955,0.37444124,0.5058341,0.024305413,-0.68211794,-1.5136216,-0.49357045,0.10464738,0.48752093,-5.551392,0.6413107,0.38466096
230,1.6490614,1.5453672,1.7492633,0.055777848,-1.0547683,-0.013525123,-0.99928164,0.9965462,0.64751256,-1.3500562,0.096148014,-0.57764584,0.20187505,0.07201889,27.942205,0.021027501672506332,-0.6083803772926331,-2.8146910667419434,0.1865505936190161,0.48211136,0.4069038,0.5202729,0.02321228,-0.6766579,-0.90204906,-0.46802366,0.098281294,0.5155233,-0.15015042,0.6421954,0.073671445
231,1.6475909,1.5454848,1.7509856,0.059341174,-1.2087901,0.018241594,-0.99928164,0.99618036,0.64817274,-1.3949624,0.043017693,-5.978754,0.20109527,0.5426444,115.50251,0.5842145681381226,-0.6158968210220337,-2.807053327560425,0.1864943458418189,0.49057066,0.4181686,0.52999014,0.024291975,-0.6718076,-0.9596975,-0.4423027,0.11488476,0.4641695,-5.5609426,0.6749752,0.5420356
232,1.6463423,1.5453672,1.7509856,0.058106773,-1.0205984,-0.07097753,-0.99556,0.9965462,0.63270015,-1.3297706,0.056218736,-5.978754,0.19947167,0.3931406,214.12196,0.3104775547981262,-0.6220477223396301,-2.810002326965332,0.18643813788945376,0.49648786,0.43351257,0.5338808,0.022165759,-0.6732636,-1.5903578,-0.41724968,0.14286177,0.47850358,-5.571019,0.759529,0.3947311
233,1.64894,1.5441866,1.7515444,0.05762999,-1.0488206,-0.00030841213,-0.9965608,0.9908895,0.6691816,-1.4467021,0.068301015,-5.978674,0.20271866,0.3919501,218.52283,0.30785250663757324,-0.6240540146827698,-2.8166580200195312,0.18638195581793107,0.4978492,0.4125639,0.5372616,0.024424655,-0.6769258,-1.9298162,-0.43235838,0.14545676,0.49096066,-5.5354066,0.73103607,0.39252982
234,1.6471429,1.5439327,1.750404,0.058667704,-1.0297632,-0.030234536,-0.99961925,0.9908895,0.6057295,-1.2623858,0.058300756,-5.979085,0.20187505,0.3909008,219.45445,0.30906498432159424,-0.6236891746520996,-2.808716058731079,0.18632581481223126,0.49845958,0.40071177,0.53340286,0.023047121,-0.6718975,-1.3008745,-0.45976484,0.11807205,0.48011345,-5.6118536,0.64576954,0.39594415
235,1.6498027,1.5466063,1.7506632,0.059000976,-1.2140486,-0.059082955,-0.99961925,0.9965462,0.66625464,-1.4472857,0.07474864,-5.978674,0.20187505,0.38813543,228.21762,0.3025166988372803,-0.6190148591995239,-2.8123726844787598,0.1862697064660875,0.49347335,0.41391277,0.5328334,0.02463109,-0.673774,-1.159792,-0.5202389,0.08502866,0.50057435,-5.5442677,0.64676964,0.38782462
236,1.6518062,1.5406544,1.750404,0.057300054,-1.1062062,-0.062067375,-0.9964825,0.9965462,0.6234884,-1.3489382,0.093529336,-0.9378575,0.20271866,0.11459653,39.404804,0.03171771019697189,-0.6256587505340576,-2.827777624130249,0.18621360100080703,0.49850348,0.40602434,0.5410016,0.0232336,-0.6826405,-2.6146483,-0.568596,0.14823078,0.52069336,-0.53643274,0.79814,0.11817134
237,1.6480185,1.5406544,1.7515444,0.060447052,-1.1367512,-0.07931923,-0.99961925,0.9908895,0.6585281,-1.413502,-0.009387366,-5.979085,0.19947167,0.7608404,56.221775,1.1592490673065186,-0.6119050979614258,-2.8160653114318848,0.18615752312416897,0.4861419,0.40454778,0.5248872,0.023374232,-0.6753708,-1.3287318,-0.58658814,0.09211094,0.41913825,-5.569861,0.6697975,0.7622078
238,1.6476943,1.5410583,1.750404,0.05949883,-1.1345279,-0.015892878,-0.99961925,0.99618036,0.6233556,-1.3370928,0.05448602,-5.979085,0.20271866,0.39734504,204.91455,0.31432652473449707,-0.5996019840240479,-2.8491902351379395,0.18610141008509665,0.47026455,0.3715704,0.50957316,0.024719864,-0.6947743,-2.71313,-0.5797098,0.2037284,0.48384422,-5.583143,0.7881502,0.3998758
239,1.6498135,1.5410583,1.750404,0.058215737,-1.0408345,-0.017054852,-0.99961925,0.99618036,0.65903705,-1.447243,0.013935002,-5.979085,0.20187505,0.66412234,74.744514,0.8682931661605835,-0.5746772289276123,-2.7976038455963135,0.18604536603494773,0.4511448,0.3747247,0.4882695,0.022747086,-0.66379094,-1.1125402,-0.56869876,0.062826864,0.44296044,-5.5793934,0.7708548,0.666604
240,1.6473677,1.5406544,1.7509856,0.05718343,-1.0441077,-0.025435045,-0.99928164,0.9965462,0.6387439,-1.3841219,0.06706211,-5.978754,0.20271866,0.38904512,224.9189,0.31034308671951294,-0.5718787908554077,-2.832728624343872,0.18598932010727515,0.44455332,0.351769,0.48196912,0.02568272,-0.6843787,-1.8437352,-0.5541964,0.11427571,0.495354,-5.6027336,0.7914092,0.39198652
241,1.6507636,1.5402207,1.749588,0.056990918,-0.9649727,-0.02353947,-0.99961925,0.99618036,0.6446069,-1.4353864,0.09685275,-0.6598914,0.20109527,0.09121097,28.908705,0.03423594683408737,-0.5859541893005371,-2.811793804168701,0.18593331491880183,0.461038,0.36275116,0.4979399,0.022819078,-0.6716311,-1.426738,-0.52724874,0.096358754,0.5264323,-0.22127289,0.6389189,0.08945748
242,1.6497159,1.5369503,1.748709,0.059782375,-1.0743406,-0.020907452,-0.99928164,0.99618036,0.63989514,-1.3499026,0.09652968,-0.37861833,0.20195213,0.07407021,7.43019,0.025011563673615456,-0.6202110052108765,-2.828798294067383,0.18587731686575373,0.4935088,0.40021583,0.53171176,0.026553378,-0.6814393,-1.9737637,-0.4901079,0.1388346,0.52687204,0.05847186,0.7913845,0.07491437
243,1.6482793,1.5365765,1.7509856,0.058460243,-0.97794795,-0.009492068,-0.99961925,0.99618036,0.64834416,-1.4074701,0.066329956,-5.978754,0.20355904,0.39115337,219.9575,0.3089022636413574,-0.6507576704025269,-2.794909954071045,0.18582139207561643,0.52789307,0.409474,0.5620566,0.025666676,-0.6609986,-1.226224,-0.45322597,0.10884252,0.49571902,-5.567987,0.71231455,0.3928855
244,1.6487938,1.5370939,1.7515444,0.060764313,-1.0700264,-0.07515846,-0.99961925,0.97153884,0.6397727,-1.3381984,0.045012224,-5.978674,0.20516662,0.5429806,115.362724,0.6046454906463623,-0.6688458919525146,-2.8381123542785645,0.18576545402050426,0.5413033,0.4286918,0.5777543,0.025135182,-0.68637204,-2.4540782,-0.44274056,0.16372553,0.47758454,-5.610511,0.67028326,0.547381
245,1.6484638,1.5373931,1.7515444,0.05851561,-0.97719043,-0.013290685,-0.99928164,0.9965462,0.6360004,-1.3094167,0.05675327,-5.978674,0.20187505,0.39704338,205.82193,0.32133808732032776,-0.6704291701316833,-2.8590030670166016,0.1857094674686349,0.5406755,0.41251808,0.57736313,0.026741901,-0.6984811,-3.6935534,-0.43480217,0.2157294,0.48911265,-5.5571933,0.6527232,0.39855954
246,1.6469167,1.5424025,1.750404,0.059851274,-1.137296,0.03958189,-0.99961925,0.9909677,0.6399876,-1.3804148,0.07985078,-0.9378575,0.19947167,0.12636484,34.822517,0.03702639788389206,-0.6556757688522339,-2.821104049682617,0.18565351188132498,0.53019816,0.4202304,0.5681949,0.026724944,-0.6756661,-0.97914076,-0.40532613,0.10759206,0.5133413,-0.55693495,0.67808574,0.12835178
247,1.6514841,1.5364778,1.7509856,0.06330706,-1.1671422,0.018978536,-0.99928164,0.99618036,0.6358272,-1.3467216,0.06763585,-5.978754,0.20516662,0.39166534,218.9315,0.31263259053230286,-0.6393982172012329,-2.8452892303466797,0.18559754120636743,0.51134765,0.40720043,0.55511016,0.029900534,-0.689729,-2.2220135,-0.37561083,0.17018533,0.5014873,-5.5686893,0.7290141,0.393803
248,1.6528509,1.5377873,1.7511672,0.058048014,-0.90839994,-0.0063691605,-0.9965608,0.9908895,0.6584534,-1.4281907,-0.023364052,-5.979085,0.20516662,0.8474241,44.651978,1.45142662525177,-0.595576822757721,-2.822007656097412,0.18554160378958842,0.4701866,0.37573496,0.51229435,0.024950411,-0.6756027,-1.7191031,-0.37516296,0.14208484,0.41329294,-5.6034546,0.68920016,0.8536292
249,1.6494708,1.5369503,1.7515444,0.05936878,-0.9636282,0.015111893,-0.99961925,0.9965462,0.62943673,-1.2735081,0.05424211,-5.978674,0.20516662,0.39620456,207.1824,0.3173711895942688,-0.5704709887504578,-2.8724679946899414,0.18548560385743532,0.4396161,0.33138138,0.4793263,0.029053891,-0.70525897,-3.0885153,-0.38539243,0.19478472,0.48947686,-5.5739136,0.71765214,0.39942575
250,1.6483053,1.5365098,1.7515444,0.060477108,-0.9719698,-0.050328195,-0.99928164,0.99618036,0.63837934,-1.3801999,0.040404208,-5.978674,0.20355904,0.40392897,189.85277,0.32583945989608765,-0.550248920917511,-2.826272487640381,0.18542963790071704,0.4245761,0.33286023,0.46357214,0.023736194,-0.6775341,-1.0224774,-0.40149367,0.119415395,0.47924587,-5.547543,0.6591172,0.40407923
251,1.6530031,1.5364778,1.7515161,0.05959314,-1.0032268,-0.032361902,-0.99961925,0.9965462,0.65360254,-1.4396362,0.08629585,-0.9378575,0.20271866,0.13065489,26.401068,0.06117640435695648,-0.5564090013504028,-2.8065757751464844,0.1853737423466133,0.43299723,0.36062267,0.47618386,0.023928706,-0.6655447,-0.9140887,-0.4193102,0.113132924,0.52442724,-0.54548967,0.8136804,0.1345842
252,1.652396,1.5336034,1.7537646,0.06391379,-1.0938386,-0.05328312,-0.99961925,0.9965462,0.6480867,-1.3862525,-0.0420857,-5.979085,0.20355904,0.85160303,43.140625,1.4334187507629395,-0.5640093088150024,-2.8725948333740234,0.18531778830588008,0.43342865,0.34873047,0.4766199,0.025671646,-0.7044183,-2.4556541,-0.495726,0.19339417,0.3965605,-5.5440693,0.7302407,0.8514272
253,1.6538001,1.5336034,1.7537646,0.061377794,-1.0508437,-0.052907526,-0.99961925,0.99618036,0.6433117,-1.4179926,-0.0055186637,-5.979085,0.20355904,0.7643006,55.316196,1.1615772247314453,-0.5623997449874878,-2.850480556488037,0.18526182641702896,0.4343462,0.36799297,0.47925866,0.024709715,-0.6909943,-2.6174068,-0.5250405,0.1759009,0.43259478,-5.5922155,0.7903219,0.767902
254,1.6498404,1.5336034,1.7537646,0.059428696,-0.9994309,-0.039930407,-0.99961925,0.9908895,0.65476656,-1.4337349,-0.034395605,-5.979085,0.20516662,0.85003656,43.724277,1.4374364614486694,-0.5568671226501465,-2.817723274230957,0.18520592204694786,0.43250787,0.35792598,0.47376642,0.02354833,-0.6712621,-1.4620805,-0.58071655,0.087000415,0.40818042,-5.584476,0.6990998,0.8534794
255,1.6505994,1.5369503,1.7503893,0.061354622,-1.017066,-0.047742937,-0.99348384,0.9965462,0.63881224,-1.3620256,0.07720152,-0.7962805,0.20195213,0.13331456,18.78875,0.052629254758358,-0.575894296169281,-2.824157238006592,0.185150059919577,0.45092133,0.38145655,0.49454716,0.025149211,-0.6747786,-1.5105901,-0.5431916,0.11175158,0.51805586,-0.35594305,0.8384509,0.13453028
256,1.6487643,1.5336034,1.7537646,0.059326302,-0.9144501,-0.022174217,-0.99928164,0.9965462,0.6494757,-1.4062198,0.063147776,-5.9783597,0.20516662,0.39450622,212.08112,0.3224654197692871,-0.6097512245178223,-2.819223642349243,0.18509424773747282,0.48541304,0.4182396,0.52675635,0.023406824,-0.67155373,-2.5697236,-0.5052209,0.18296717,0.5043021,-5.611483,0.6523741,0.39856946
257,1.6500188,1.5336034,1.7537646,0.06052033,-0.9007423,-0.04274234,-0.99928164,0.9766043,0.6479324,-1.4019227,0.056482382,-5.9783597,0.20355904,0.4044398,191.13106,0.33051902055740356,-0.6429792642593384,-2.8258819580078125,0.1850384705716258,0.5180032,0.43465522,0.56193626,0.025476055,-0.675202,-1.6851296,-0.49105304,0.15228389,0.49958044,-5.5422883,1.0496588,0.40648237
258,1.6480008,1.5336034,1.7537646,0.06006933,-0.89135265,-0.024578393,-0.99961925,0.9965462,0.6491786,-1.346173,0.041557595,-5.978754,0.20195213,0.5419911,115.95396,0.5920529365539551,-0.664772629737854,-2.819542407989502,0.1849827394911676,0.5405848,0.46703556,0.584122,0.025344668,-0.67114556,-1.5640218,-0.47933757,0.14407021,0.48157924,-5.5897083,0.8156138,0.54469323
259,1.6497898,1.5365098,1.7515161,0.063793994,-1.1800835,0.038049523,-0.9964825,0.9909677,0.6080985,-1.2818946,0.082464516,-0.7962805,0.20195213,0.11831966,27.040516,0.032182082533836365,-0.6804912090301514,-2.8582496643066406,0.18492697973060573,0.552153,0.47540885,0.6002493,0.02815365,-0.69378483,-2.4875317,-0.47166502,0.22709265,0.5272472,-0.3960729,0.70748556,0.12101203
260,1.65017,1.5365098,1.7515444,0.06099882,-1.1734612,-0.023948679,-0.9965608,0.99618036,0.6681621,-1.4833137,0.034802943,-5.979085,0.20355904,0.55176365,107.34286,0.6093119978904724,-0.6716112494468689,-2.821023941040039,0.18487126705107942,0.54744637,0.46992075,0.5977759,0.02743391,-0.67142636,-1.382596,-0.47691572,0.114721134,0.48561814,-5.5436196,0.9404114,0.5530797
261,1.6483145,1.5336034,1.7537646,0.063683435,-1.0911496,-0.02612096,-0.9964825,0.9965462,0.6206693,-1.3419716,0.035773244,-5.9783597,0.20516662,0.5457392,112.25583,0.6045838594436646,-0.6533810496330261,-2.84516978263855,0.18481555397900187,0.52666444,0.45684543,0.5766554,0.027747845,-0.6854316,-2.419273,-0.5021814,0.16815282,0.48205295,-5.5972924,0.7234408,0.5480783
262,1.6471372,1.5336034,1.7537646,0.06174212,-0.9914401,-0.087707676,-0.99961925,0.9965462,0.6284919,-1.3295949,0.024705209,-5.979085,0.20355904,0.55030787,107.75996,0.5996760129928589,-0.6201556921005249,-2.8253519535064697,0.18475988057623033,0.49570215,0.4275865,0.5386727,0.025684137,-0.6733932,-1.4481535,-0.49878442,0.09806165,0.4718091,-5.5270295,0.72122574,0.54949135
263,1.6537648,1.53772,1.7513441,0.060163923,-0.9955122,-0.009830011,-0.99556,0.9965462,0.641951,-1.3981363,0.0767713,-5.979085,0.20516662,0.39666283,209.51332,0.31273961067199707,-0.5906386971473694,-2.8445351123809814,0.18470420948606428,0.464179,0.3869482,0.5143728,0.027648311,-0.6844544,-1.936068,-0.48873055,0.13299394,0.5232979,-5.534579,0.66316897,0.3965809
264,1.6469257,1.5365098,1.7515161,0.062277876,-1.1223853,-0.022665594,-0.99458206,0.9965462,0.6417315,-1.397016,0.08274866,-0.7962805,0.20516662,0.10969394,25.033514,0.03759263828396797,-0.5958898067474365,-2.8448290824890137,0.18464854272378808,0.4694916,0.38200504,0.51255417,0.026521102,-0.68432784,-1.2666011,-0.48538828,0.10609394,0.5345358,-0.34314674,1.0938082,0.11377905
265,1.6506537,1.5365098,1.7515444,0.0614362,-0.990004,-0.01927856,-0.99961925,0.9909677,0.6391888,-1.3561175,0.05593131,-5.978674,0.20355904,0.40315628,193.47737,0.3256725072860718,-0.5986528396606445,-2.839655876159668,0.18459289234961657,0.47291356,0.37656826,0.515757,0.026781576,-0.6809652,-0.98278975,-0.48149908,0.09319919,0.50321937,-5.5094967,0.7087565,0.40341535
