JvanZyl1/RocketTrajectoryOptimisation/data/agent_saves/PyTorchSAC/LandingBurnPureThrottle/20250606_182149/learning_stats/sac_learning_stats_reduced.csv
step,state_mean,state_min,state_max,state_std,state_kurtosis,action_mean,action_min,action_max,action_std,action_kurtosis,reward_mean,reward_min,reward_max,reward_std,reward_kurtosis,critic_loss,actor_loss,alpha_loss,alpha_value,q_value_mean,q_value_min,q_value_max,q_value_std,log_prob_mean,log_prob_min,log_prob_max,log_prob_std,target_q_mean,target_q_min,target_q_max,target_q_std
4.5,1.65588995,1.55184534,1.7505043900000001,0.0578358175,-0.86355462,-0.07403159139999999,-0.9943967800000001,0.9950386019999999,0.6816379429999999,-1.47710973,0.00591532361,-8.159802786,0.200996099,0.781524845,106.3596808,3.0779622077941893,0.6723365161567927,-2.0523765295743943,0.19970976239230276,-0.727060595,-0.7583969814,-0.700595345,0.015869277010000002,-0.2741503475,-1.9209810100000002,0.9222473939999999,0.5864521359999999,-0.030749574599999996,-8.226249720000002,0.4723509310000001,0.7954426280000001
14.5,1.6535047199999997,1.5515445800000003,1.7506402300000001,0.057283536999999995,-0.7671695969999999,-0.055409088429,-0.994221587,0.9940236339999998,0.6831042270000001,-1.4978984899999999,0.02971545389,-7.26854149,0.20033993300000003,0.5979345625,132.6479622,0.9877642657607794,-0.2078980267047882,-2.678012251853943,0.1991199907303785,0.07649847643,0.0663221561,0.08568726789999999,0.00547846928,-0.6597070220000001,-1.9049625,-0.32576323399999996,0.2188843694,0.11999261224999999,-7.170805644,0.45814209300000003,0.5997441306000001
24.5,1.653492,1.5519374899999998,1.7504364000000003,0.0576213702,-0.7879408349999999,-0.0787819867,-0.9939648560000001,0.9947307059999998,0.679501666,-1.46723596,0.01637894635,-9.08951383,0.19968439899999998,0.758325592,142.5040086,1.2888327304273843,-0.23725048154592515,-2.7085858583450317,0.19849924631659624,0.1031371531,0.07556720130000001,0.12389102599999999,0.013488444280000001,-0.675424352,-1.66870841,-0.46320427299999994,0.135262493,0.1414717286,-8.971668400000002,0.43364377000000004,0.758664426
34.5,1.6513936799999995,1.5516953900000001,1.75061284,0.05541302990000001,-0.52121058,-0.0678390905,-0.9939457160000001,0.99383556,0.675338556,-1.46616878,0.025032279300000005,-8.148827399999998,0.200504024,0.643457021,153.3831525,1.0552773259580135,-0.3252560257911682,-2.717463517189026,0.19787793034803372,0.19112013099999997,0.1545184875,0.21884578000000002,0.01667028774,-0.677660936,-1.98345176,-0.40858668299999995,0.16990966400000002,0.17411270100000004,-7.999064091000001,0.467793477,0.6442161949999999
44.5,1.6521445700000001,1.55181309,1.7505106299999997,0.054893232,-0.603568471,-0.051667632500000005,-0.9940318670000001,0.9952683839999998,0.6751856989999999,-1.47372799,0.024154899764999998,-7.219116356000001,0.19973422000000002,0.616095047,119.8039722,1.0563869003206492,-0.2841951668262482,-2.7221773862838745,0.1972611733684006,0.150541049,0.1374763575,0.160560596,0.00537786234,-0.6773377540000001,-1.253535847,-0.420762181,0.1296121614,0.193707787,-7.043201194,0.5109402670000001,0.6188287134000001
54.5,1.6503844600000002,1.5519468600000002,1.7501122599999999,0.053569457099999995,-0.619150946,-0.07906419850999999,-0.9945203500000002,0.9951236159999999,0.677590653,-1.44363712,0.0398289801,-7.188916096,0.20022607299999998,0.5491960065,139.17988580000002,0.8137676266953349,-0.35853284895420073,-2.7380571126937867,0.1966494096046177,0.22400288299999999,0.207152108,0.23561602599999998,0.00590896901,-0.683898245,-1.5954625300000003,-0.464567086,0.13084877949999998,0.224994223,-7.021344795999999,0.494539329,0.5530143415
64.5,1.65138356,1.5515322,1.7509849899999999,0.0545202725,-0.8091118010000002,-0.026696483799999997,-0.99382762,0.99292747,0.6743610459999999,-1.48577644,0.010626743895000002,-8.159802786,0.200832222,0.723859193,132.59832120000002,1.3668085575103759,-0.3293836623430252,-2.7413338899612425,0.19604208401346757,0.19550383300000002,0.17419019900000002,0.204423042,0.005317043490000001,-0.6827078230000001,-1.72370281,-0.477149233,0.1316767855,0.209188396,-7.967095204000001,0.49387048600000005,0.7248882635
74.5,1.65125851,1.5505112399999998,1.7495601600000001,0.05361175979999999,-0.7985762370000001,-0.04632541400000001,-0.9945012100000001,0.995096446,0.673229813,-1.47596077,0.04735158161999999,-7.134210857000001,0.19867896899999998,0.518263118,148.0591096,0.731470287963748,-0.3726755291223526,-2.735910654067993,0.195439004134127,0.240476689,0.210312968,0.260606304,0.00970061334,-0.6762111020000001,-1.2135735300000001,-0.388041422,0.14233698099999997,0.255469646,-6.913046889600001,0.47769048099999994,0.52003248
84.5,1.65216679,1.54457322,1.7508560100000001,0.05642773760000001,-0.841246598,-0.029280768900000004,-0.9939274370000002,0.991808286,0.671306094,-1.4836163500000004,-0.002751098769999999,-8.159802786,0.200503784,0.8052465910000002,112.9115215,1.6821124676615,-0.3397533416748047,-2.7301113605499268,0.1948405640448279,0.20926150700000004,0.160195527,0.23545170599999996,0.014261567550000001,-0.669523825,-1.7497284399999997,-0.43552968300000006,0.15759759909999999,0.21158377,-7.955754597,0.536393275,0.805376645
94.5,1.65195635,1.54097787,1.7505216800000003,0.05725037289999999,-0.7834545879999999,-0.04653913513,-0.9932820970000001,0.9960750119999998,0.6691495759999999,-1.4641387300000002,0.028004667849999998,-8.17902766,0.20017603,0.7056551969999999,122.9667187,1.2046951860189439,-0.37127930819988253,-2.7513602495193483,0.1942468730336101,0.239272052,0.185221754,0.277832663,0.019271054599999997,-0.679378048,-1.3372304930000003,-0.427963554,0.13196719019999997,0.245853445,-7.97709176,0.490409795,0.707660507
104.5,1.65204345,1.5391380299999997,1.7506897399999999,0.059211150099999985,-0.8227866450000001,-0.008243093149999997,-0.9940364800000001,0.9942117039999999,0.668676775,-1.4685052499999998,-5.352504000000063e-05,-10.0,0.20038995,0.9037230480000001,146.04875739999997,1.7548210322856903,-0.3562917113304138,-2.717839241027832,0.19365582703105816,0.22924162900000003,0.12620204100000004,0.282550528,0.0320436685,-0.6558462030000001,-1.97268115,-0.243486653,0.2504121145,0.224097435,-9.79292675,0.6412442850000001,0.9048991679999998
114.5,1.65123207,1.5312784499999998,1.7496199300000002,0.06107019419999998,-0.739584554,-0.027670450900000004,-0.9939082970000002,0.9950386019999999,0.66578899,-1.46117779,0.0216708305,-8.10448021,0.203967144,0.7252265300000001,122.72945442999999,1.3614177856594325,-0.3582996308803558,-2.7633588552474975,0.1930701689505801,0.226883408,0.1382831379,0.28363683999999995,0.030584048399999997,-0.68046437,-1.9371818399999998,-0.37799564700000005,0.184792704,0.252571088,-7.882516484600001,0.6192995119999999,0.727161347
124.5,1.65272963,1.52652335,1.75456973,0.0637823033,-0.7806783989999999,-0.014410909610000005,-0.9940272540000002,0.994778146,0.6709941749999999,-1.48080309,-0.006670711690000002,-10.0,0.206904946,0.9213311620000001,138.3280124,1.8457303166389465,-0.35006525814533235,-2.759568524360657,0.19248467446696244,0.22008546600000006,0.13567510599999996,0.27895849699999997,0.030391963,-0.675069029,-1.8947862199999996,-0.363832822,0.17731112799999998,0.23293450999999998,-9.770165,0.5316622179999999,0.9216752629999998
134.5,1.6509499699999999,1.52572796,1.7550839,0.06320411070000001,-0.629935529,-0.01171232026,-0.9942453400000002,0.993144442,0.664353119,-1.44939346,0.0021493912799999994,-10.0,0.20610799000000002,0.869478938,149.55932539999998,1.6030098915100097,-0.3488123744726181,-2.7803959608078004,0.1919005012457696,0.21739767700000004,0.168965413,0.239384504,0.0136261874,-0.6846018230000002,-1.68917784,-0.5191935190000001,0.11395270939999999,0.24756703600000002,-9.763500000000002,0.502945606,0.869888001
144.5,1.65115026,1.52558968,1.7551859800000003,0.06427416289999999,-0.704315622,-0.01826137606,-0.9935808030000001,0.995029961,0.6575717900000001,-1.43520681,-0.025650590524,-9.08951383,0.20521138300000002,0.9944936960000001,81.14684439999999,2.2144152484834194,-0.35215804278850554,-2.765000820159912,0.19131716439398666,0.22351264200000004,0.12740321999999998,0.277178668,0.0343766246,-0.672200654,-1.94908441,-0.511252665,0.163214576,0.223346973,-8.869605685,0.597240889,0.9965643070000001
154.5,1.6496163,1.52626378,1.75520703,0.06376862729999999,-0.68997986,-0.0168605015,-0.9941171570000001,0.9929448429999999,0.649502275,-1.40402693,-0.0007074240999999981,-8.133498143,0.206586006,0.7896890409999999,110.67163070000001,1.5924918502569199,-0.33949415385723114,-2.781191921234131,0.1907379514997088,0.2099646,0.123710015,0.25327800100000003,0.0281619831,-0.6788990850000001,-1.7454202600000002,-0.46167269600000005,0.15497515700000003,0.254517925,-7.886265674000001,0.5778192799999999,0.7907600205
164.5,1.6485821700000003,1.52561473,1.7551588199999997,0.06432361989999999,-0.7193109320000001,-0.033320581179999996,-0.9937252160000002,0.9947031039999998,0.654764584,-1.41947029,-0.009290219500000002,-9.05931357,0.205219751,0.859022772,123.25473500000001,1.7488053463399411,-0.380999693274498,-2.7505627870559692,0.19016092732578554,0.255948364,0.0856479277,0.34746763799999997,0.06644994039999999,-0.6573924430000001,-1.66628355,-0.34459953200000004,0.198079185,0.24730654199999996,-8.841375870000002,0.577221874,0.862420861
174.5,1.64898703,1.5254151,1.7557888600000002,0.062431147099999994,-0.521252619,-0.0167979003,-0.9937368560000002,0.994776374,0.650117488,-1.40482445,0.0036030632300000026,-9.08951383,0.205488502,0.8143137865,131.6540404,1.5259798780083655,-0.34272808730602267,-2.7221921920776366,0.18959114955533607,0.221865494,0.053395402999999994,0.31046504500000005,0.06214403080000001,-0.63731439,-2.0687379900000002,-0.155460777,0.307580463,0.26247479599999995,-8.874050604,0.63787441,0.820227447
184.5,1.6487197599999999,1.52571874,1.75517029,0.06283298159999999,-0.5749702469999999,-0.02736400603,-0.9933785820000001,0.9960171679999998,0.652621062,-1.4131199199999998,0.022172140700000002,-10.0,0.205629098,0.7267898230000001,205.44460799999996,1.125887668132782,-0.39558500945568087,-2.778258466720581,0.1890262403512996,0.269272151,0.1068294294,0.34943901799999993,0.053019106999999996,-0.6680435760000001,-1.92774927,-0.349728846,0.19675968200000002,0.292887515,-9.734080299999999,0.562308891,0.7275423509999999
194.5,1.64949288,1.52616169,1.75492832,0.059874224600000005,-0.40777691900000007,-0.03345684432,-0.9934502060000001,0.9946352879999999,0.650010282,-1.40960649,0.004402269280000001,-9.038628456000001,0.205211122,0.8275304510000001,127.4019825,1.58708363622427,-0.3844399929046631,-2.802540135383606,0.18845813109474543,0.25632613,0.09148515324,0.324810958,0.0446342185,-0.6795969230000001,-1.76707016,-0.5393368059999999,0.12165366540000003,0.283877651,-8.776860119,0.651447266,0.8289065220000001
204.5,1.6488436800000001,1.5264942700000002,1.7547331400000001,0.0615939369,-0.4806180245,-0.0005381124999999992,-0.993292104,0.9954419159999999,0.6424897580000001,-1.38904395,0.010963531299999999,-8.163081066,0.206108021,0.7493027119999999,121.54527710000002,1.422156646847725,-0.42793706655502317,-2.8036081552505494,0.18788863936045774,0.30066124800000005,0.0835751866,0.37673397300000006,0.0583982511,-0.677196321,-1.3804404000000001,-0.43546900599999994,0.12655593950000002,0.29474090199999997,-7.90269733,0.539950061,0.7507350829000001
214.5,1.6485947199999997,1.5265469800000002,1.75488754,0.061244876200000006,-0.6002418259999999,-0.0346131873,-0.992950083,0.9940293619999998,0.642985643,-1.38658251,0.0165521261,-8.16078884,0.20409032900000001,0.7359062116,123.07584139999999,1.3477092426270247,-0.41778247356414794,-2.8056280612945557,0.18732072883777043,0.29123408399999995,0.10675032560000002,0.37825125000000004,0.05453363170000001,-0.675369361,-1.8003682300000001,-0.512715248,0.11825803450000001,0.30656858200000003,-7.891977038,0.6535006460000001,0.7376608585
224.5,1.64999571,1.5263923,1.7545020900000001,0.0606226959,-0.7115205,-0.017808605769999996,-0.9943114900000001,0.993636452,0.6451693479999999,-1.3962761799999999,0.0024029367999999973,-8.160788839999999,0.204480108,0.8267448700000001,102.94421989999998,1.7293012976646422,-0.38548954129219054,-2.8271607637405394,0.18675411222094712,0.257490436,0.06448972929999999,0.34897373800000003,0.05693049409999999,-0.685181174,-1.59486174,-0.4981115669999999,0.12210902190000002,0.29726191,-7.896439998000001,0.5809339219999999,0.8284640784
234.5,1.65136864,1.52590793,1.7545573299999997,0.061748542399999995,-0.8091183430000001,-0.0077772244,-0.9938604260000001,0.9941209829999998,0.6387491670000001,-1.37542488,0.0394978086,-7.168230982,0.20610784399999998,0.591829934,125.23332029999999,0.9630404192954302,-0.43407279551029204,-2.824507212638855,0.18618845974270257,0.30732305,0.010163494197,0.434798963,0.08726849369999999,-0.6805584550000001,-1.60116893,-0.5241601570000001,0.113411157,0.33993898400000006,-6.875068496,0.5944833669999999,0.5921324955
244.5,1.6511460100000002,1.52740261,1.75447189,0.0618661115,-0.8929431969999999,0.014135451330000002,-0.9917998450000001,0.99275171,0.6388540079999999,-1.3662724,0.0081105332,-9.08951383,0.20577955,0.8504395805,126.7043904,1.6391040436923503,-0.41304453313350675,-2.8298643112182615,0.18562451867090482,0.28664812,-0.06740841280000001,0.40703103,0.08681623150000001,-0.6807164290000001,-1.6440895999999998,-0.39626627999999997,0.1473863634,0.31290286,-8.812894320000002,0.547963559,0.851298886
254.5,1.6507548999999997,1.5256117200000001,1.7556849500000002,0.06262422949999999,-0.8850636419999999,-0.00840272352,-0.9937185770000001,0.9925965379999999,0.622694765,-1.3418617899999998,0.01303245391,-9.092792110000001,0.20606604599999997,0.781015555,136.41583020000002,1.3578626379370689,-0.43954631090164187,-2.8107168197631838,0.18506318198822633,0.31619099399999995,-0.0719905488,0.434495088,0.0879340722,-0.666348895,-2.20542862,-0.39251589600000003,0.222212983,0.32065792400000004,-8.818473233,0.620898297,0.7836541089999999
264.5,1.6505562999999999,1.52603832,1.75539256,0.0647323742,-0.9584236670000001,0.017197636949999998,-0.9935526100000001,0.992535212,0.6261764,-1.34141113,0.0073907575,-9.08951383,0.20634109,0.8103058470000001,132.82914499999998,1.4914610505104064,-0.43151460886001586,-2.8029632806777953,0.18450746813459937,0.309929932,-0.11330871331,0.44307815,0.105006862,-0.6587817410000001,-1.58765583,-0.311460711,0.20140245299999998,0.32082996299999994,-8.824256110000002,0.650346793,0.8131137290000001
274.5,1.64969411,1.52560496,1.7552541100000003,0.06381442820000001,-0.841245718,-0.012858154350000001,-0.9940272540000002,0.9937351199999999,0.6318142420000001,-1.36501845,0.012634353010000002,-8.143517836000001,0.20533827,0.756288681,102.2916477,1.3346062526106834,-0.4429467260837555,-2.797976756095886,0.1839548240506727,0.322802716,-0.11311116993999999,0.45495716799999997,0.09796280959999999,-0.652909472,-1.5809963200000001,-0.180236961,0.25771321899999994,0.331970317,-7.867360133000001,0.6425290589999999,0.759877021
284.5,1.6494578400000002,1.5263700599999999,1.7549257699999998,0.0647439184,-0.890956218,-0.025805606785,-0.9940127270000001,0.98723388,0.633218276,-1.36004378,-0.017532164280000002,-9.09279211,0.20562941299999998,0.910307682,108.7762606,1.877821196615696,-0.4037804365158081,-2.8150213718414308,0.1834060649044415,0.28269173000000003,-0.09316399979999998,0.454947929,0.09821765670000002,-0.6600348149999999,-1.6668357510000003,-0.158998551,0.254097492,0.306580527,-8.801851113,0.6405258839999999,0.9120010119999999
294.5,1.6490615800000001,1.52552636,1.7554769999999997,0.0641197965,-0.8870095010000002,-0.0265940887,-0.9937476310000001,0.9922365300000001,0.621968533,-1.3222936400000003,-0.0170315304,-10.0,0.20489682399999998,0.9419738000000002,148.42899430000003,1.938075739145279,-0.4164999932050705,-2.8303619146347048,0.18285796279313624,0.294653439,-0.22321962099999998,0.49823363499999995,0.12460361409999998,-0.6661469099999999,-1.354813013,-0.169577645,0.225840903,0.31283315399999995,-9.73006125,0.580401256,0.945787406
304.5,1.6499944,1.52631946,1.75415648,0.0637369969,-0.946424712,-0.00998103441,-0.9937115500000001,0.9946352879999999,0.6349690010000001,-1.3808638699999998,0.016950756974999998,-9.08951383,0.20483231100000002,0.7636498589999999,150.5977482,1.3302928686141968,-0.450549453496933,-2.8475775003433226,0.18230959471251545,0.32775913599999995,-0.18680782899999998,0.558519145,0.12389497759999998,-0.6733242349999999,-1.0535112139999998,-0.282112265,0.17794004000000002,0.35424211699999997,-8.800039626,0.6074744639999998,0.7673605419999999
314.5,1.64989608,1.5259454399999999,1.75504985,0.0631304337,-0.829298841,-0.012262757309999999,-0.9934374170000002,0.9937399640000001,0.626351857,-1.3168275600000001,0.0141444274585,-7.220934396,0.206343202,0.697219199,83.5084574,1.2554165698587894,-0.45136855244636537,-2.8621572256088257,0.18176131919548963,0.327931901,-0.32078177240000005,0.528699781,0.1425263445,-0.6789167660000001,-1.301978905,-0.36222746299999997,0.15502736299999997,0.358141191,-6.932390165999999,0.6335863700000001,0.7015161634
324.5,1.6486873100000001,1.5273463299999999,1.75356882,0.0622213881,-0.8275583900000001,-0.0011708276900000013,-0.9941217700000001,0.9934405089999998,0.627279744,-1.3285406499999999,0.035139313500000005,-7.255534819999999,0.20386015399999996,0.609391044,134.40484039999998,1.0293848820030689,-0.5077428728342056,-2.866718029975891,0.18121303179850967,0.384730535,0.05781072420000001,0.5716018939999999,0.09497722250000001,-0.6786223699999999,-1.1680447299999999,-0.38062684399999996,0.14490153600000003,0.385703973,-6.961182802000001,0.6296829419999999,0.6118014350000001
334.5,1.6487063,1.52615776,1.7543785699999996,0.061839926999999996,-0.795566809,0.009250393499999999,-0.9932034000000002,0.9906664509999998,0.621939542,-1.3248052200000002,0.008320306640000002,-8.132542449999999,0.204776672,0.787678695,107.8950885,1.5472419559955597,-0.4273026704788208,-2.8713953495025635,0.18066584519181295,0.304704093,-0.33777286700000003,0.522026935,0.14726926849999997,-0.6783888059999998,-1.35040672,-0.40402286099999996,0.140582747,0.36505594299999994,-7.8602645859999996,0.5941752749999999,0.7921133854000001
344.5,1.64970058,1.52613741,1.75518232,0.06185953080000001,-0.8253138269999999,-0.0026831402000000006,-0.9936806200000003,0.9942282919999998,0.6295866350000001,-1.32036408,0.019104818200000002,-9.070288956,0.20622112599999998,0.782181405,129.446829,1.3250635772943498,-0.47257554829120635,-2.882233142852783,0.18012010702473258,0.34974053200000005,-0.2882556123,0.56764646,0.1274927744,-0.68175236,-1.39863596,-0.410520658,0.13612172,0.3802231100000001,-8.778670592000001,0.63936585,0.7863836264
354.5,1.6492229699999998,1.5264361599999998,1.75466904,0.061951223300000004,-0.837187999,0.015013985619999998,-0.99272921,0.9947918,0.6309659080000001,-1.32255999,0.0425953954,-6.345387006,0.20642671399999996,0.5431983999000001,112.1389316,0.8883291967213154,-0.5312600255012512,-2.886835479736328,0.17957598855441897,0.408848633,-0.09507950209999999,0.6273463199999999,0.114406236,-0.681465886,-1.39176801,-0.41458303,0.135395213,0.41006866799999997,-6.070974925,0.6714041369999999,0.5487686436000001
364.5,1.6507660000000002,1.52605145,1.7550189900000004,0.0623532747,-0.9051160670000001,-0.012306001699999998,-0.9927169430000001,0.9947185299999999,0.632417644,-1.35888622,0.027806950145,-9.09279211,0.204702803,0.720828477,154.82016649999997,1.1035893924534321,-0.47854148149490355,-2.897173047065735,0.17903305346204124,0.35595224799999997,-0.37975233799999997,0.5761436439999998,0.154898489,-0.6845197110000001,-1.370005566,-0.412242471,0.13480454609999998,0.398546523,-8.819337010000002,0.6054350989999999,0.7286776199999999
374.5,1.6510223200000003,1.5267112600000001,1.75448047,0.0636532828,-0.9988338840000001,-0.004174781550000001,-0.9931422170000002,0.9934167039999998,0.624407676,-1.3229004899999999,0.0073858252499999985,-8.159802786,0.205745325,0.818270383,96.1338548,1.6509760044515134,-0.47974820137023927,-2.8997388601303102,0.17849135723213824,0.35779253200000005,-0.16381326040000002,0.576804323,0.1134215185,-0.68304713,-1.4091191800000002,-0.37623359800000006,0.145549775,0.383193171,-7.885348547000001,0.627673441,0.8254604149999999
384.5,1.6507446399999997,1.52579734,1.75541603,0.06297081,-0.910370206,-0.006222782199999998,-0.9937705800000002,0.988760765,0.625899996,-1.3313623099999998,-0.013307966100000002,-9.092792110000001,0.205024185,0.9104521070000002,113.75759350000001,1.872576005756855,-0.45974003672599795,-2.9026566982269286,0.17795191490012352,0.33837946999999996,-0.3978302677000001,0.634098365,0.15069069499999999,-0.681781667,-1.5089883499999999,-0.35158246900000006,0.159147913,0.36682609099999997,-8.833113690000001,0.672963585,0.9199894969999999
394.5,1.6499336599999999,1.52696635,1.7547159799999998,0.06422021419999999,-0.9991715109999999,-0.031288237059999995,-0.9936216470000001,0.9931474299999999,0.6300433460000001,-1.3660296299999997,0.008338073932399995,-8.14122561,0.20590442599999997,0.769343063,116.085614,1.4994560327380895,-0.4961510390043259,-2.914074182510376,0.17741447861286525,0.37450783200000004,-0.2742056975,0.6313837100000002,0.152434744,-0.685441905,-1.61561885,-0.398370099,0.15363284100000002,0.3939408159999999,-7.903595565000001,0.660830693,0.779662569
404.5,1.6487741,1.52690584,1.7544035,0.064054656,-1.0076086400000002,-0.031130785799999998,-0.9940127270000001,0.994051395,0.6236553989999999,-1.31876868,0.003598985,-9.06799673,0.205698101,0.833209982,139.5151881,1.6510172821581364,-0.4902479022741318,-2.9136348009109496,0.17687816704742598,0.36953815,-0.28404095077,0.6256890829999999,0.14256422800000002,-0.682242938,-1.168757102,-0.467833147,0.121479343,0.39871949800000006,-8.797179113,0.6340768880000001,0.8414731099999999
414.5,1.6500038499999998,1.52559718,1.7554670799999996,0.0644064742,-0.9993264099999999,-0.00923585622,-0.9909968259999999,0.994876814,0.620926788,-1.2968760400000001,0.014038497911999997,-10.0,0.20627955299999998,0.8138685179999999,159.09475550000002,1.312255072593689,-0.49805753231048583,-2.914389896392822,0.176343776718706,0.37815145599999994,-0.4606740874,0.6533358779999999,0.188176334,-0.6797479790000001,-1.2486904850000002,-0.4558182619999999,0.11814931070000001,0.40965915099999994,-9.74480585,0.619982392,0.825251022
424.5,1.6493298000000003,1.52693267,1.7547621000000002,0.0635491512,-0.961715753,-0.010144360889999999,-0.991453714,0.9929264659999999,0.6140015759999999,-1.30455439,0.0008497576,-10.0,0.205117059,0.883734134,150.7508395,1.6236602187156677,-0.4890803277492523,-2.9242228269577026,0.17581166961520875,0.36905620100000003,-0.4653963914,0.6523305950000001,0.178626573,-0.682481681,-1.544763675,-0.4487445849999999,0.1304238434,0.404684513,-9.7624498,0.667829996,0.8954188720000001
434.5,1.64967476,1.52630073,1.7547157800000002,0.0637453425,-0.9570781979999999,-0.03396538907,-0.9925899480000002,0.9923820649999999,0.620542439,-1.32878934,-0.0023270853869999998,-9.08951383,0.205901258,0.8595638969999999,115.86473269999999,1.5921958431601524,-0.4977963298559189,-2.934021019935608,0.1752809944164553,0.377659526,-0.713137801,0.674518089,0.23387521399999994,-0.685189112,-1.63958585,-0.482179964,0.123789928,0.40630228299999993,-8.827501189999998,0.6374590480000001,0.8710185210000001
444.5,1.6499565600000001,1.5259846700000002,1.7553235900000002,0.06285235420000002,-0.9019475229999999,-0.024916447480000003,-0.9909299700000002,0.9925914619999998,0.624330338,-1.32871842,-0.0022785678200000006,-9.09279211,0.204410825,0.8463363354999999,127.7548503,1.6428118579089641,-0.4700744986534119,-2.93234498500824,0.17475175463361958,0.35097948500000004,-0.5550173354999999,0.6409266249999999,0.207629808,-0.681305557,-1.3179788899999998,-0.51560243,0.10895658589999999,0.410093154,-8.84116967,0.680680936,0.859510483
454.5,1.6483434200000002,1.52631168,1.75477469,0.0623592602,-0.803311553,-0.018204503000000004,-0.9918737810000001,0.9921546189999999,0.610844027,-1.2957476700000001,0.012718584730000001,-8.15210568,0.20438610499999998,0.7322333929999999,123.71716529999999,1.3584399111568928,-0.5095592409372329,-2.9319313287734987,0.17422471257036537,0.39137120599999997,-0.3745992066,0.671913175,0.169371726,-0.678162034,-1.3240793540000002,-0.4908612130000001,0.10800385650000002,0.43274975,-7.888612277,0.653101583,0.7444508340000001
464.5,1.6499810700000002,1.5281093300000002,1.75379627,0.060831320999999994,-0.843184905,0.003332133899999999,-0.9930624010000001,0.992189919,0.611939212,-1.26818135,0.034112255877,-7.24533922,0.205342943,0.626642412,111.93995690000001,1.0572294715791941,-0.5212975561618804,-2.9449891328811644,0.17369965947049198,0.40267174,-0.1505955534,0.6356560520000001,0.125515153,-0.682729937,-1.3842961800000002,-0.49022944000000007,0.10855989399999999,0.455761644,-7.027590234,0.700302,0.642033099
474.5,1.6501923600000001,1.5260791800000002,1.7555811600000002,0.06224789019999999,-0.9018417719999998,-0.0096764271,-0.9934929369999999,0.9923883819999999,0.618951734,-1.31721934,0.01405503401,-8.185584219999999,0.20513937899999996,0.7543998675999999,120.95501599999997,1.4120255030691624,-0.5481898695230484,-2.942858576774597,0.17317631896234573,0.4306347840000001,-0.3822700276,0.7025272509999999,0.157765643,-0.678616004,-1.55081453,-0.524316971,0.112734786,0.438813618,-7.943835336000001,0.7541239200000001,0.7701399980000001
484.5,1.65051524,1.5262121800000001,1.75462522,0.0614227839,-0.8397785600000001,-0.00013887050000000177,-0.9919777359999999,0.993095039,0.629658508,-1.36114013,-0.01158289411,-8.128142286000001,0.205062473,0.8808484400000001,78.47435716999999,1.9229433357715606,-0.501372617483139,-2.960103726387024,0.1726545897844857,0.3829733,-0.5320168730000001,0.6847605790000001,0.2169633075,-0.685553047,-1.7546136999999997,-0.534420282,0.12187424399999999,0.415061646,-7.940893557999999,0.7147678670000001,0.900873915
494.5,1.65157116,1.52658973,1.75489354,0.06185838430000001,-1.0069864159999997,-0.030226020940000004,-0.9942070600000001,0.9922209909999997,0.6178271499999999,-1.30122122,0.01840431953,-9.06799673,0.20483200399999996,0.7960738239999999,134.3970735,1.4577705785632133,-0.5075294345617294,-2.956888723373413,0.17213373714588862,0.390299712,0.06323867576,0.6296889419999999,0.12503331749999996,-0.6808321679999999,-1.3837885599999997,-0.504937347,0.10723424159999999,0.4506593420000001,-8.873262835000002,0.7669844969999999,0.8131522595
504.5,1.6516663399999998,1.5274830400000001,1.7535097499999999,0.06212898050000001,-0.9614690400000001,-0.029536769419999997,-0.9929172770000001,0.9952529579999998,0.619520171,-1.3052530299999998,-0.005322073700000001,-9.070288956,0.20427658399999996,0.840500395,139.66163010000002,1.7498464852571487,-0.5269582301378251,-2.9693527460098266,0.17161468763996243,0.40936229700000004,0.059037629769,0.6373790419999998,0.1305758201,-0.685024586,-1.598282516,-0.4862193099999999,0.1255856929,0.431179989,-8.800398568,0.696063002,0.8548045335000001
514.5,1.6509069300000003,1.5267741000000001,1.75513632,0.06402349260000001,-1.0386868100000002,-0.015951619110000002,-0.9913886300000001,0.993969484,0.618893525,-1.3555640400000002,0.039887952286,-6.36789016,0.204116512,0.528535118,120.29007100000001,0.8420417897403241,-0.600095397233963,-2.97128369808197,0.17109700346969714,0.4831602360000001,0.1071855971,0.7621977129999999,0.136399831,-0.683235366,-1.6792005199999998,-0.48552078,0.1236818194,0.478943703,-6.150104849,0.744745651,0.54899477
524.5,1.65088729,1.5262879100000002,1.7548172100000001,0.0634355114,-0.965889039,-0.0183079933,-0.9905005970000001,0.9941081209999998,0.615034468,-1.32313092,0.023215149249999994,-8.149783209999999,0.20578926599999997,0.7109917789999999,127.70888509999997,1.2938036184757948,-0.5719080448150635,-2.98320791721344,0.17058098742607855,0.454666511,0.06291773756,0.721751477,0.1341496026,-0.6871014690000001,-1.8116800149999999,-0.51522593,0.1337546799,0.468275752,-7.866402433,0.7185385310000001,0.7270217055
534.5,1.6501473,1.5259849500000002,1.75526436,0.063554822,-0.9547499050000001,-0.015126048830000006,-0.9916983979999999,0.987483155,0.6171984399999999,-1.31960868,0.013153665520000002,-10.0,0.20488842199999996,0.814336856,158.87891839999998,1.3716637432575225,-0.5439294964075089,-2.975642704963684,0.17006635401722664,0.428257475,0.05210965375,0.683938068,0.1258391,-0.6799531490000001,-1.3015799,-0.49374368100000005,0.1055944599,0.466818201,-9.747883700000001,0.8461443359999998,0.831800462
544.5,1.64994552,1.52658981,1.7545776700000002,0.0627598207,-0.9011488910000001,-0.0131254001,-0.993269596,0.9944565469999999,0.6193016659999999,-1.32384355,0.020980722880000004,-9.06799673,0.20407943399999998,0.7200899999999999,167.9219653,1.2002999652177095,-0.6003831505775452,-2.9845097064971924,0.16955410179101776,0.484696746,0.0918004869,0.7502946090000001,0.135722849,-0.6820935519999999,-1.84350166,-0.46026546800000007,0.13537209170000003,0.48003312200000003,-8.82418058,0.743415173,0.7377327419999999
554.5,1.64999017,1.5271270000000001,1.75416177,0.0629155288,-0.9461374770000001,-0.024215315800000005,-0.9923747730000001,0.9938002869999998,0.6103860859999999,-1.2800638500000001,0.009055453800000002,-10.0,0.204658125,0.856396012,147.0446355,1.495498424768448,-0.5749495267868042,-2.9913159370422364,0.16904338484418088,0.45944650000000004,0.07620852613000001,0.6950821360000001,0.146412347,-0.683068686,-1.35596416,-0.44152226299999997,0.1206589261,0.471957978,-9.710867799999999,0.6902161719999999,0.8709683299999998
564.5,1.6494089799999998,1.52708139,1.75465308,0.0621899738,-0.9120750599999999,0.006225114250000002,-0.9924985870000003,0.9933209919999998,0.616132358,-1.30832372,0.01935318217,-7.2138067920000015,0.204915868,0.6670113,112.36533490000002,1.2778237447142602,-0.5692113131284714,-2.9980942487716673,0.1685341230389083,0.453895611,0.079979942337,0.733591519,0.152426135,-0.6840229750000001,-1.86349585,-0.434947704,0.1532734034,0.48609487900000004,-6.952072822999999,0.702103767,0.685629892
574.5,1.6491372800000001,1.52665803,1.75418852,0.06285009049999998,-0.957592078,-0.021037525280000004,-0.9936423970000001,0.9909239219999998,0.6188056129999999,-1.3222997799999998,-0.00707072749,-10.0,0.20539908499999998,0.911397668,147.9691017,1.8050580024719238,-0.5771486461162567,-2.9870731592178346,0.16802671252030896,0.4636971,0.024750664500000002,0.8000963459999999,0.17130883000000002,-0.674996108,-1.5339497830000002,-0.413799499,0.13618018,0.46697351200000004,-9.728262299999999,0.781705672,0.9299234460000001
584.5,1.6496792099999997,1.5259292100000001,1.7549305400000001,0.06191546240000001,-0.8990927579999999,0.00525971575,-0.992878027,0.993991236,0.609163066,-1.29664626,0.002107285600000004,-9.09279211,0.204340264,0.8233293070000002,138.3484101,1.5744163021445274,-0.5973084211349488,-2.9855988025665283,0.1675221714134844,0.48480875800000006,0.011394208,0.782229616,0.17828205,-0.67134981,-1.5756278600000002,-0.37914411900000006,0.153119549,0.47788369499999994,-8.809804413,0.7545235029999999,0.8426546800000001
594.5,1.65039378,1.5267961300000001,1.75442314,0.06198468220000001,-0.95268648,-0.008250600309999998,-0.9925168660000001,0.995878051,0.618867603,-1.33560021,-0.007561316042000001,-10.0,0.204857713,0.9364815340000001,125.54650130000002,1.7960259199142456,-0.5736380159854889,-3.0031997919082642,0.16702002997817622,0.460300934,-0.0233388258,0.780294592,0.18845993,-0.6783817089999999,-1.465681945,-0.40798264800000006,0.135867021,0.47166686299999994,-9.732650049999998,0.7422893549999999,0.95562907
604.5,1.65009937,1.52941788,1.7536198200000002,0.06186822500000001,-1.03854261,-0.014310830350000001,-0.99220507,0.9950549759999999,0.612078954,-1.2851659800000002,0.019099804800000002,-9.08951383,0.204334016,0.7694204855000001,147.607547,1.3474485188722611,-0.5948664724826813,-3.011775541305542,0.1665187829471583,0.481541515,-0.0084063575,0.86389032,0.18401379199999998,-0.6803516070000001,-1.7187963030000002,-0.424119083,0.1438839326,0.504228675,-8.836346587,0.784250947,0.7898530029999999
614.5,1.64965005,1.52646418,1.7547829500000003,0.06245398710000001,-0.977502155,-0.0054635554,-0.9927067300000001,0.9962778860000002,0.6153959099999999,-1.32542012,0.02833078497,-8.17457859,0.20478998600000003,0.6918575739999999,140.1521773,1.19480921626091,-0.609722900390625,-3.015782117843628,0.1660184192425755,0.4968354419999999,0.023185038999999998,0.8017351830000001,0.187837257,-0.6797671169999999,-1.5107684799999999,-0.4045870290000001,0.136174543,0.520276389,-7.873852642999999,0.747398881,0.71159624
624.5,1.65042279,1.52770488,1.7539543700000002,0.06177828009999999,-1.032928232,0.00220341996,-0.9912120270000001,0.9928638089999999,0.61547042,-1.31020603,0.02792981,-9.070288956,0.20495159899999998,0.749072078,151.33100069999998,1.2805360469967126,-0.6055235624313354,-3.0209622621536254,0.16551941119990443,0.49296393,0.0786315502,0.8589133180000001,0.16989152300000002,-0.6798360659999999,-1.4152365199999999,-0.407826699,0.13506874100000002,0.523098605,-8.77807097,0.8138999069999999,0.7703873489999999
634.5,1.65098184,1.52674653,1.75448227,0.0641539554,-1.03155458,-0.0069882911700000026,-0.9938305070000002,0.989962096,0.610423705,-1.31957462,0.009084814729999998,-9.09279211,0.20559937699999997,0.8161588399999999,131.0335153,1.4929421048611402,-0.5950933039188385,-3.0180409431457518,0.1650220082537616,0.48360260300000013,-0.015844427779999996,0.831174779,0.201459228,-0.675408407,-1.202977564,-0.38307382900000003,0.13586360800000002,0.5062019030000001,-8.8367793,0.780796732,0.840660793
644.5,1.6504260800000001,1.5269667400000002,1.75443288,0.0627859892,-1.008816925,0.0014007847729999982,-0.9925600860000001,0.995717347,0.620129182,-1.30659071,0.030549464299999995,-9.086104553999999,0.20477857800000004,0.7316477659999999,155.45773300000002,1.188568252697587,-0.6457868158817291,-3.032505989074707,0.16452645715858996,0.533770481,-0.002065546900000001,0.9032852,0.1899765,-0.6806339859999999,-1.49408747,-0.39082255200000005,0.144227903,0.535844717,-8.796922493999999,0.8064313869999999,0.7529486816000001
654.5,1.6499603699999998,1.52634856,1.7550746099999999,0.06470219740000002,-1.0499897299999998,0.0012070910199999997,-0.9931009960000001,0.994720504,0.602801184,-1.26857297,0.018709658849999998,-8.16078884,0.20497712499999995,0.74175041,114.0073065,1.3323634654283523,-0.6377772629261017,-3.0342225790023805,0.1640321212447223,0.526400986,-0.025312044099999997,0.8807958320000001,0.198861424,-0.678785177,-1.2049990200000003,-0.3918125739999999,0.13322413400000002,0.5322044890000001,-7.848966251999999,0.812112387,0.7654601544000001
664.5,1.6489439599999998,1.52719126,1.7550999999999999,0.06552735800000001,-1.120710603,0.019421365529999995,-0.991351693,0.99517101,0.6070087339999999,-1.27453268,0.006257016299999999,-9.086104554,0.20444915299999997,0.8179741464999999,140.0535335,1.5640891440212727,-0.606813246011734,-3.0468502044677734,0.16353915911936823,0.49508695999999996,-0.07466730460000001,0.862224348,0.209784963,-0.682969956,-1.61420069,-0.380160477,0.152544891,0.5261815519999999,-8.80257373,0.8159683039999999,0.844461981
674.5,1.6483263799999999,1.52691404,1.7549071400000003,0.0647404767,-0.9997807889999999,-0.0071400388999999995,-0.9928888180000002,0.9948719090000001,0.6115615489999999,-1.30351851,0.01237768819,-9.086104554,0.20613704,0.7830097109999999,135.4905104,1.3289446420967579,-0.658473402261734,-3.034650731086731,0.16304752492612926,0.5486356590000001,-0.1404783832,0.9567193850000001,0.225446215,-0.673448797,-1.34998206,-0.339491723,0.160974951,0.543078725,-8.814657925,0.8845076689999999,0.8130367809999999
684.5,1.6488166300000002,1.5266382100000002,1.7549598400000002,0.06350599099999998,-0.9939290700000001,0.0037227304440000013,-0.992252097,0.9957611660000001,0.607965831,-1.2709496099999997,-0.011816191359999997,-9.08951383,0.20532297899999996,0.9054808830000001,115.3413342,1.8304612413048744,-0.617473840713501,-3.0438761711120605,0.16255859841941525,0.5075907930000001,-0.2733512585,0.8861411640000002,0.237742853,-0.675757825,-1.43839735,-0.285192229,0.18423187800000002,0.52229687,-8.815824169999999,0.790789833,0.9350360489999998
694.5,1.6494346800000002,1.5272045300000001,1.7549488500000003,0.0632397706,-1.028734608,-0.014114577989999998,-0.9926220499999999,0.99245572,0.6010231229999999,-1.24483164,0.011420218680000002,-9.09279211,0.204739651,0.808214293,136.1478391,1.4737993128597737,-0.6194935262203216,-3.034450578689575,0.16207174739241093,0.5112270889999999,-0.28941416194,0.87707736,0.245737938,-0.6678150820000001,-1.78957176,-0.27658294699999997,0.209933968,0.5480324649999999,-8.82937035,0.7919956380000001,0.8377039849999999
704.5,1.6481456399999999,1.5268053,1.7550763200000001,0.06357811330000002,-0.996784831,0.031061182700000002,-0.9923554830000001,0.9969804360000001,0.6093804250000001,-1.25114208,0.0067426694469999975,-8.14645776,0.20489948,0.7914045125,106.63561999999999,1.5567354410886765,-0.6217437028884888,-3.0404276132583616,0.16158706307764312,0.5137127939999999,-0.16479698113,0.88795077,0.24496027199999998,-0.6683563149999999,-1.9008609399999998,-0.29208731800000004,0.20906303799999998,0.550206689,-7.915859067999999,0.848272247,0.8244944280000001
714.5,1.64934287,1.5282326000000002,1.7539469599999997,0.0629128627,-0.994879196,0.009165636,-0.9931014300000001,0.997418199,0.616557496,-1.3185424399999999,0.017204682099999997,-9.08178648,0.205652246,0.767177051,152.6264537,1.3327481493353843,-0.6508500754833222,-3.054765725135803,0.16110449687066328,0.542318797,-0.0655639209,0.9510561500000001,0.236818385,-0.673472405,-1.5717865999999998,-0.300736752,0.187514529,0.5642799989999999,-8.848369270000001,0.8305840549999999,0.8011739239999999
724.5,1.6476855400000001,1.52688123,1.7551379900000004,0.062179646699999994,-0.904352773,0.029574394150000006,-0.992029673,0.995642187,0.608456913,-1.29867542,0.011242826599999999,-8.185584219999999,0.20515087699999998,0.769526798,121.61959339999996,1.47104646936059,-0.6451448440551758,-3.0637560367584227,0.16062257775615996,0.5365884129999999,-0.3307969388,0.9301440999999999,0.25792832299999996,-0.67564841,-1.49344198,-0.27592531600000003,0.187695886,0.573589452,-7.971213098,0.8588501139999998,0.8070061550000001
734.5,1.6490236499999997,1.5264944,1.7551314900000001,0.0628657816,-1.0393185099999998,0.0136415695,-0.9920085240000001,0.9918895509999999,0.601517189,-1.24811333,0.005783780299999999,-8.18558422,0.20455220699999996,0.808103072,100.41411780000001,1.5662619218230247,-0.6038903057575226,-3.0831217527389527,0.16014096924367757,0.494404877,-0.325318348,0.895142931,0.284898737,-0.6834770109999999,-1.3826996299999998,-0.281170367,0.17802938899999998,0.5607291149999999,-7.95026493,0.839660572,0.8482726930000002
744.5,1.6493956300000001,1.52716995,1.7550386100000002,0.0631619239,-1.0661545,0.0150750034,-0.9918561140000002,0.992397213,0.601380044,-1.2880174000000002,0.004185493,-10.0,0.20383789800000002,0.885387218,148.3109024,1.669732242822647,-0.6369251251220703,-3.0638381242752075,0.15966020971050238,0.5298878079999999,-0.00861843414,0.9302964009999999,0.21765675600000006,-0.6702058029999999,-1.323453439,-0.30865352200000007,0.17120771299999998,0.5637553519999999,-9.73339585,0.8614880960000001,0.9182470489999999
754.5,1.6492297399999998,1.5263202400000002,1.7547977799999999,0.0632791577,-1.005953844,0.01441543505,-0.9915639920000002,0.98843773,0.606344208,-1.29991757,-0.004726051099999998,-8.167891033999998,0.20499444900000002,0.8632010019999999,86.2213483,1.808206705749035,-0.6402105033397675,-3.0974485874176025,0.15918141467513672,0.531016932,-0.09536853279999999,0.957414615,0.23130936800000002,-0.685766595,-1.119667854,-0.28668184500000005,0.16564498300000002,0.564897192,-7.943665571999999,0.919850012,0.9020101800000001
764.5,1.6483970200000002,1.5243103799999997,1.75463435,0.0649073949,-1.0442654699999998,0.01790894744,-0.992757488,0.9952736999999999,0.6047995179999999,-1.26730497,0.0404195203,-7.267370700000001,0.205414597,0.57341084,142.31544620000003,0.903025534003973,-0.6977747201919555,-3.0904516220092773,0.158702702141031,0.589949213,0.0257151947,1.00160193,0.23253335900000005,-0.6792102919999998,-1.2751200749999998,-0.253662814,0.18159435100000004,0.618905016,-7.000145326,0.9005817109999998,0.615426697
774.5,1.64904756,1.52171128,1.7549381099999999,0.06492542590000001,-0.9648574529999999,0.00867630526,-0.9901822109999999,0.9925357260000001,0.6010853300000001,-1.2591267700000002,0.0007910181700000005,-10.0,0.20609077300000003,0.870172925,149.2695658,1.5492128789424897,-0.643828397989273,-3.09382107257843,0.15822573282164298,0.5364724040000001,-0.351644051,0.9449300700000001,0.25147230600000003,-0.678294316,-1.4881669100000001,-0.24653566100000002,0.194898352,0.5777265189999999,-9.728948,0.881199173,0.9063860269999999
784.5,1.64923232,1.5233791599999997,1.75491093,0.0663519474,-1.0939826449999999,0.01449367653,-0.9928118930000001,0.9947749699999999,0.609671441,-1.2808514800000002,0.0017352145699999996,-10.0,0.205626001,0.907331463,139.3832019,1.7195101499557495,-0.6752802193164825,-3.1024404764175415,0.15775047130497338,0.567941189,-0.28843950639999993,1.018388424,0.299235965,-0.680228905,-1.7077271299999999,-0.267089974,0.199252393,0.5840747800000001,-9.7700463,0.9264858720000001,0.9439863420000002
794.5,1.64890948,1.5225463099999998,1.75524806,0.0636897284,-0.9885356,0.0151388782,-0.991353868,0.9943147050000001,0.6117774949999999,-1.3098328,0.0399413926,-9.09279211,0.20584798399999998,0.658782979,189.00054599999999,0.9665436372160912,-0.685366177558899,-3.0948463439941407,0.1572768639250585,0.579425667,-0.03811769123,0.9679450959999999,0.22625136,-0.673389793,-1.73485877,-0.314734017,0.19052681700000001,0.630665806,-8.836588676999998,0.9179766239999999,0.695754952
804.5,1.6481298900000003,1.5216646699999998,1.75449697,0.0655944772,-0.994366054,0.01983827825,-0.9930170940000002,0.9939394970000001,0.5957813879999999,-1.24318922,0.03152116352,-7.194269317,0.20598147,0.61003268,124.5097828,1.035558221489191,-0.713558304309845,-3.102204465866089,0.15680534574940164,0.607736838,-0.26969187429999997,1.058557196,0.260917704,-0.67465165,-1.4246779799999998,-0.32136418899999997,0.17025383699999996,0.630799345,-6.888224961000001,0.9346563969999998,0.658419813
814.5,1.6476554200000002,1.52256402,1.75470142,0.064936157,-0.977473099,0.015031317999999998,-0.99290297,0.9921191669999999,0.613735522,-1.2983931499999997,0.0021131009440000003,-9.08951383,0.205812276,0.844375181,117.19598699999999,1.5759261786937713,-0.6634047389030456,-3.107834315299988,0.1563357461388591,0.5578507450000001,-0.09704100980000001,0.9395364979999998,0.25319140599999995,-0.6749749039999999,-1.38630964,-0.276232636,0.18598191999999997,0.609402369,-8.80591248,0.9444000430000001,0.8856771649999999
824.5,1.6481190400000003,1.5223448899999998,1.7559091500000001,0.0644326405,-0.963817755,0.024871657799999995,-0.9901501470000001,0.9898325619999999,0.61400908,-1.32040861,0.0006292231000000024,-9.08951383,0.20542699999999997,0.8463396249999999,127.683952,1.667049017548561,-0.6886066228151322,-3.112666916847229,0.15586749707739325,0.583384717,-0.3454972546,1.04675791,0.315428467,-0.6748721289999999,-1.5901897340000002,-0.264198804,0.192172093,0.610238703,-8.83496153,0.924095337,0.892045892
834.5,1.6476880499999997,1.5227908199999998,1.7553187399999999,0.0633486558,-0.945544014,0.036741030460000004,-0.9919716030000002,0.9937561379999998,0.609295945,-1.30069945,0.039300414029999994,-6.3613336,0.205690427,0.579371476,93.70937419999998,1.0126798935234547,-0.704199093580246,-3.10531005859375,0.15540073541905963,0.600325166,0.034311854100000004,0.9620289300000001,0.21772337900000002,-0.6682234680000001,-1.124678853,-0.248587954,0.18992251599999999,0.657287674,-6.10676969,0.9375597819999999,0.634780702
844.5,1.6479465899999997,1.5216896099999997,1.75559017,0.06467750089999999,-0.98516476,0.027152865870000004,-0.9917872180000001,0.9947849229999999,0.60812891,-1.2720458,-0.013455007719999999,-10.0,0.206141622,0.952329147,134.206522,1.9979644656181335,-0.646628487110138,-3.1173718929290772,0.15493606680286193,0.5424774749999999,0.014539558300000002,0.949329835,0.22055329499999998,-0.6720140139999999,-1.2318471939999998,-0.31656638200000004,0.166787126,0.6054262429999999,-9.756409750000001,0.950300163,0.9963510990000002
854.5,1.6478909599999998,1.5220356499999999,1.75529741,0.06412863710000001,-0.978234846,0.02047499742,-0.9912418630000002,0.9948007990000001,0.607122858,-1.2647874399999999,0.0109092417,-7.239297039999999,0.20621277999999998,0.7424648229999999,85.87216079999999,1.5281262025237083,-0.6896793425083161,-3.1199219942092897,0.15447298666641704,0.5860440069999999,-0.12060109979999997,1.0561079000000002,0.271833284,-0.670696615,-1.061061681,-0.33333968,0.15839033000000002,0.6321251889999999,-7.031240638,0.9525434999999998,0.8014824839999999
864.5,1.6477580300000003,1.52327535,1.75522131,0.0638061078,-0.977713163,0.020956617700000003,-0.9918864600000001,0.990956306,0.6041048290000001,-1.2786422,-0.005601056160000001,-9.09279211,0.20702753899999998,0.8898057079999999,113.84451139999999,1.8009390130639076,-0.6761539876461029,-3.138409662246704,0.15401106011895527,0.571718189,-0.16290954350000003,0.9924740309999999,0.272930685,-0.677905294,-1.3183936900000002,-0.30624251399999997,0.167523547,0.619259045,-8.8831508,0.9488892099999999,0.94210696
874.5,1.64795428,1.5222977599999998,1.75523226,0.0641725246,-1.035997893,0.008140772354000004,-0.9905789870000001,0.9927438820000001,0.6050778520000001,-1.2745438900000001,0.020097180410000005,-9.06303328,0.20567782499999998,0.7774286515,136.03745199999997,1.3215992972254753,-0.7391185283660888,-3.1482819318771362,0.15354938039926563,0.6345986709999999,-0.325261719,1.1043949899999999,0.310707099,-0.6804880419999999,-1.55245516,-0.337892891,0.160710661,0.654011596,-8.821224035,0.9774374649999998,0.8267061790000001
884.5,1.64803201,1.5233301099999998,1.75504335,0.06374351290000001,-1.053007717,0.015925040459999998,-0.991217782,0.9888170300000001,0.5978702790000001,-1.24314412,0.01814955591,-8.161476660000002,0.206249978,0.774116261,100.9550949,1.382904242351651,-0.7237389802932739,-3.1583128929138184,0.15308806267214534,0.619126635,-0.32420592840000007,1.08178632,0.301010516,-0.6831404680000001,-1.45214864,-0.361475836,0.15144581000000001,0.6553491840000001,-7.949929420000001,1.069479847,0.8306315059999999
894.5,1.6483113800000002,1.5228170999999997,1.7554221600000002,0.06398381880000001,-1.031323715,-0.007039629250000001,-0.990962001,0.9956234240000003,0.597229801,-1.22957396,0.02067403804,-7.257404864,0.206266075,0.7054704609999999,97.27774409999999,1.3460827812552452,-0.7427676379680633,-3.1559206008911134,0.15262787494573465,0.6390764040000001,-0.2113618661,1.0536891990000001,0.28308889900000006,-0.679169908,-1.2693074999999998,-0.363845659,0.148425588,0.6621294389999999,-7.040292657,1.029339386,0.7714593240000001
904.5,1.6484077200000002,1.5226558000000001,1.75508536,0.06536045870000001,-1.076800782,0.01692877109,-0.9901272330000002,0.993857358,0.607523367,-1.29637761,-0.011768864300000001,-9.09279211,0.206348785,0.9148876189999999,106.47678660000001,1.8222897678613663,-0.705222100019455,-3.16414954662323,0.15216943661163,0.6015861859999999,-0.519634347,1.0940093899999999,0.367101862,-0.6808560180000001,-1.67428004,-0.37391619499999995,0.15438707799999998,0.631626076,-8.89616593,0.9996934820000002,0.975147097
914.5,1.64814252,1.52262006,1.7556907700000004,0.06586342240000001,-1.054521871,0.01973036978,-0.9917637870000002,0.9937544409999999,0.614163179,-1.3135214,-0.014177995609999999,-9.075372106,0.206501671,0.9340441554999999,101.2543307,1.8940637655556203,-0.717997419834137,-3.1626564502716064,0.15171213518499163,0.615199194,-0.6048293680000001,1.0979674099999999,0.355105271,-0.677383656,-1.4948122700000002,-0.34986763100000007,0.157502821,0.6358582009999999,-8.840220736000001,1.01918774,0.9950403619999999
924.5,1.6478863999999998,1.52379046,1.75527096,0.0657626273,-1.097423289,0.01602836692,-0.9903213000000001,0.995112045,0.611369191,-1.3109597999999998,0.008001794500000001,-9.09279211,0.20662031599999997,0.821157782,140.62294939999998,1.5396760761737824,-0.7438528358936309,-3.1713025331497193,0.15125669102284897,0.6410751960000001,-0.457833015,1.1275758200000001,0.347753992,-0.6792899139999999,-1.32094296,-0.333786965,0.157045979,0.6661949939999999,-8.912571080000001,1.016308827,0.8823623490000001
934.5,1.6471732499999998,1.5226420499999997,1.7547859899999998,0.0645621633,-1.0219437040000001,0.030397594,-0.991409083,0.9952655589999999,0.6170637520000001,-1.3016033299999998,0.046958036939999996,-6.343782599999999,0.20628306199999996,0.5123878764,115.44803619999998,0.7235333397984505,-0.7742078006267548,-3.1802191972732543,0.15080244843858842,0.6714302040000001,-0.415279963,1.12423325,0.30215420899999995,-0.681334491,-1.4973865750000002,-0.292249286,0.179025596,0.7145764939999999,-6.11022282,1.0229661349999999,0.589609743
944.5,1.64741165,1.5223063599999997,1.75448892,0.0645284251,-1.0419185100000001,0.0328626984,-0.9892204870000001,0.991388731,0.612048549,-1.29284154,0.044611990799999994,-6.326362596,0.20698765299999997,0.5461063050000001,111.78849300000002,0.8780657269060612,-0.7844687879085541,-3.1672109842300413,0.15034937613636118,0.6834322690000001,-0.631510991,1.11133309,0.318409932,-0.6718023240000001,-1.59648924,-0.22935655100000002,0.200481504,0.71388316,-6.1384492999999996,1.042599831,0.625357295
954.5,1.64817464,1.5237271700000001,1.75498601,0.0641084017,-1.02600526,0.02002812293,-0.9898744769999999,0.994464332,0.601069736,-1.2789146299999998,0.018785979149999996,-9.086104553999999,0.20606185500000002,0.8020128365,128.314684,1.376229103654623,-0.7470415890216827,-3.180022192001343,0.14989891452405835,0.6456939,-0.8896859810000001,1.083428457,0.34717839,-0.6759052000000001,-1.8200370200000002,-0.21871382,0.21163537300000002,0.690837006,-8.90564132,1.03276966,0.8648185099999999
964.5,1.6486514499999998,1.5224379200000002,1.75558196,0.06419317270000001,-0.9777671980000001,0.03854897451,-0.9907231040000001,0.9923747360000001,0.6096483929999998,-1.26688691,0.007533221599999999,-9.09279211,0.206212952,0.85107682,109.2289044,1.52647023499012,-0.7433101832866669,-3.174981713294983,0.1494502107502827,0.6430575879999999,-0.7805441369999999,1.12270227,0.373011311,-0.6706093190000001,-1.59896328,-0.209950387,0.22390387400000003,0.679463436,-8.948816230000002,1.08199655,0.9238045929999998
974.5,1.64694684,1.52192773,1.7552422500000002,0.0648823025,-1.0189661749999999,0.004146596340000001,-0.9910984300000001,0.9886189360000002,0.6142883149999999,-1.28965795,0.013975233650000002,-7.238453172,0.206562153,0.7197704589999999,90.30923170000001,1.3946430638432503,-0.7410604238510132,-3.1518704414367678,0.1490041282631257,0.643308582,-0.735503813,1.0976027900000003,0.371034698,-0.655841701,-1.7345812000000003,-0.20423508699999998,0.24278173699999997,0.70275858,-7.089597816000001,1.06673386,0.806539345
984.5,1.6475228400000002,1.52244338,1.75502982,0.0634539175,-0.9485745979999999,0.0037277176999999983,-0.990689806,0.993117674,0.614876487,-1.31310535,0.00442581048,-9.086104553999999,0.20682721799999998,0.8226537869999999,138.1106427,1.5252446413040162,-0.7815086364746093,-3.169012451171875,0.14856099164360229,0.6830948809999999,-0.8277060910000001,1.1572736399999999,0.364604911,-0.662248372,-1.5066143200000002,-0.18155488800000003,0.239615155,0.693855735,-8.961036510000001,1.11538705,0.900166899
994.5,1.6472636599999997,1.5228938699999999,1.75582216,0.06386645580000001,-1.001325529,0.041300968199999996,-0.9925348770000001,0.995561326,0.60811573,-1.28016462,0.030677507600000004,-8.16078884,0.20581428099999996,0.674323538,140.8506284,1.0798570930957794,-0.7940242886543274,-3.158245825767517,0.14811952162504466,0.697122113,-0.565723334,1.13631888,0.34713993600000004,-0.6540191040000001,-1.46304954,-0.15616277400000003,0.25287203700000005,0.729236303,-8.065698789,1.07107021,0.755936041
1004.5,1.6466269400000002,1.52303758,1.75453361,0.064164696,-1.026149969,0.040287325192,-0.990980341,0.9951907749999999,0.601251198,-1.247870175,0.03331015907,-9.070288956,0.20570518699999996,0.7062703023999999,166.0328763,1.0742163874208928,-0.7869356751441956,-3.184624123573303,0.14767976799097676,0.6886631670000001,-0.621661057,1.1499433399999999,0.34837911800000004,-0.6652417129999999,-1.19112381,-0.11599531299999999,0.244245306,0.7397396629999999,-8.92810091,1.0840996100000002,0.7795650249999999
1014.5,1.6472114699999998,1.52300045,1.75482745,0.0648302688,-1.038533779,0.0325728312,-0.990701774,0.9949532120000001,0.611638342,-1.2957371500000001,0.0115006988,-8.149747846,0.206185618,0.7794272564,105.52366950000001,1.4829984322190284,-0.7842099606990814,-3.179783797264099,0.14724061904511865,0.686982599,-0.6539820749999999,1.16024607,0.379160045,-0.6601269289999999,-1.375402893,-0.037580585605,0.270301379,0.714580782,-8.076933422,1.09270548,0.8706621689999998
1024.5,1.6478353,1.52226903,1.7553451999999996,0.065288977,-1.0577505299999999,0.028782823229999997,-0.9922858960000001,0.9937733120000001,0.605759704,-1.2586016499999997,0.0018893906299999996,-9.09279211,0.206836998,0.8655283389999999,125.35099170000001,1.7174461126327514,-0.771413791179657,-3.183024764060974,0.14680337101773394,0.674607868,-0.7344813215999999,1.1683799,0.398632349,-0.6592357489999999,-1.212939687,0.040755462799999996,0.287911451,0.7030898019999999,-8.98868579,1.0898615299999999,0.952219659
1034.5,1.6484849000000001,1.5233366099999999,1.75521401,0.06496699019999999,-1.064616555,0.044493124599999996,-0.9919363930000001,0.9931973460000002,0.606263541,-1.2726487200000003,-0.0036382564000000004,-8.16078884,0.20685789699999999,0.8190501570000001,121.73200879999999,1.8459116205573083,-0.7203071594238282,-3.1598913431167603,0.1463682449733819,0.625925947,-0.6240815441,1.090773689,0.377126532,-0.644632619,-1.044533881,0.0718832729,0.30426305,0.695282096,-8.11800934,1.1044124899999999,0.9202120870000001
1044.5,1.64730573,1.52236485,1.75553362,0.0656568062,-1.0629101300000001,0.04436344490000001,-0.9903682240000002,0.99091894,0.6051951250000001,-1.23842435,0.01216936486,-10.0,0.20547368900000001,0.8417917520000001,164.0033622,1.4995778024196624,-0.7368962168693542,-3.1747896909713744,0.1459352754506062,0.642031696,-1.0996751470000004,1.166461411,0.43234443899999997,-0.649847325,-1.23578949,0.052754807199999997,0.302990419,0.724485037,-9.9493951,1.09805715,0.9265261390000001
1054.5,1.64747566,1.52371462,1.7547841800000001,0.0655310962,-1.1144886829999998,0.01646540344,-0.9913178760000001,0.9939902049999999,0.6099620500000001,-1.2795680800000002,0.016512733800000005,-7.2631696980000005,0.206676382,0.733586871,85.3281651,1.397594006359577,-0.7613226473331451,-3.1892736911773683,0.1455040033236314,0.666014925,-0.772735202,1.1471007299999998,0.3948355149999999,-0.654825496,-1.2851499499999999,0.0005497456199999983,0.293862596,0.730186517,-7.284036413,1.1111226699999999,0.8459459880000001
1064.5,1.6476296599999998,1.52157551,1.7551242999999999,0.066344284,-1.09743639,0.022368038839999996,-0.988016887,0.992336471,0.604108315,-1.2935630900000004,-0.003587273620000001,-10.0,0.20659856599999998,0.915378055,129.1862631,1.6680036902427673,-0.7686456441879272,-3.1877057552337646,0.14507364537432402,0.6741071940000001,-0.9985089949999999,1.19568685,0.47003023599999993,-0.6514714479999999,-1.43228671,-0.0383193734,0.291873642,0.71478217,-9.959003500000001,1.13403833,1.008548401
1074.5,1.6472734499999997,1.52287192,1.75485728,0.06375608260000001,-1.017287295,0.029687450899999995,-0.991068291,0.9923479839999999,0.609472754,-1.29285191,0.04258184129999999,-9.08951383,0.20673330499999998,0.655164357,191.05305439999998,0.9655908599495888,-0.8059590697288513,-3.1856899738311766,0.1446442811226937,0.7122156289999999,-0.47561450649000003,1.1424965960000002,0.346647165,-0.647901377,-1.3887785099999999,-0.017976879959999997,0.30150292,0.77432794,-9.050916280000001,1.15295284,0.748469149
1084.5,1.6468998,1.52255114,1.75441319,0.06374167480000001,-1.020854661,0.0463808924,-0.99076071,0.9954080660000001,0.604500693,-1.2323041199999998,0.03108147673,-10.0,0.205445768,0.73475722,197.5263735,1.083771640062332,-0.8239001452922821,-3.170595145225525,0.144217127803417,0.73192185,-0.737799112,1.19409857,0.386383705,-0.6375862559999999,-1.4565583000000004,0.012738156197,0.31391056800000006,0.768715243,-9.925563,1.13907827,0.823235629
1094.5,1.64611422,1.52318416,1.7551389,0.06494008759999999,-1.100555054,0.06057644780000001,-0.9878086170000001,0.992894652,0.601295791,-1.2217117700000002,-0.0020943858200000013,-9.09279211,0.205171265,0.8629785139999999,109.240262,1.5808205425739288,-0.8084628164768219,-3.215914177894592,0.1437918884296935,0.7137525799999999,-1.2094952199999998,1.19944418,0.442877291,-0.6584646259999999,-1.34427298,0.0547364233,0.31110497600000003,0.739094385,-9.101751275000002,1.15502378,0.9722464919999998
1104.5,1.64562635,1.52326417,1.7553873500000001,0.0633095357,-0.976328264,0.01969820403,-0.9867877249999999,0.9941241,0.614539385,-1.32459073,-0.0038835912899999976,-9.086104554,0.205103313,0.8779778249999998,112.1311466,1.6651863105595113,-0.8086794972419739,-3.1841367721557616,0.14336665813544042,0.716958719,-1.0673629439999999,1.21503733,0.4665858050000001,-0.6395723609999999,-1.40449088,0.073509026,0.328500806,0.751072508,-9.1826819,1.1697024,0.99528909
1114.5,1.6469171800000002,1.52162883,1.75499692,0.06472971699999999,-1.05034176,0.021166692699999996,-0.990959041,0.9940096319999998,0.6074273710000001,-1.2847168000000002,-0.011874198299999996,-8.163081066,0.206217463,0.874013433,85.012675,1.84153524748981,-0.767559015750885,-3.2155346393585207,0.14294361231194233,0.674157356,-1.1799281010000002,1.2212112899999998,0.49830070299999984,-0.653222919,-1.40719269,0.0517516611,0.312794965,0.7268372390000001,-8.21697692,1.20854614,1.002969765
1124.5,1.64662723,1.5235498799999998,1.7552637,0.06500237780000001,-1.09162938,0.04028405342,-0.990097721,0.9928372119999999,0.6090982549999999,-1.3036563399999999,-0.01102270524,-9.08951383,0.206282431,0.9248742090000001,96.0707486,1.7986868537962437,-0.7662327945232391,-3.208627486228943,0.14252092795809598,0.6739705240000001,-1.194693406,1.2247422599999997,0.49146712499999995,-0.6471654800000001,-1.4107303100000002,0.06179287409999999,0.31570621099999996,0.7297704190000001,-9.1817637,1.17374127,1.048256475
1134.5,1.6464622299999998,1.5209484999999998,1.75545545,0.0643891021,-1.001215106,0.04354538259,-0.989261508,0.9934300379999998,0.6153432239999999,-1.2934659700000002,0.016764396899999996,-7.249836478000001,0.205862847,0.7044435265,97.77734149999999,1.3456885144114494,-0.780834025144577,-3.199966812133789,0.1421001410973662,0.689832287,-1.225848607,1.21554951,0.498034076,-0.640223929,-1.25843588,0.09004964840000002,0.330299068,0.769893206,-7.360335230000001,1.2053808099999999,0.848858248
1144.5,1.64646509,1.51574425,1.75465134,0.06453557129999998,-1.007600686,0.023582307,-0.9930662100000001,0.993289274,0.6154140920000001,-1.30158803,0.014949269049999997,-9.05931357,0.20578967,0.7872048009999999,141.7227787,1.3920055508613587,-0.7924873113632203,-3.1882448196411133,0.1416820496484608,0.702954955,-0.911635368,1.20869536,0.4628790100000001,-0.6317487030000001,-1.8480393,0.0969498885,0.35411672899999996,0.766132697,-9.195810410000002,1.19310507,0.9128569050000002
1154.5,1.6462143699999998,1.5067604,1.7550586400000001,0.06655634880000001,-0.9555689599999997,0.0274666139,-0.992295708,0.9956776520000001,0.615067987,-1.29795027,0.00011238560000000202,-8.171293348,0.206974076,0.8146538754,110.8264642,1.6977071642875672,-0.8007085025310516,-3.228240180015564,0.14126515375886967,0.7088955330000001,-1.24849333,1.27988379,0.5295065969999999,-0.649738318,-1.1223293399999998,0.075564337,0.311133942,0.7492769539999999,-8.448223470000002,1.19880013,0.9679023139999998
1164.5,1.6474679300000001,1.50008994,1.75606809,0.06815388850000001,-0.8613589380000001,0.05998319479999999,-0.9863848210000002,0.992725114,0.608184299,-1.27212345,-0.00281057785,-8.166975273999999,0.209793553,0.8384088479999999,92.6824662,1.7330239832401275,-0.7327821969985961,-3.213790225982666,0.1408478471378787,0.642628571,-1.7202509840000002,1.2311925799999999,0.5642364740000001,-0.639878515,-1.4880962160000002,0.0969720843,0.323542969,0.7270803530000001,-8.45621513,1.20609125,0.9989167379999999
1174.5,1.6470959600000001,1.4979492899999998,1.75693375,0.0673862089,-0.773157047,0.0427803509,-0.9883722110000001,0.9888842280000001,0.60965283,-1.2859230099999999,0.0209674943,-6.342600620000001,0.20994937499999997,0.661188636,83.6531915,1.5183208607137204,-0.829816073179245,-3.2253504037857055,0.14043281572281965,0.7394508930000001,-0.41111419839999996,1.1960854159999998,0.35179711999999996,-0.64329326,-1.563308723,0.08652911139999998,0.32606280400000004,0.767187621,-6.598856530000001,1.22643561,0.8363253179999999
1184.5,1.6456049399999997,1.49366925,1.7589564100000001,0.0685838925,-0.716895729,0.033346940559999996,-0.992116049,0.9936792609999999,0.621537397,-1.3197799,0.004111796830000001,-10.0,0.21108052700000002,0.8973844230000001,136.63691799999998,1.815925282239914,-0.7498738467693329,-3.2290850400924684,0.14001897112964787,0.659853554,-0.29905000000000004,1.05747496,0.341540909,-0.6427282790000001,-1.678420926,0.024706387439999998,0.32061754200000003,0.7643410380000002,-10.21935415,1.23151926,1.0296706539999998
1194.5,1.64651927,1.4979212399999997,1.75671584,0.06727869720000001,-0.7068225580000002,0.05325753092,-0.9896958359999999,0.9946817040000001,0.618325435,-1.30888529,0.04578180196000001,-5.446267364,0.20888812199999998,0.4919230746,93.01251119999999,0.8790742821991444,-0.8680650949478149,-3.2687865018844606,0.13960480919148144,0.7758383480000001,-0.25198192199999997,1.2362191,0.337959143,-0.6604279390000001,-1.7228707399999998,-0.078884172,0.279568643,0.81791537,-5.589378880000001,1.25604908,0.660620874
1204.5,1.646509,1.49339966,1.7597723600000001,0.0675088747,-0.720675584,0.06409145299999999,-0.989262221,0.991627407,0.609352593,-1.2851017000000002,0.002655753470000002,-9.08178648,0.20930414699999997,0.867707967,107.1410397,1.76240167170763,-0.7920452654361725,-3.274420237541199,0.13918976249324558,0.70004387,-0.32273270800000003,1.22765864,0.3838006560000001,-0.6607785030000001,-1.5689289199999998,-0.15884352999999998,0.251463302,0.771981966,-9.315578200000001,1.2701232599999999,1.0026836659999998
1214.5,1.64555842,1.49763324,1.7572799500000003,0.0664948436,-0.681550777,0.08218401722000002,-0.991494149,0.9957615969999999,0.6130523259999999,-1.26208381,-0.010835160380000002,-9.08178648,0.20960629599999997,0.9048307036000001,116.40144999999998,2.0096475541591645,-0.8101925373077392,-3.2810140371322634,0.1387750126984245,0.7183502749999999,-0.397856512,1.2886242300000001,0.410685052,-0.661607651,-1.6988197399999998,-0.23372310500000001,0.231147999,0.785530953,-9.109973465,1.27668759,1.0295699040000001
1224.5,1.6460315699999999,1.4959096699999999,1.7580448999999998,0.067530582,-0.69794677,0.046889008319999995,-0.9903902370000001,0.9926526070000001,0.6154751650000001,-1.31357289,0.011808196117,-8.17902766,0.20804934,0.7502772010000001,111.64745990000002,1.4267160400748253,-0.8430194616317749,-3.300258231163025,0.1383609491356923,0.750452919,-0.34701464800000004,1.3147393400000003,0.401095593,-0.6688258579999999,-2.00869924,-0.303411842,0.20906025599999997,0.804362591,-8.250707045999999,1.27802985,0.897465105
1234.5,1.6463117600000001,1.4956815999999997,1.7576445900000004,0.0662707473,-0.6464715819999999,0.032424816599999996,-0.991319326,0.9932040289999999,0.610154179,-1.29580949,-0.02682841576,-9.06799673,0.21027647900000002,0.9606416353999998,104.46799475,2.2049609273672104,-0.8062953591346741,-3.3284139394760133,0.13794633375189874,0.7123918300000001,-0.46890219,1.3609304000000002,0.459038627,-0.6805176580000001,-1.9233607099999996,-0.33104973000000004,0.19909668,0.774381631,-9.11006575,1.3024309099999998,1.096417033
1244.5,1.64579303,1.49803058,1.75699624,0.06752193640000001,-0.7446735449999999,0.05614673839999999,-0.9905119310000001,0.993109886,0.5994024379999999,-1.24062783,0.02835987075,-8.17902766,0.210455026,0.7002496039999999,130.234876,1.2345636077225208,-0.8760177910327911,-3.294968008995056,0.13753215884956468,0.7850678820000001,-0.374210147,1.34751706,0.392225286,-0.661104931,-1.7747213199999998,-0.32527489899999995,0.202059012,0.8306262029999999,-8.199176224,1.3096326600000001,0.840767668
1254.5,1.6449924800000002,1.49823422,1.7568916,0.06630182200000001,-0.7120190820000001,0.0490268108,-0.991517273,0.9928262269999999,0.6079718139999999,-1.29288721,0.008753209429999999,-10.0,0.21037741599999998,0.8643340930000001,154.206933,1.5963531374931335,-0.8394604980945587,-3.2975263357162476,0.13712043562997173,0.7489484380000001,-0.47392690900000006,1.38414846,0.4497333170000001,-0.659889619,-2.33958601,-0.34352441,0.215788152,0.8240480939999999,-9.949256449999998,1.3413739999999998,0.9827850009999999
1264.5,1.64584004,1.49599799,1.7579502200000001,0.06642211249999999,-0.642077563,0.0406624137,-0.9910303600000001,0.99411138,0.60583244,-1.25019618,0.022745744970000002,-9.079458890000002,0.20960751100000002,0.766374946,131.7853263,1.2882355116307735,-0.8608997523784637,-3.313736319541931,0.13671090890804793,0.769887107,-0.499805809,1.35022056,0.415338579,-0.6655364450000001,-1.88304876,-0.3356952329999999,0.20442621499999997,0.8400099019999999,-9.05638957,1.30250056,0.8982836369999999
1274.5,1.6456486,1.4971130499999998,1.75735028,0.0670821516,-0.720327376,0.06006297650000001,-0.98902736,0.9947017490000001,0.612445579,-1.28542632,0.0257254376,-5.396205267,0.20960130999999999,0.6029164509999999,62.76877579999999,1.3038707219064236,-0.8299190640449524,-3.321224808692932,0.13630234746449027,0.739006627,-0.5429421379999999,1.3487756100000001,0.45016877,-0.666794286,-1.7627649300000001,-0.315128508,0.199575861,0.84395971,-5.4034367329999995,1.3750443200000002,0.786837368
1284.5,1.6454636699999998,1.4956554999999998,1.75843411,0.0672426678,-0.8122569279999998,0.0896585094,-0.9881051270000001,0.9930313310000001,0.610329167,-1.25807242,-0.01210044065,-9.09279211,0.20686109800000002,0.9183269609999998,116.3874916,1.967849650979042,-0.830597561597824,-3.339529252052307,0.13589390384295957,0.7390500830000001,-0.6263132770000001,1.40921807,0.47302814299999996,-0.6734637520000001,-1.6154639199999998,-0.31256229799999996,0.18674219500000003,0.8090208329999999,-9.13405048,1.34935602,1.063685439
1294.5,1.6460402200000002,1.4965217799999997,1.75757343,0.06810981159999999,-0.8031333359999999,0.060537039869999996,-0.991795289,0.9939408569999999,0.610329396,-1.2864272799999998,0.03613980353,-8.120414936,0.208373872,0.6478586024000001,147.78863166000002,1.0773761972784996,-0.8684583008289337,-3.340931534767151,0.13548610636420522,0.777432516,-0.46693332600000004,1.42282274,0.441513946,-0.6716464529999999,-1.9712929000000003,-0.29098343800000004,0.214068477,0.8541974419999999,-8.118034994,1.3732866399999997,0.805930573
1304.5,1.6455483699999998,1.4977774799999997,1.7570505600000002,0.0675597,-0.8485301759999999,0.049797548999999997,-0.99254724,0.994222597,0.605134534,-1.2596792200000002,-0.042398572319999994,-10.0,0.209678808,1.116332125,90.14989700000001,2.5717125415802,-0.8204448342323303,-3.3578277349472048,0.13507924536579446,0.728891151,-0.6379179939999999,1.3965363700000002,0.505151592,-0.6775763359999999,-1.52329799,-0.27753481900000004,0.192264387,0.7855199300000001,-10.0687091,1.41325656,1.25898061
1314.5,1.64524569,1.49456989,1.7587209600000002,0.06884189999999998,-0.7770123830000001,0.056830761800000004,-0.9891170000000002,0.994636531,0.606669632,-1.28558044,-0.00534850592,-9.085188794,0.21068352100000004,0.881465374,110.40940619999999,1.770967109501362,-0.7968356609344482,-3.3502857208251955,0.13467281976219078,0.7064024860000001,-0.8307340799999998,1.36488458,0.5131792820000001,-0.671296074,-1.8842209359999997,-0.251912654,0.21511575,0.821164613,-9.22442383,1.37379967,1.0471812329999999
1324.5,1.64612765,1.49791446,1.7575137399999998,0.06806671,-0.878885535,0.05438487709999999,-0.987012472,0.991852639,0.5994208219999999,-1.26465785,0.01975384444,-8.161250616,0.20962722500000003,0.7389587416,120.98160719999998,1.356886649876833,-0.8628894269466401,-3.3471962213516235,0.13426822921803805,0.7732715729999999,-0.662512584,1.50033256,0.5177014050000001,-0.6672506959999999,-1.455158146,-0.21924148699999998,0.210371942,0.8516394100000001,-8.241412720000001,1.39979604,0.9076162660000001
1334.5,1.64604602,1.4945017900000002,1.7590543799999998,0.06870428409999998,-0.7511638549999999,0.0633647032,-0.98879469,0.9916047219999999,0.6051419590000001,-1.2675832799999998,0.00908238143,-10.0,0.21058112,0.8196916669999998,171.51093380000003,1.4269478917121887,-0.8714751183986664,-3.3578519105911253,0.13386578077011418,0.781750782,-0.752289936,1.4938171899999997,0.506640034,-0.6700580580000001,-1.38353531,-0.214910793,0.21220447399999998,0.8494722109999999,-10.103748800000002,1.45522287,0.9795753939999999
1344.5,1.6451586900000001,1.4960509999999998,1.7584622200000002,0.06855757440000002,-0.841546413,0.0643550852,-0.9909265730000001,0.993860622,0.6059883180000001,-1.25431648,0.006898626979999998,-9.085188794,0.208657007,0.8243275809999998,136.70146060000002,1.5758870095014572,-0.889707225561142,-3.3620929479599,0.13346458231552463,0.8003031909999999,-0.79325518,1.52301712,0.54035772,-0.6696744000000001,-1.28996314,-0.202953803,0.214345467,0.8562370140000001,-9.23454843,1.42607821,0.997213342
1354.5,1.6454755200000002,1.49745175,1.75743908,0.06724302280000001,-0.851918766,0.0578973446,-0.9908670970000001,0.991732869,0.6049864970000001,-1.2771176699999998,0.023468715929999998,-9.029334465,0.21016179399999996,0.7571521290000001,136.75110392999997,1.26469387114048,-0.8935654163360596,-3.361815357208252,0.1330642902428723,0.8047774990000001,-0.785082225,1.53564027,0.530958894,-0.6670531209999999,-1.7270588500000001,-0.200010253,0.22228161899999996,0.88458103,-9.112501235,1.4747620399999999,0.925236673
1364.5,1.64420651,1.49540485,1.7579064299999998,0.06712955109999999,-0.7782433820000001,0.03566845925,-0.9885244610000001,0.991529052,0.6056045260000001,-1.2750881900000002,0.014598669450000004,-9.052422667,0.208686255,0.789853396,138.3320736,1.4032730292528868,-0.9376911103725434,-3.3731470346450805,0.13266553072776208,0.8487544159999999,-0.882325288,1.5215745699999998,0.516272481,-0.670184088,-1.36880436,-0.20025928099999998,0.21446417700000003,0.9043985080000001,-9.196611964999999,1.4665244100000001,0.965293949
1374.5,1.64497754,1.49889946,1.7572977600000002,0.0673590359,-0.8332262290000001,0.0774323421,-0.989777149,0.994160456,0.6075831970000001,-1.2709740899999997,-0.01124654074,-10.0,0.21104062799999998,0.95660637,120.5687925,1.872432142496109,-0.8560443222522736,-3.380048060417175,0.13226770193895693,0.7672500760000001,-1.0331239179999998,1.51864096,0.598402441,-0.671118667,-1.3788709799999999,-0.20000617599999998,0.210673434,0.8690985149999999,-10.15617765,1.52000366,1.1259130400000001
1384.5,1.6447151400000002,1.4949026799999998,1.7578011199999999,0.0678670316,-0.773180465,0.052019064999999996,-0.99048921,0.99218186,0.606492341,-1.28533619,0.028175180600000006,-7.206523950999999,0.210461578,0.631526446,124.14046039999998,1.168628490716219,-0.9035215556621552,-3.3830660343170167,0.13187105173477254,0.815125398,-0.7412775934,1.5070984600000001,0.5045361749999999,-0.670126934,-1.313384617,-0.221383379,0.20325260199999998,0.9175450790000002,-7.3346161,1.4844047,0.847051699
1394.5,1.6455579400000002,1.4966883799999997,1.75844825,0.06696413279999999,-0.823112139,0.04780570295,-0.9896799679999999,0.9903745110000001,0.598367234,-1.25952963,0.026538286,-8.157158586,0.2092604,0.723555258,123.5180241,1.2844468727707863,-0.9508019328117371,-3.392418909072876,0.13147529656247356,0.8623887299999999,-0.8408818449999999,1.63772952,0.570487716,-0.6722666580000001,-1.46994347,-0.203579379,0.20819631,0.9120913240000001,-8.337988324,1.5039248,0.922330442
1404.5,1.6440400199999998,1.50017286,1.7569976100000002,0.0671904982,-0.867855206,0.0500838596,-0.989986407,0.996465064,0.6159748140000001,-1.3193366199999998,0.008134630639999998,-9.09279211,0.209307226,0.822433757,126.1190075,1.4932954020798206,-0.9159544408321381,-3.3848581552505492,0.13108114962081624,0.8286203920000001,-0.8759263089999999,1.58075369,0.579345797,-0.666068264,-1.3793887059999999,-0.18542099,0.219643963,0.9119364579999999,-9.332950209999998,1.51744647,1.0191506559999999
1414.5,1.64499663,1.4993233799999999,1.75779469,0.06689929179999998,-0.8740620960000001,0.05998887258,-0.9873293799999999,0.9944622399999998,0.593533068,-1.24905182,0.019192208180000003,-8.115977734000001,0.208248941,0.7534659376,115.1194222,1.424037551879883,-0.9221103370189667,-3.404366970062256,0.13068797413714534,0.8341037499999999,-0.9119843409999999,1.55944774,0.530588235,-0.6732036210000001,-1.488734604,-0.201752925,0.21101672100000002,0.9119036460000002,-8.36758358,1.5297499,0.961149552
1424.5,1.64470445,1.4970514,1.7573098499999997,0.067938011,-0.8781203490000001,0.07808092812999999,-0.9890955939999999,0.9912708589999999,0.597751869,-1.25334754,0.021787826660000002,-9.08951383,0.209913473,0.775765595,143.2159352,1.3430900312960148,-0.9417025566101074,-3.42208468914032,0.1302954381904436,0.853150265,-1.163108575,1.63956203,0.6203710189999999,-0.679425516,-1.3385132900000003,-0.24326088300000004,0.19342438700000003,0.9198036760000001,-9.343478299999997,1.5326008599999998,0.976469256
1434.5,1.645831,1.49675082,1.7569141899999998,0.0675783596,-0.840263959,0.0479279609,-0.9875947530000001,0.991688471,0.607015361,-1.2754025900000001,0.045878745500000005,-7.257551897000001,0.20986162900000002,0.571835621,142.6604608,0.8995863489806653,-0.9639085054397583,-3.4358840465545653,0.1299029005961821,0.8750654470000001,-1.038928363,1.63284965,0.5779899719999999,-0.683708816,-1.6471830699999999,-0.28117665099999994,0.19515393199999997,0.9355341779999999,-7.549633419999999,1.55143258,0.817812681
1444.5,1.6455870100000003,1.4999549799999996,1.7573546099999997,0.0679163495,-0.879165285,0.036909286080000006,-0.9910942240000002,0.9948090580000001,0.600765057,-1.24834088,0.005494602359999999,-8.175618384,0.21027744900000003,0.8199066949999999,101.19622269999999,1.6591404691338538,-0.9371494114398956,-3.404728651046753,0.12951147476042,0.8508721040000001,-1.0956228280000002,1.61173398,0.6029174789999999,-0.665974938,-1.5538357600000001,-0.258952448,0.20122584699999999,0.902244818,-8.51602357,1.5463786499999999,1.049514704
1454.5,1.64543216,1.49773613,1.75818164,0.06878547659999999,-0.8239987899999999,0.061387604299999995,-0.9850817110000001,0.9938738859999999,0.600842526,-1.2618301399999998,-0.0005189087799999992,-10.0,0.211077497,0.890983215,140.99500460000002,1.6421773314476014,-0.8750080227851867,-3.4232849359512327,0.12912249902613746,0.7881342400000001,-1.1563761399999999,1.5918300899999998,0.6407144680000002,-0.6725949440000001,-1.50376615,-0.21873004499999998,0.21965919699999997,0.894924172,-10.354609700000001,1.55678077,1.108089868
1464.5,1.64396871,1.4954824299999998,1.7586268,0.06918071500000002,-0.8710981950000001,0.0603732351,-0.98944498,0.9912705249999998,0.602616787,-1.2634354,0.0007011467699999972,-8.15027523,0.20780328099999998,0.815533997,100.3205696,1.6369191989302636,-0.9289416491985321,-3.4262424230575563,0.12873491360762698,0.842459554,-1.2646433200000002,1.6243937400000004,0.641541132,-0.671582453,-1.88081904,-0.24592128900000004,0.21731003200000001,0.9159277760000002,-8.52170124,1.58138093,1.065035204
1474.5,1.6438036200000004,1.49708969,1.7573169700000002,0.0679945958,-0.807875102,0.0633712021,-0.9892252559999999,0.992203974,0.6059072600000001,-1.26365,0.02589543967,-8.152312257,0.210350723,0.7073968305,118.7756715,1.1867175482213497,-0.9832092702388764,-3.4306419849395753,0.1283486026167282,0.8970254759999999,-1.29973102,1.6508329,0.631584635,-0.6712791200000001,-1.43024427,-0.278934526,0.19316718100000002,0.9574376219999999,-8.520019640000001,1.56663404,0.95292072
1484.5,1.64350259,1.4967266,1.75845779,0.06821918260000001,-0.7876499889999999,0.05772437855999999,-0.9898872140000001,0.989940266,0.5921784279999999,-1.23685718,0.00885000932,-10.0,0.20888465000000003,0.8245416289999999,165.8709148,1.4056271672248841,-0.9683031678199768,-3.4313937187194825,0.1279636125215738,0.882644464,-1.3789461000000003,1.73169665,0.6932735839999999,-0.6692003919999999,-1.9098656900000002,-0.270258318,0.210936008,0.943090536,-10.353011950000003,1.59488819,1.0541964200000002
1494.5,1.6436095800000001,1.4949250099999998,1.7585300700000002,0.0663881533,-0.6451784530000001,0.08512229710000001,-0.991327783,0.991683261,0.595902874,-1.23460182,0.03041679895,-8.185584219999999,0.20967853400000003,0.6840805269999999,132.9592686,1.125581791996956,-0.9826131224632263,-3.4342234134674072,0.12757996294554788,0.8973450310000001,-1.47037381,1.70664108,0.6352771869999999,-0.668144283,-1.67044489,-0.271379493,0.20149220899999998,0.9731621970000001,-8.751333419999998,1.6104671700000002,0.9470629589999999
1504.5,1.6443057799999998,1.49654723,1.75808686,0.06790047340000001,-0.8080798300000002,0.0512493875,-0.9915076370000001,0.9923380789999999,0.5952569219999999,-1.2378428600000002,0.027047442770000006,-7.26052238,0.209011197,0.6530268054999999,104.9480704,1.1142418406903745,-0.9726482093334198,-3.4554443836212156,0.12719737061301115,0.886636463,-1.34135318,1.6806805099999997,0.647181406,-0.676004312,-1.9880144659999999,-0.273696815,0.21233228399999998,0.9515691760000001,-7.766095710000002,1.60258605,0.9503290360000001
1514.5,1.6433084900000001,1.4968516199999997,1.75799588,0.0662792998,-0.694862615,0.04406994246,-0.9842671679999999,0.9930617629999998,0.5994341769999999,-1.27474249,0.003770418949999999,-9.086104554,0.210009335,0.8565485050000001,122.9438532,1.6077138394117356,-0.9782809376716614,-3.4365929126739503,0.12681590027083667,0.893995053,-1.52791754,1.7068546800000004,0.7103662089999999,-0.664434807,-1.7058410900000003,-0.30134585,0.20117853800000002,0.9563812870000001,-9.61037451,1.62146495,1.113941279
1524.5,1.6443887199999998,1.4977465799999998,1.75803705,0.0674193246,-0.8425202439999999,0.07919105614,-0.9887781610000002,0.9903680530000001,0.59622462,-1.2168564499999999,0.03938897415,-8.171608106999999,0.20763780199999998,0.6100018410000001,164.0384724,0.87977589443326,-1.0127306640148164,-3.4333406686782837,0.12643635634092673,0.929200955,-1.36764984,1.6681655100000001,0.6049144550000001,-0.6604494649999999,-1.6841146299999998,-0.364797866,0.18899648399999996,0.9673752670000002,-8.68240887,1.60938484,0.9009630980000001
1534.5,1.6442806399999998,1.4979129899999999,1.75711002,0.068003624,-0.892951719,0.043195040330000004,-0.99144213,0.9945741079999999,0.5919216370000001,-1.23830791,0.0210038733,-9.090961660000001,0.209383005,0.755999888,146.7704881,1.2368802595883608,-0.9793683111667633,-3.4573100090026854,0.12605879110519397,0.89493212,-1.4744128700000003,1.6946489200000001,0.6846375800000001,-0.669623219,-2.37482292,-0.4169213050000001,0.214520275,0.9527731789999999,-9.59820482,1.6972115700000003,1.0260154090000002
1544.5,1.6439672900000002,1.49835814,1.7579057600000003,0.0674198805,-0.7978526689999998,0.059039687500000014,-0.9907640470000001,0.99249773,0.598285332,-1.2440574800000002,0.01516820114,-9.09279211,0.21044826200000002,0.799457271,132.70541799999998,1.4168298199772835,-0.9572571158409119,-3.4509075403213503,0.12568162307288644,0.8737638530000001,-1.65916748,1.72085517,0.7416387199999999,-0.6641263659999999,-2.09318189,-0.4269403479999999,0.19765955200000002,0.9460659180000002,-9.748871750000001,1.6528130100000002,1.07714145
1554.5,1.64428276,1.4979421699999997,1.7575233899999998,0.06783621840000001,-0.8353592820000001,0.0456184914,-0.9887641510000001,0.990342379,0.595707559,-1.2568334,0.0271734299,-8.133878515000001,0.210121176,0.723855903,115.04963090000001,1.2481731861829757,-1.0328327417373657,-3.463198184967041,0.12530573289057842,0.9491487529999999,-1.4818909470000001,1.7296361199999999,0.6633016460000001,-0.6676430480000001,-2.6200953,-0.46109151600000003,0.20058665800000003,0.959699202,-8.79975873,1.64236328,1.022015366
1564.5,1.64482493,1.4955649699999998,1.7592269699999998,0.0681169661,-0.815175058,0.0678113198,-0.9892866289999999,0.9948985389999999,0.6123700249999999,-1.29446732,-0.0037161723199999968,-9.078815997,0.209675156,0.893624741,110.7846978,1.805909126996994,-0.9090767621994018,-3.454924297332764,0.1249309051959564,0.826440107,-1.8169795799999995,1.6451005200000002,0.75990325,-0.6612633729999999,-1.9177974300000002,-0.471933339,0.15919263,0.921823446,-9.76061809,1.6650104,1.188368144
1574.5,1.6447814,1.4967391300000001,1.7573525499999998,0.0675102778,-0.8601231310000002,0.0572585015,-0.9880161119999998,0.9936561669999999,0.6006969520000001,-1.24987864,-0.005698563919999998,-8.18230594,0.208612319,0.8415967556,103.45727900000001,1.888856391608715,-1.000265234708786,-3.4569902181625367,0.12455764477053335,0.9180480599999999,-1.63086195,1.75409851,0.738051997,-0.6598715479999999,-1.9002473400000004,-0.44777495300000003,0.181465861,0.925241812,-8.8738204,1.71922745,1.1573014289999999
1584.5,1.6444686400000001,1.4966860299999998,1.7577243800000002,0.0679142985,-0.786115667,0.0671326039,-0.9879491930000001,0.9937523450000001,0.591253746,-1.2257299899999998,-0.004550149610000003,-9.075372106,0.209853163,0.88776707,117.1763119,1.7548868924379348,-0.9199712574481964,-3.4741833448410033,0.12418582824156903,0.8372717850000001,-1.83946175,1.7219749500000003,0.8050830010000001,-0.665733861,-2.3465993800000002,-0.47819632700000003,0.190954661,0.9237013279999999,-9.66765444,1.6919104699999998,1.200067158
1594.5,1.64429804,1.4969758499999999,1.75782871,0.06905570289999999,-0.8803157279999999,0.06457818324999999,-0.9879948170000002,0.9926294000000002,0.597953986,-1.2508018600000002,0.004226672659999998,-10.0,0.210481865,0.8448467579999999,160.6479964,1.4309861779212951,-0.972502714395523,-3.4928248643875124,0.12381477166675772,0.889241612,-1.82428695,1.74343875,0.781873768,-0.6722698450000001,-1.88965046,-0.47749907300000005,0.15542474840000003,0.9406563410000001,-10.750799700000002,1.6858491199999999,1.1614258339999999
1604.5,1.6436757800000001,1.4991292599999997,1.7571729900000002,0.0669612565,-0.871726125,0.06042909029999999,-0.986719154,0.9927989499999998,0.5988241049999999,-1.2679385500000002,-0.0024766461300000002,-10.0,0.20991274200000004,0.9444193930000001,116.8070405,1.6736138701438903,-1.0180637955665588,-3.5037577867507936,0.12344355240505411,0.9347025309999999,-2.06578758,1.7806007799999999,0.7959357560000001,-0.675098458,-2.16029292,-0.4304640409999999,0.171366964,0.964517872,-10.8369465,1.7044487499999998,1.23395609
1614.5,1.6437416500000002,1.4980598,1.7574918499999999,0.067758098,-0.8501423279999999,0.0534638382,-0.990008085,0.991353334,0.5944767389999999,-1.2177474199999998,0.004235595000000003,-9.09096166,0.20922831300000003,0.836007314,126.3952864,1.4476252138614654,-1.0167636752128602,-3.496370625495911,0.12307266114354401,0.9343817999999999,-2.03412982,1.7118687399999999,0.8037672199999999,-0.669169578,-1.78354763,-0.38465541999999997,0.175839105,0.969330491,-9.79883673,1.68575796,1.16086263
1624.5,1.64505891,1.49658175,1.75843631,0.06739118939999998,-0.8484420509999999,0.03633866014999999,-0.99006131,0.9949482030000001,0.6112086010000001,-1.30070522,0.0087294873,-9.038628456000001,0.20955688400000003,0.832834442,123.73251660000001,1.4486839026212692,-0.9788648664951325,-3.4905900955200195,0.12270358535634322,0.897362266,-2.36276763,1.71815231,0.8023259770000001,-0.664021828,-1.74739565,-0.344748246,0.211303852,0.9525260469999999,-9.937902879999998,1.70804277,1.1694813899999998
1634.5,1.6442229599999998,1.4972624400000003,1.7584427200000001,0.067833881,-0.877418254,0.028359078660000002,-0.9883636599999999,0.9897027040000002,0.598218774,-1.26548296,-0.0094580291,-9.090961660000001,0.20839444999999998,0.8870624429999999,119.73825379999998,1.645997765660286,-1.0229196786880492,-3.484132480621338,0.12233680114479314,0.9423278669999998,-2.54701605,1.7712936300000002,0.841564204,-0.658574091,-2.3112028000000002,-0.343412281,0.23704740200000002,0.9369913299999997,-10.01175956,1.7623380100000001,1.2445602839999999
1644.5,1.6430095900000001,1.49844887,1.7574245300000002,0.06756955779999999,-0.8172191129999999,0.0492945078,-0.988111054,0.9935640729999999,0.593863092,-1.2619398700000002,0.017975560369999997,-8.14022195,0.21095902500000002,0.7300013849999999,123.39871259999998,1.2308440387248993,-1.0508806884288788,-3.454947566986084,0.12197241831891456,0.972507862,-2.29910972,1.7277912199999998,0.7904085289999999,-0.6423502580000001,-2.1165066,-0.322798071,0.251417084,1.0027836259999998,-9.03631665,1.7216343000000003,1.098470767
1654.5,1.64440315,1.49726791,1.7573461799999996,0.06694129750000001,-0.782853583,0.039887025300000004,-0.9908954120000001,0.993579693,0.5959035399999999,-1.2395421,0.0015164106000000008,-10.0,0.20751498500000004,0.8966925189999999,138.6480896,1.5597098529338838,-0.9829228043556213,-3.4612820625305174,0.12161115461728893,0.9046986539999999,-2.59064622,1.7395182400000002,0.8936911940000002,-0.643041424,-2.24351645,-0.31632531799999997,0.265580456,0.9659325689999999,-10.990662500000001,1.7478773300000001,1.236348514
1664.5,1.6444184699999997,1.49574165,1.7582476999999996,0.0673312414,-0.8209930489999999,0.0645501597,-0.988600234,0.99260094,0.5977103779999998,-1.25689288,0.012890567336,-9.08178648,0.20937920499999998,0.806420088,141.37273340000002,1.4605660371482372,-0.9859147429466247,-3.47649986743927,0.12125165915580893,0.9073262700000001,-2.6300291299999996,1.7126863,0.844378739,-0.647950153,-2.1992262800000004,-0.325942112,0.254442041,0.972850517,-10.134057649999999,1.7127196699999998,1.179190828
1674.5,1.6448423399999998,1.5012620799999998,1.75761075,0.0665889269,-0.8341711350000001,0.05850807950000001,-0.9873045680000001,0.989849983,0.5963557500000001,-1.2514276199999999,-0.0003922823099999995,-8.18375377,0.20776318300000002,0.8302230850000001,102.1258622,1.6388209015130997,-1.043546050786972,-3.4933650493621826,0.12089270471671298,0.96450489,-2.65982324,1.79830501,0.8791347799999999,-0.653619867,-2.53823386,-0.327956644,0.25113656000000006,0.972038116,-9.281712919999999,1.7523803199999997,1.22554443
1684.5,1.6453673100000004,1.4967785699999998,1.75762434,0.06606550290000002,-0.7382285169999999,0.0626007673,-0.987810174,0.9944749340000001,0.59237133,-1.2550155200000002,0.0053454386,-9.073228879999998,0.209979832,0.8782353024999999,107.44605899999999,1.595116876065731,-0.9572733521461487,-3.482084059715271,0.12053437579504542,0.8793889960000001,-2.7394069799999996,1.7736067700000002,0.9004336980000002,-0.645967559,-2.0656713499999997,-0.299843717,0.245823344,0.957827829,-10.14564956,1.78326533,1.248953093
1694.5,1.64488205,1.4974742699999999,1.75789874,0.06808096799999999,-0.8636768050000001,0.055888724900000006,-0.987150078,0.990696855,0.601092453,-1.27119045,0.00863796112,-8.11555982,0.209004869,0.7791326080000002,113.93699470000001,1.4761118710041046,-0.9846551656723023,-3.4837979316711425,0.12017756195999338,0.907181765,-2.72551103,1.7660775699999998,0.9209134559999999,-0.6444708969999999,-2.24573753,-0.32416981599999994,0.24019210900000001,0.957139676,-9.370772579999999,1.7644548299999996,1.211218485
1704.5,1.64494109,1.4982605699999998,1.7573748900000001,0.0678207898,-0.814279165,0.053939383480000005,-0.990297758,0.995168288,0.607036472,-1.28533684,-0.0031407470199999966,-8.176905450000001,0.210299361,0.8452909429,87.9096897,1.6127341724932194,-1.010747367143631,-3.5058303833007813,0.11982167322637265,0.932532979,-2.88258775,1.7595457200000002,0.9245745790000001,-0.6525608860000001,-2.21675992,-0.327257204,0.259916362,0.9539713399999998,-9.439052030000001,1.77214145,1.2847993
1714.5,1.6454256600000001,1.49596127,1.75771083,0.06737904310000001,-0.796184929,0.061216391999999994,-0.9881099699999998,0.9970945200000001,0.597790155,-1.2015953799999999,0.0013955849999999989,-7.232898156999999,0.208619792,0.771116684,85.14067969999999,1.5451147593557835,-0.951959639787674,-3.497489643096924,0.1194664766636911,0.874722805,-3.02565733,1.74292021,0.9812880820000001,-0.646323983,-2.3107884200000006,-0.333819843,0.25897507200000003,0.9592540450000001,-8.451573970000002,1.7883984600000005,1.252033148
1724.5,1.64499362,1.4977524899999999,1.7580604299999998,0.06703467,-0.7521124699999999,0.05969976899999999,-0.9911658300000001,0.991829431,0.6022438460000001,-1.25558651,-0.0328831689,-10.0,0.2077658,1.0779159610000002,102.74578279999999,2.1592132449150085,-1.0029730796813965,-3.5320420980453493,0.11911209684474659,0.9243041120000001,-3.3508599499999994,1.8587016500000004,1.0121402800000001,-0.66026685,-2.57123361,-0.37286072800000003,0.254040202,0.9369988350000001,-11.4400366,1.8101697400000003,1.4773163999999999
1734.5,1.64467767,1.4973007599999997,1.7574837899999998,0.0670619099,-0.8584029259999999,0.053737409699999995,-0.9875236560000001,0.987875102,0.59705912,-1.2442699099999999,0.02517768919,-9.078815997,0.209447967,0.7436935683999999,158.18112860000002,1.2354429572820664,-1.0197378933429717,-3.5181020975112913,0.11875775679734886,0.942355375,-3.2503371100000003,1.8550189400000001,0.9369522499999998,-0.6514036269999999,-1.9979456,-0.346126844,0.24179200199999995,0.9918200990000001,-10.360492449999999,1.79636532,1.176916757
1744.5,1.6450603999999998,1.50125118,1.75713636,0.0670868936,-0.8636075890000001,0.0786975132,-0.985774681,0.9952490060000001,0.599240604,-1.24833259,0.009482182717000001,-9.085188794,0.20804277799999998,0.828381709,131.0309307,1.4832012951374054,-0.9407329022884369,-3.527473497390747,0.11840462239488894,0.8633332890000001,-3.035286009999999,1.7520175099999995,0.957448193,-0.65349094,-2.0801199400000003,-0.36396637200000004,0.21418060300000002,0.970494954,-10.427120420000001,1.80240966,1.2779288
1754.5,1.64495932,1.4979392299999998,1.75722217,0.06684743200000001,-0.8239069540000001,0.053241824699999996,-0.9893615510000002,0.9925379559999999,0.601896717,-1.29485036,-0.0079020823,-8.142589953999998,0.209838549,0.87884376,80.7313443,1.6596131697297096,-0.9746439337730408,-3.5493408918380736,0.11805219213600457,0.8965381649999999,-3.3394729600000006,1.82131476,1.0499433750000002,-0.6614206200000001,-2.1387533700000003,-0.35275962299999997,0.225399545,0.9566874070000001,-9.59774757,1.8098909000000003,1.35361596
1764.5,1.6440734199999998,1.49751435,1.75743288,0.06793150290000001,-0.8317256350000001,0.05378835587999999,-0.9894637190000001,0.9926258729999999,0.588969031,-1.2359741,0.00778825314,-10.0,0.20903817600000002,0.8494733059999999,154.34904039999998,1.3787921071052551,-0.9729746520519257,-3.5507492780685426,0.11770021791469039,0.895297462,-3.36486398,1.75037786,1.0012260860000002,-0.659759693,-2.2615893799999998,-0.34746186999999995,0.23683771200000003,0.9754917579999999,-11.663910049999998,1.82268924,1.3186669999999998
1774.5,1.6442659300000002,1.49702378,1.75812165,0.0667079216,-0.75631537,0.03403727215,-0.9876438299999999,0.992003835,0.598910755,-1.2582916599999998,-0.018077988149999998,-9.086104553999999,0.209368686,0.9322697474,98.5867258,1.7279034733772278,-0.9909132242202758,-3.5607324600219727,0.11734909432447486,0.9131933629999999,-3.82040688,1.9007349200000003,1.1174167799999999,-0.6621025150000002,-2.04657668,-0.379744361,0.209654907,0.9588683650000001,-10.791143270000001,1.78743826,1.421626834
1784.5,1.6445151299999998,1.50060464,1.7569558799999996,0.06639837019999999,-0.828757778,0.03788056400999999,-0.9850745329999999,0.9936131859999999,0.602028422,-1.2755419500000003,0.020503548000000003,-9.08594379,0.20883412100000004,0.7342855589999998,166.5363149,1.3158911123871804,-1.0023663222789765,-3.5644973516464233,0.11699838179877317,0.92494302,-3.17169428,1.8110598399999998,1.0024369169999998,-0.6615433960000001,-2.0023323000000004,-0.34808590100000003,0.226657054,0.9880232770000001,-10.429596479999999,1.8324024600000002,1.237455254
1794.5,1.64443011,1.50053626,1.7580696000000002,0.06709173939999999,-0.860707262,0.06722952349999999,-0.9878633210000001,0.993275727,0.600411312,-1.24751625,-0.01841305483,-10.0,0.208535183,1.002559691,115.70421040000001,2.029144275188446,-1.0303161084651946,-3.5658669471740723,0.11664906309668192,0.953321695,-3.3191052599999997,1.8438288900000004,1.058441347,-0.6598619149999999,-1.9863178100000003,-0.34271646699999997,0.227763829,0.9589064800000001,-11.815120299999998,1.8229009800000004,1.48508079
1804.5,1.6448145100000002,1.5000158,1.7572552600000002,0.0680085965,-0.90364655,0.0657677673,-0.9887552180000002,0.9949713749999999,0.5902067309999999,-1.1949321800000001,0.016330254,-9.0564854,0.20822989499999997,0.8034192024,140.35327990000002,1.4886679351329803,-0.935457843542099,-3.5716111183166506,0.11630070982802379,0.858649962,-3.5989008999999994,1.71890499,1.0490694900000002,-0.660227834,-1.8873371800000005,-0.350790396,0.212229991,0.972100485,-10.916810350000002,1.83632284,1.3284014799999997
1814.5,1.6451809599999998,1.49826872,1.7573967300000004,0.06692471750000001,-0.887419901,0.05806281879999999,-0.9912096800000001,0.9937452520000001,0.590741869,-1.23312185,0.0169240473,-9.08951383,0.209165047,0.7807965419999999,151.0291591,1.3233150392770767,-0.9749009728431701,-3.5659194946289063,0.11595363722473132,0.8988966359999999,-3.5442163,1.7866153999999999,1.0804583659999998,-0.655280421,-2.23875781,-0.359943988,0.234115113,0.9674248499999999,-10.906676,1.8271757499999999,1.32754505
1824.5,1.64557258,1.49690649,1.75752686,0.06695685970000001,-0.865299061,0.06904661519999998,-0.985855215,0.9945499100000001,0.5829062859999999,-1.1925824900000002,0.020637463,-9.090961660000001,0.20956585900000002,0.8009900600000002,133.5862054,1.298876443505287,-1.00538769364357,-3.572165846824646,0.11560796919361771,0.929539567,-3.7496920099999995,1.8322341899999999,1.087101527,-0.6558862590000001,-1.9115140300000004,-0.378950692,0.20642511900000002,0.9587016599999998,-11.07709065,1.8307424300000001,1.346025856
1834.5,1.64470426,1.49905336,1.7580864600000001,0.06687063500000001,-0.809246914,0.0708014954,-0.9884326080000001,0.99358896,0.5912934359999998,-1.2294441900000002,0.010915386499999999,-8.171608107,0.20905078099999996,0.7861209279999999,105.296037,1.3916412875056268,-1.0196403384208679,-3.5838880062103273,0.11526327592660571,0.9436559680000001,-4.04907603,1.8386708999999997,1.0997814209999999,-0.659025476,-2.08226177,-0.37559356799999993,0.20683658800000004,0.9872473070000002,-10.15963268,1.83411296,1.3650683970000002
1844.5,1.6441332199999998,1.4989175,1.7569961500000002,0.06832492220000001,-0.8870531300000002,0.07475834914999999,-0.9738989660000001,0.9909532000000001,0.585863732,-1.21937295,0.00959880268,-10.0,0.21011708099999998,0.8493967009999999,154.85404190000003,1.3805993378162384,-0.9893887579441071,-3.595837140083313,0.11491946519956167,0.9132603610000001,-3.87485451,1.86412877,1.1433571200000001,-0.662255665,-2.0418437,-0.394206954,0.20195942000000003,0.9718808729999999,-11.7722503,1.8678123199999999,1.40071829
1854.5,1.64356998,1.5009984599999997,1.7567903999999999,0.067815898,-0.8828380749999999,0.05194651910000001,-0.9912229830000001,0.99126213,0.5987016940000001,-1.2579715799999998,0.03461103399999999,-9.086104553999999,0.207485176,0.6830857129999999,176.5766615,1.0258270859718324,-1.0417004704475403,-3.6058676481246947,0.1145760959650354,0.9655319889999999,-3.6588778700000004,1.85149155,1.039702533,-0.6645902290000001,-2.3645871499999997,-0.37521307400000004,0.23144795599999995,1.033823113,-11.11370139,1.87350943,1.2591212999999999
1864.5,1.64363255,1.49891056,1.7583649700000001,0.0685560372,-0.9019394029999999,0.057205485300000004,-0.9903573500000002,0.9922471310000001,0.5848759429999999,-1.2035283500000002,0.014018968540000001,-7.239827996,0.208423804,0.7138453505,86.8129201,1.2878463767468928,-1.038105833530426,-3.6070849657058717,0.11423349600936306,0.962364408,-3.9865933599999996,1.90901233,1.1461015069999998,-0.6628510550000002,-1.99760107,-0.359320426,0.23041463599999998,0.9865421619999999,-9.52103078,1.8532604400000001,1.378071255
1874.5,1.64369274,1.4990741599999997,1.7572311299999999,0.067443807,-0.857952089,0.0688288325,-0.9881956370000001,0.9907445129999999,0.5960874840000001,-1.23039166,0.019256907,-9.052778566,0.210098572,0.7678807499999999,144.4427435,1.3680114552378655,-1.0087243974208833,-3.619294214248657,0.11389152928759656,0.9328293230000002,-4.19025376,1.86775653,1.1510242000000002,-0.666181028,-2.0448987099999996,-0.384302677,0.193354168,1.0215370529999999,-10.9357473,1.87834796,1.3435196159999998
1884.5,1.6439101999999999,1.4951400599999998,1.7587959299999998,0.0668718389,-0.7508507310000001,0.0490193669,-0.9855362659999999,0.9898710420000001,0.595112565,-1.26693968,0.013805601695,-10.0,0.20845978199999998,0.807750171,167.4659038,1.2611240088939666,-1.005478572845459,-3.630582666397095,0.11354986249374961,0.929481734,-4.38697486,1.87778073,1.22353671,-0.669073351,-1.8589377799999998,-0.35035102300000004,0.196760752,0.992744346,-11.799889800000003,1.8698640800000004,1.41375934
1894.5,1.6438149,1.4979842599999997,1.75804096,0.0669559606,-0.8028118639999999,0.060108122900000005,-0.9879827170000001,0.9928221370000001,0.600298995,-1.26872096,0.014679855700000003,-10.0,0.208968905,0.823916981,165.0164645,1.3419778108596803,-1.0334970951080322,-3.6137826442718506,0.1132094024506221,0.958862527,-3.92296272,1.8374338400000003,1.0857494330000002,-0.659058297,-1.6244483199999997,-0.33106538100000005,0.20298961699999998,1.014025647,-12.104819599999999,1.8719147299999999,1.4191224999999998
1904.5,1.6442400400000001,1.4992492599999998,1.7572139400000002,0.0673839333,-0.823053257,0.0748318362,-0.981327415,0.988612521,0.587485788,-1.212416,0.01934568823,-9.075372106,0.20934489699999997,0.7715140230000002,145.58169439999998,1.285968916118145,-1.0223907232284546,-3.629778814315796,0.11287075002075617,0.947409225,-3.93994925,1.7838175299999999,1.1364273360000001,-0.664111463,-2.19425187,-0.348580531,0.229960616,1.0107928469999998,-11.057268480000001,1.8818878299999997,1.39359549
1914.5,1.6445491300000001,1.50169828,1.75768816,0.06614305499999999,-0.8834505890000001,0.06980443665,-0.9852083540000001,0.9918528289999999,0.591906117,-1.23001637,-0.010260549594999998,-9.08951383,0.20839915599999997,0.9187202029999998,100.62996739999998,1.7216378033161164,-0.9866585314273835,-3.6256628036499023,0.11253317734623854,0.9123702149999999,-4.4261985500000005,1.8458796900000003,1.2758933399999999,-0.6599452639999999,-1.8962611800000002,-0.359898438,0.208834546,0.988493629,-11.64536341,1.8904965099999997,1.56272145
1924.5,1.6445665699999996,1.50192623,1.7578971799999998,0.0665531117,-0.8557187330000001,0.08074376450000001,-0.9857856289999999,0.9860572020000001,0.5906299840000001,-1.21676606,0.03725495019999999,-7.212914863,0.208356087,0.6194599180000001,117.54341980000001,1.0330198675394058,-1.0792070150375366,-3.6280827045440676,0.1121972440655525,1.005272929,-4.0462671100000005,1.88127356,1.123568324,-0.6587768139999999,-1.9916303799999997,-0.339894641,0.23173493,1.0324835789999998,-9.86430552,1.92124418,1.312772666
1934.5,1.6450840600000003,1.5005341099999998,1.7570752600000001,0.06714970540000001,-0.8645812279999999,0.0867987178,-0.9828331269999999,0.995665721,0.5882681989999999,-1.2118730799999997,-0.00791116974,-10.0,0.20974739800000003,0.9558222799999999,122.12289919999998,1.658467984199524,-0.9856472015380859,-3.6294977188110353,0.11186233608938508,0.9121134120000001,-4.47836915,1.9083998699999996,1.3158261900000001,-0.657163004,-1.84084617,-0.349680231,0.20720798699999995,0.955052284,-12.3459364,1.8895880999999999,1.58486623
